shared/luts/fuji_nostalgic_neg_approx.cube
TITLE "Fuji Nostalgic Neg approx"
LUT_3D_SIZE 5
0.105600 0.081400 0.064400
0.331320 0.081400 0.064400
0.580800 0.081400 0.064400
0.830280 0.081400 0.064400
1.000000 0.081400 0.064400
0.105600 0.294580 0.064400
0.331320 0.294580 0.064400
0.580800 0.294580 0.064400
0.830280 0.294580 0.064400
1.000000 0.294580 0.064400
0.105600 0.530200 0.064400
0.331320 0.530200 0.064400
0.580800 0.530200 0.064400
0.830280 0.530200 0.064400
1.000000 0.530200 0.064400
0.105600 0.765820 0.064400
0.331320 0.765820 0.064400
0.580800 0.765820 0.064400
0.830280 0.765820 0.064400
1.000000 0.765820 0.064400
0.105600 0.979000 0.064400
0.331320 0.979000 0.064400
0.580800 0.979000 0.064400
0.830280 0.979000 0.064400
1.000000 0.979000 0.064400
0.105600 0.081400 0.256680
0.331320 0.081400 0.256680
0.580800 0.081400 0.256680
0.830280 0.081400 0.256680
1.000000 0.081400 0.256680
0.105600 0.294580 0.256680
0.331320 0.294580 0.256680
0.580800 0.294580 0.256680
0.830280 0.294580 0.256680
1.000000 0.294580 0.256680
0.105600 0.530200 0.256680
0.331320 0.530200 0.256680
0.580800 0.530200 0.256680
0.830280 0.530200 0.256680
1.000000 0.530200 0.256680
0.105600 0.765820 0.256680
0.331320 0.765820 0.256680
0.580800 0.765820 0.256680
0.830280 0.765820 0.256680
1.000000 0.765820 0.256680
0.105600 0.979000 0.256680
0.331320 0.979000 0.256680
0.580800 0.979000 0.256680
0.830280 0.979000 0.256680
1.000000 0.979000 0.256680
0.105600 0.081400 0.469200
0.331320 0.081400 0.469200
0.580800 0.081400 0.469200
0.830280 0.081400 0.469200
1.000000 0.081400 0.469200
0.105600 0.294580 0.469200
0.331320 0.294580 0.469200
0.580800 0.294580 0.469200
0.830280 0.294580 0.469200
1.000000 0.294580 0.469200
0.105600 0.530200 0.469200
0.331320 0.530200 0.469200
0.580800 0.530200 0.469200
0.830280 0.530200 0.469200
1.000000 0.530200 0.469200
0.105600 0.765820 0.469200
0.331320 0.765820 0.469200
0.580800 0.765820 0.469200
0.830280 0.765820 0.469200
1.000000 0.765820 0.469200
0.105600 0.979000 0.469200
0.331320 0.979000 0.469200
0.580800 0.979000 0.469200
0.830280 0.979000 0.469200
1.000000 0.979000 0.469200
0.105600 0.081400 0.681720
0.331320 0.081400 0.681720
0.580800 0.081400 0.681720
0.830280 0.081400 0.681720
1.000000 0.081400 0.681720
0.105600 0.294580 0.681720
0.331320 0.294580 0.681720
0.580800 0.294580 0.681720
0.830280 0.294580 0.681720
1.000000 0.294580 0.681720
0.105600 0.530200 0.681720
0.331320 0.530200 0.681720
0.580800 0.530200 0.681720
0.830280 0.530200 0.681720
1.000000 0.530200 0.681720
0.105600 0.765820 0.681720
0.331320 0.765820 0.681720
0.580800 0.765820 0.681720
0.830280 0.765820 0.681720
1.000000 0.765820 0.681720
0.105600 0.979000 0.681720
0.331320 0.979000 0.681720
0.580800 0.979000 0.681720
0.830280 0.979000 0.681720
1.000000 0.979000 0.681720
0.105600 0.081400 0.874000
0.331320 0.081400 0.874000
0.580800 0.081400 0.874000
0.830280 0.081400 0.874000
1.000000 0.081400 0.874000
0.105600 0.294580 0.874000
0.331320 0.294580 0.874000
0.580800 0.294580 0.874000
0.830280 0.294580 0.874000
1.000000 0.294580 0.874000
0.105600 0.530200 0.874000
0.331320 0.530200 0.874000
0.580800 0.530200 0.874000
0.830280 0.530200 0.874000
1.000000 0.530200 0.874000
0.105600 0.765820 0.874000
0.331320 0.765820 0.874000
0.580800 0.765820 0.874000
0.830280 0.765820 0.874000
1.000000 0.765820 0.874000
0.105600 0.979000 0.874000
0.331320 0.979000 0.874000
0.580800 0.979000 0.874000
0.830280 0.979000 0.874000
1.000000 0.979000 0.874000
