shared/luts/fuji_velvia_approx.cube
TITLE "Fuji Velvia approx"
LUT_3D_SIZE 5
0.000000 0.000000 0.000000
0.235996 0.000000 0.000000
0.605118 0.000000 0.000000
0.974240 0.000000 0.000000
1.000000 0.000000 0.000000
0.000000 0.224994 0.000000
0.209386 0.216636 0.000000
0.578508 0.203564 0.000000
0.947630 0.190492 0.000000
1.000000 0.182134 0.000000
0.000000 0.576908 0.000000
0.167766 0.568550 0.000000
0.536888 0.555478 0.000000
0.906010 0.542405 0.000000
1.000000 0.534048 0.000000
0.000000 0.928822 0.000000
0.126146 0.920464 0.000000
0.495268 0.907392 0.000000
0.864389 0.894319 0.000000
1.000000 0.885962 0.000000
0.000000 1.000000 0.000000
0.099536 1.000000 0.000000
0.468658 1.000000 0.000000
0.837780 1.000000 0.000000
1.000000 1.000000 0.000000
0.000000 0.001764 0.254975
0.233310 0.000000 0.237712
0.602432 0.000000 0.210710
0.971554 0.000000 0.183709
1.000000 0.000000 0.166446
0.000000 0.226758 0.227863
0.206700 0.218400 0.210600
0.575822 0.205328 0.183599
0.944944 0.192255 0.156597
1.000000 0.183898 0.139334
0.000000 0.578672 0.185458
0.165080 0.570314 0.168194
0.534202 0.557241 0.141193
0.903324 0.544169 0.114191
1.000000 0.535811 0.096928
0.000000 0.930585 0.143052
0.123459 0.922228 0.125789
0.492581 0.909155 0.098787
0.861703 0.896083 0.071786
1.000000 0.887725 0.054523
0.000000 1.000000 0.115940
0.096850 1.000000 0.098677
0.465971 1.000000 0.071675
0.835093 1.000000 0.044674
1.000000 1.000000 0.027411
0.000000 0.004522 0.653782
0.229108 0.000000 0.636519
0.598230 0.000000 0.609517
0.967352 0.000000 0.582516
1.000000 0.000000 0.565253
0.000000 0.229516 0.626670
0.202498 0.221159 0.609407
0.571620 0.208086 0.582406
0.940742 0.195014 0.555404
1.000000 0.186656 0.538141
0.000000 0.581430 0.584265
0.160878 0.573072 0.567001
0.530000 0.560000 0.540000
0.899122 0.546928 0.512999
1.000000 0.538570 0.495735
0.000000 0.933344 0.541859
0.119258 0.924986 0.524596
0.488380 0.911914 0.497594
0.857502 0.898841 0.470593
1.000000 0.890484 0.453330
0.000000 1.000000 0.514747
0.092648 1.000000 0.497484
0.461770 1.000000 0.470483
0.830892 1.000000 0.443481
1.000000 1.000000 0.426218
0.000000 0.007281 1.000000
0.224906 0.000000 1.000000
0.594028 0.000000 1.000000
0.963150 0.000000 0.981323
1.000000 0.000000 0.964060
0.000000 0.232275 1.000000
0.198297 0.223917 1.000000
0.567419 0.210845 0.981213
0.936541 0.197772 0.954211
1.000000 0.189415 0.936948
0.000000 0.584189 0.983072
0.156676 0.575831 0.965809
0.525798 0.562759 0.938807
0.894920 0.549686 0.911806
1.000000 0.541328 0.894542
0.000000 0.936103 0.940666
0.115056 0.927745 0.923403
0.484178 0.914672 0.896401
0.853300 0.901600 0.869400
1.000000 0.893242 0.852137
0.000000 1.000000 0.913554
0.088446 1.000000 0.896291
0.457568 1.000000 0.869290
0.826690 1.000000 0.842288
1.000000 1.000000 0.825025
0.000000 0.009044 1.000000
0.222220 0.000687 1.000000
0.591342 0.000000 1.000000
0.960464 0.000000 1.000000
1.000000 0.000000 1.000000
0.000000 0.234039 1.000000
0.195610 0.225681 1.000000
0.564732 0.212608 1.000000
0.933854 0.199536 1.000000
1.000000 0.191178 1.000000
0.000000 0.585952 1.000000
0.153990 0.577595 1.000000
0.523112 0.564522 1.000000
0.892234 0.551450 1.000000
1.000000 0.543092 1.000000
0.000000 0.937866 1.000000
0.112370 0.929508 1.000000
0.481492 0.916436 1.000000
0.850614 0.903364 1.000000
1.000000 0.895006 1.000000
0.000000 1.000000 1.000000
0.085760 1.000000 1.000000
0.454882 1.000000 1.000000
0.824004 1.000000 1.000000
1.000000 1.000000 1.000000
