shared/luts/fuji_classic_chrome_approx.cube
TITLE "Fuji Classic Chrome approx"
LUT_3D_SIZE 9
0.057600 0.040000 0.041600
0.128878 0.043381 0.043667
0.230169 0.048186 0.046605
0.331459 0.052990 0.049543
0.432749 0.057795 0.052480
0.534039 0.062599 0.055418
0.635329 0.067404 0.058356
0.736620 0.072208 0.061294
0.807898 0.075589 0.063361
0.068291 0.122372 0.053429
0.139570 0.125753 0.055496
0.240860 0.130557 0.058434
0.342150 0.135362 0.061371
0.443440 0.140166 0.064309
0.544730 0.144971 0.067247
0.646021 0.149776 0.070185
0.747311 0.154580 0.073122
0.818589 0.157961 0.075190
0.083484 0.239427 0.070238
0.154763 0.242808 0.072305
0.256053 0.247612 0.075243
0.357343 0.252417 0.078181
0.458633 0.257221 0.081118
0.559924 0.262026 0.084056
0.661214 0.266830 0.086994
0.762504 0.271635 0.089932
0.833782 0.275016 0.091999
0.098677 0.356481 0.087047
0.169956 0.359862 0.089115
0.271246 0.364667 0.092052
0.372536 0.369472 0.094990
0.473826 0.374276 0.097928
0.575117 0.379081 0.100866
0.676407 0.383885 0.103803
0.777697 0.388690 0.106741
0.848975 0.392071 0.108808
0.113871 0.473536 0.103857
0.185149 0.476917 0.105924
0.286439 0.481722 0.108862
0.387729 0.486526 0.111799
0.489019 0.491331 0.114737
0.590310 0.496135 0.117675
0.691600 0.500940 0.120613
0.792890 0.505745 0.123550
0.864168 0.509125 0.125618
0.129064 0.590591 0.120666
0.200342 0.593972 0.122733
0.301632 0.598777 0.125671
0.402922 0.603581 0.128609
0.504212 0.608386 0.131546
0.605503 0.613190 0.134484
0.706793 0.617995 0.137422
0.808083 0.622799 0.140360
0.879361 0.626180 0.142427
0.144257 0.707646 0.137475
0.215535 0.711027 0.139543
0.316825 0.715831 0.142480
0.418115 0.720636 0.145418
0.519406 0.725440 0.148356
0.620696 0.730245 0.151294
0.721986 0.735050 0.154231
0.823276 0.739854 0.157169
0.894554 0.743235 0.159236
0.159450 0.824701 0.154285
0.230728 0.828082 0.156352
0.332018 0.832886 0.159290
0.433308 0.837691 0.162227
0.534599 0.842495 0.165165
0.635889 0.847300 0.168103
0.737179 0.852104 0.171041
0.838469 0.856909 0.173978
0.909748 0.860290 0.176046
0.170141 0.907073 0.166113
0.241419 0.910453 0.168181
0.342710 0.915258 0.171118
0.444000 0.920063 0.174056
0.545290 0.924867 0.176994
0.646580 0.929672 0.179932
0.747870 0.934476 0.182869
0.849161 0.939281 0.185807
0.920439 0.942662 0.187874
0.058679 0.042597 0.119588
0.129958 0.045978 0.121655
0.231248 0.050783 0.124593
0.332538 0.055587 0.127531
0.433828 0.060392 0.130468
0.535118 0.065196 0.133406
0.636409 0.070001 0.136344
0.737699 0.074805 0.139281
0.808977 0.078186 0.141349
0.069371 0.124969 0.131417
0.140649 0.128350 0.133484
0.241939 0.133155 0.136422
0.343229 0.137959 0.139359
0.444520 0.142764 0.142297
0.545810 0.147568 0.145235
0.647100 0.152373 0.148172
0.748390 0.157177 0.151110
0.819669 0.160558 0.153177
0.084564 0.242024 0.148226
0.155842 0.245405 0.150293
0.257132 0.250209 0.153231
0.358422 0.255014 0.156169
0.459713 0.259818 0.159106
0.561003 0.264623 0.162044
0.662293 0.269428 0.164982
0.763583 0.274232 0.167920
0.834862 0.277613 0.169987
0.099757 0.359079 0.165035
0.171035 0.362460 0.167103
0.272325 0.367264 0.170040
0.373616 0.372069 0.172978
0.474906 0.376873 0.175916
0.576196 0.381678 0.178853
0.677486 0.386482 0.181791
0.778776 0.391287 0.184729
0.850055 0.394668 0.186796
0.114950 0.476133 0.181845
0.186228 0.479514 0.183912
0.287518 0.484319 0.186850
0.388809 0.489123 0.189787
0.490099 0.493928 0.192725
0.591389 0.498733 0.195663
0.692679 0.503537 0.198600
0.793969 0.508342 0.201538
0.865248 0.511723 0.203605
0.130143 0.593188 0.198654
0.201421 0.596569 0.200721
0.302711 0.601374 0.203659
0.404002 0.606178 0.206597
0.505292 0.610983 0.209534
0.606582 0.615787 0.212472
0.707872 0.620592 0.215410
0.809162 0.625396 0.218348
0.880441 0.628777 0.220415
0.145336 0.710243 0.215463
0.216614 0.713624 0.217531
0.317904 0.718428 0.220468
0.419195 0.723233 0.223406
0.520485 0.728038 0.226344
0.621775 0.732842 0.229281
0.723065 0.737647 0.232219
0.824355 0.742451 0.235157
0.895634 0.745832 0.237224
0.160529 0.827298 0.232273
0.231807 0.830679 0.234340
0.333097 0.835483 0.237278
0.434388 0.840288 0.240215
0.535678 0.845092 0.243153
0.636968 0.849897 0.246091
0.738258 0.854702 0.249028
0.839549 0.859506 0.251966
0.910827 0.862887 0.254033
0.171220 0.909670 0.244101
0.242499 0.913051 0.246169
0.343789 0.917855 0.249106
0.445079 0.922660 0.252044
0.546369 0.927464 0.254982
0.647659 0.932269 0.257919
0.748950 0.937073 0.260857
0.850240 0.941878 0.263795
0.921518 0.945259 0.265862
0.060213 0.046288 0.230413
0.131491 0.049669 0.232480
0.232782 0.054473 0.235418
0.334072 0.059278 0.238356
0.435362 0.064082 0.241293
0.536652 0.068887 0.244231
0.637942 0.073692 0.247169
0.739233 0.078496 0.250106
0.810511 0.081877 0.252174
0.070904 0.128660 0.242242
0.142183 0.132041 0.244309
0.243473 0.136845 0.247247
0.344763 0.141650 0.250184
0.446053 0.146454 0.253122
0.547344 0.151259 0.256060
0.648634 0.156063 0.258997
0.749924 0.160868 0.261935
0.821202 0.164249 0.264002
0.086097 0.245714 0.259051
0.157376 0.249095 0.261118
0.258666 0.253900 0.264056
0.359956 0.258705 0.266994
0.461246 0.263509 0.269931
0.562537 0.268314 0.272869
0.663827 0.273118 0.275807
0.765117 0.277923 0.278745
0.836395 0.281304 0.280812
0.101291 0.362769 0.275860
0.172569 0.366150 0.277928
0.273859 0.370955 0.280865
0.375149 0.375759 0.283803
0.476439 0.380564 0.286741
0.577730 0.385368 0.289678
0.679020 0.390173 0.292616
0.780310 0.394978 0.295554
0.851588 0.398358 0.297621
0.116484 0.479824 0.292670
0.187762 0.483205 0.294737
0.289052 0.488010 0.297675
0.390342 0.492814 0.300612
0.491633 0.497619 0.303550
0.592923 0.502423 0.306488
0.694213 0.507228 0.309425
0.795503 0.512032 0.312363
0.866781 0.515413 0.314430
0.131677 0.596879 0.309479
0.202955 0.600260 0.311546
0.304245 0.605064 0.314484
0.405535 0.609869 0.317422
0.506826 0.614673 0.320359
0.608116 0.619478 0.323297
0.709406 0.624283 0.326235
0.810696 0.629087 0.329172
0.881974 0.632468 0.331240
0.146870 0.713934 0.326288
0.218148 0.717315 0.328356
0.319438 0.722119 0.331293
0.420728 0.726924 0.334231
0.522019 0.731728 0.337169
0.623309 0.736533 0.340106
0.724599 0.741337 0.343044
0.825889 0.746142 0.345982
0.897168 0.749523 0.348049
0.162063 0.830988 0.343098
0.233341 0.834369 0.345165
0.334631 0.839174 0.348103
0.435921 0.843979 0.351040
0.537212 0.848783 0.353978
0.638502 0.853588 0.356916
0.739792 0.858392 0.359853
0.841082 0.863197 0.362791
0.912361 0.866578 0.364858
0.172754 0.913360 0.354926
0.244032 0.916741 0.356994
0.345323 0.921546 0.359931
0.446613 0.926350 0.362869
0.547903 0.931155 0.365807
0.649193 0.935960 0.368744
0.750483 0.940764 0.371682
0.851774 0.945569 0.374620
0.923052 0.948950 0.376687
0.061747 0.049978 0.341238
0.133025 0.053359 0.343305
0.234315 0.058164 0.346243
0.335606 0.062969 0.349181
0.436896 0.067773 0.352118
0.538186 0.072578 0.355056
0.639476 0.077382 0.357994
0.740766 0.082187 0.360931
0.812045 0.085568 0.362999
0.072438 0.132350 0.353067
0.143716 0.135731 0.355134
0.245007 0.140536 0.358072
0.346297 0.145340 0.361009
0.447587 0.150145 0.363947
0.548877 0.154950 0.366885
0.650168 0.159754 0.369822
0.751458 0.164559 0.372760
0.822736 0.167940 0.374827
0.087631 0.249405 0.369876
0.158909 0.252786 0.371943
0.260200 0.257591 0.374881
0.361490 0.262395 0.377819
0.462780 0.267200 0.380756
0.564070 0.272004 0.383694
0.665361 0.276809 0.386632
0.766651 0.281613 0.389569
0.837929 0.284994 0.391637
0.102824 0.366460 0.386685
0.174103 0.369841 0.388753
0.275393 0.374645 0.391690
0.376683 0.379450 0.394628
0.477973 0.384255 0.397566
0.579263 0.389059 0.400503
0.680554 0.393864 0.403441
0.781844 0.398668 0.406379
0.853122 0.402049 0.408446
0.118017 0.483515 0.403495
0.189296 0.486896 0.405562
0.290586 0.491700 0.408500
0.391876 0.496505 0.411437
0.493166 0.501309 0.414375
0.594456 0.506114 0.417313
0.695747 0.510918 0.420250
0.797037 0.515723 0.423188
0.868315 0.519104 0.425255
0.133210 0.600570 0.420304
0.204489 0.603951 0.422371
0.305779 0.608755 0.425309
0.407069 0.613560 0.428247
0.508359 0.618364 0.431184
0.609649 0.623169 0.434122
0.710940 0.627973 0.437060
0.812230 0.632778 0.439997
0.883508 0.636159 0.442065
0.148403 0.717624 0.437113
0.219682 0.721005 0.439180
0.320972 0.725810 0.442118
0.422262 0.730614 0.445056
0.523552 0.735419 0.447994
0.624843 0.740224 0.450931
0.726133 0.745028 0.453869
0.827423 0.749833 0.456807
0.898701 0.753214 0.458874
0.163596 0.834679 0.453923
0.234875 0.838060 0.455990
0.336165 0.842865 0.458928
0.437455 0.847669 0.461865
0.538745 0.852474 0.464803
0.640036 0.857278 0.467741
0.741326 0.862083 0.470678
0.842616 0.866887 0.473616
0.913894 0.870268 0.475683
0.174288 0.917051 0.465751
0.245566 0.920432 0.467819
0.346856 0.925237 0.470756
0.448147 0.930041 0.473694
0.549437 0.934846 0.476632
0.650727 0.939650 0.479569
0.752017 0.944455 0.482507
0.853307 0.949259 0.485445
0.924586 0.952640 0.487512
0.063281 0.053669 0.452063
0.134559 0.057050 0.454130
0.235849 0.061855 0.457068
0.337139 0.066659 0.460006
0.438429 0.071464 0.462943
0.539720 0.076268 0.465881
0.641010 0.081073 0.468819
0.742300 0.085877 0.471756
0.813578 0.089258 0.473824
0.073972 0.136041 0.463892
0.145250 0.139422 0.465959
0.246540 0.144227 0.468897
0.347831 0.149031 0.471834
0.449121 0.153836 0.474772
0.550411 0.158640 0.477710
0.651701 0.163445 0.480647
0.752991 0.168249 0.483585
0.824270 0.171630 0.485652
0.089165 0.253096 0.480701
0.160443 0.256477 0.482768
0.261734 0.261281 0.485706
0.363024 0.266086 0.488644
0.464314 0.270890 0.491581
0.565604 0.275695 0.494519
0.666894 0.280500 0.497457
0.768185 0.285304 0.500394
0.839463 0.288685 0.502462
0.104358 0.370151 0.497510
0.175636 0.373532 0.499578
0.276927 0.378336 0.502515
0.378217 0.383141 0.505453
0.479507 0.387945 0.508391
0.580797 0.392750 0.511328
0.682087 0.397554 0.514266
0.783378 0.402359 0.517204
0.854656 0.405740 0.519271
0.119551 0.487205 0.514320
0.190829 0.490586 0.516387
0.292120 0.495391 0.519325
0.393410 0.500195 0.522262
0.494700 0.505000 0.525200
0.595990 0.509805 0.528138
0.697280 0.514609 0.531075
0.798571 0.519414 0.534013
0.869849 0.522795 0.536080
0.134744 0.604260 0.531129
0.206022 0.607641 0.533196
0.307313 0.612446 0.536134
0.408603 0.617250 0.539072
0.509893 0.622055 0.542009
0.611183 0.626859 0.544947
0.712473 0.631664 0.547885
0.813764 0.636468 0.550822
0.885042 0.639849 0.552890
0.149937 0.721315 0.547938
0.221215 0.724696 0.550005
0.322506 0.729500 0.552943
0.423796 0.734305 0.555881
0.525086 0.739110 0.558819
0.626376 0.743914 0.561756
0.727666 0.748719 0.564694
0.828957 0.753523 0.567632
0.900235 0.756904 0.569699
0.165130 0.838370 0.564747
0.236408 0.841751 0.566815
0.337699 0.846555 0.569753
0.438989 0.851360 0.572690
0.540279 0.856164 0.575628
0.641569 0.860969 0.578566
0.742860 0.865773 0.581503
0.844150 0.870578 0.584441
0.915428 0.873959 0.586508
0.175822 0.920742 0.576576
0.247100 0.924123 0.578644
0.348390 0.928927 0.581581
0.449680 0.933732 0.584519
0.550970 0.938536 0.587457
0.652261 0.943341 0.590394
0.753551 0.948145 0.593332
0.854841 0.952950 0.596270
0.926119 0.956331 0.598337
0.064814 0.057360 0.562888
0.136093 0.060741 0.564955
0.237383 0.065545 0.567893
0.338673 0.070350 0.570831
0.439963 0.075154 0.573768
0.541253 0.079959 0.576706
0.642544 0.084764 0.579644
0.743834 0.089568 0.582581
0.815112 0.092949 0.584649
0.075506 0.139732 0.574717
0.146784 0.143113 0.576784
0.248074 0.147917 0.579722
0.349364 0.152722 0.582659
0.450655 0.157526 0.585597
0.551945 0.162331 0.588535
0.653235 0.167135 0.591472
0.754525 0.171940 0.594410
0.825804 0.175321 0.596477
0.090699 0.256786 0.591526
0.161977 0.260167 0.593593
0.263267 0.264972 0.596531
0.364557 0.269777 0.599469
0.465848 0.274581 0.602406
0.567138 0.279386 0.605344
0.668428 0.284190 0.608282
0.769718 0.288995 0.611219
0.840997 0.292376 0.613287
0.105892 0.373841 0.608335
0.177170 0.377222 0.610402
0.278460 0.382027 0.613340
0.379750 0.386831 0.616278
0.481041 0.391636 0.619216
0.582331 0.396440 0.622153
0.683621 0.401245 0.625091
0.784911 0.406050 0.628029
0.856190 0.409431 0.630096
0.121085 0.490896 0.625145
0.192363 0.494277 0.627212
0.293653 0.499082 0.630150
0.394944 0.503886 0.633087
0.496234 0.508691 0.636025
0.597524 0.513495 0.638963
0.698814 0.518300 0.641900
0.800104 0.523104 0.644838
0.871383 0.526485 0.646905
0.136278 0.607951 0.641954
0.207556 0.611332 0.644021
0.308846 0.616136 0.646959
0.410137 0.620941 0.649897
0.511427 0.625745 0.652834
0.612717 0.630550 0.655772
0.714007 0.635355 0.658710
0.815297 0.640159 0.661647
0.886576 0.643540 0.663715
0.151471 0.725006 0.658763
0.222749 0.728387 0.660830
0.324039 0.733191 0.663768
0.425330 0.737996 0.666706
0.526620 0.742800 0.669644
0.627910 0.747605 0.672581
0.729200 0.752409 0.675519
0.830490 0.757214 0.678457
0.901769 0.760595 0.680524
0.166664 0.842060 0.675573
0.237942 0.845441 0.677640
0.339232 0.850246 0.680578
0.440523 0.855051 0.683515
0.541813 0.859855 0.686453
0.643103 0.864660 0.689391
0.744393 0.869464 0.692328
0.845684 0.874269 0.695266
0.916962 0.877650 0.697333
0.177355 0.924432 0.687401
0.248634 0.927813 0.689469
0.349924 0.932618 0.692406
0.451214 0.937422 0.695344
0.552504 0.942227 0.698282
0.653794 0.947031 0.701219
0.755085 0.951836 0.704157
0.856375 0.956641 0.707095
0.927653 0.960022 0.709162
0.066348 0.061050 0.673713
0.137626 0.064431 0.675780
0.238917 0.069236 0.678718
0.340207 0.074041 0.681655
0.441497 0.078845 0.684593
0.542787 0.083650 0.687531
0.644077 0.088454 0.690469
0.745368 0.093259 0.693406
0.816646 0.096640 0.695474
0.077039 0.143422 0.685542
0.148318 0.146803 0.687609
0.249608 0.151608 0.690547
0.350898 0.156412 0.693484
0.452188 0.161217 0.696422
0.553479 0.166021 0.699360
0.654769 0.170826 0.702297
0.756059 0.175631 0.705235
0.827337 0.179012 0.707302
0.092232 0.260477 0.702351
0.163511 0.263858 0.704418
0.264801 0.268663 0.707356
0.366091 0.273467 0.710294
0.467381 0.278272 0.713231
0.568672 0.283076 0.716169
0.669962 0.287881 0.719107
0.771252 0.292685 0.722044
0.842530 0.296066 0.724112
0.107426 0.377532 0.719160
0.178704 0.380913 0.721227
0.279994 0.385717 0.724165
0.381284 0.390522 0.727103
0.482574 0.395327 0.730041
0.583865 0.400131 0.732978
0.685155 0.404936 0.735916
0.786445 0.409740 0.738854
0.857723 0.413121 0.740921
0.122619 0.494587 0.735970
0.193897 0.497968 0.738037
0.295187 0.502772 0.740975
0.396477 0.507577 0.743912
0.497768 0.512381 0.746850
0.599058 0.517186 0.749788
0.700348 0.521990 0.752725
0.801638 0.526795 0.755663
0.872916 0.530176 0.757730
0.137812 0.611642 0.752779
0.209090 0.615023 0.754846
0.310380 0.619827 0.757784
0.411670 0.624632 0.760722
0.512961 0.629436 0.763659
0.614251 0.634241 0.766597
0.715541 0.639045 0.769535
0.816831 0.643850 0.772472
0.888110 0.647231 0.774540
0.153005 0.728696 0.769588
0.224283 0.732077 0.771655
0.325573 0.736882 0.774593
0.426863 0.741686 0.777531
0.528154 0.746491 0.780469
0.629444 0.751295 0.783406
0.730734 0.756100 0.786344
0.832024 0.760905 0.789282
0.903303 0.764286 0.791349
0.168198 0.845751 0.786397
0.239476 0.849132 0.788465
0.340766 0.853937 0.791402
0.442056 0.858741 0.794340
0.543347 0.863546 0.797278
0.644637 0.868350 0.800216
0.745927 0.873155 0.803153
0.847217 0.877959 0.806091
0.918496 0.881340 0.808158
0.178889 0.928123 0.798226
0.250167 0.931504 0.800294
0.351458 0.936309 0.803231
0.452748 0.941113 0.806169
0.554038 0.945918 0.809107
0.655328 0.950722 0.812044
0.756618 0.955527 0.814982
0.857909 0.960331 0.817920
0.929187 0.963712 0.819987
0.067882 0.064741 0.784538
0.139160 0.068122 0.786605
0.240450 0.072927 0.789543
0.341741 0.077731 0.792480
0.443031 0.082536 0.795418
0.544321 0.087340 0.798356
0.645611 0.092145 0.801294
0.746901 0.096949 0.804231
0.818180 0.100330 0.806299
0.078573 0.147113 0.796367
0.149851 0.150494 0.798434
0.251142 0.155299 0.801372
0.352432 0.160103 0.804309
0.453722 0.164908 0.807247
0.555012 0.169712 0.810185
0.656303 0.174517 0.813122
0.757593 0.179321 0.816060
0.828871 0.182702 0.818127
0.093766 0.264168 0.813176
0.165044 0.267549 0.815243
0.266335 0.272353 0.818181
0.367625 0.277158 0.821118
0.468915 0.281962 0.824056
0.570205 0.286767 0.826994
0.671496 0.291572 0.829932
0.772786 0.296376 0.832869
0.844064 0.299757 0.834937
0.108959 0.381223 0.829985
0.180238 0.384604 0.832052
0.281528 0.389408 0.834990
0.382818 0.394213 0.837928
0.484108 0.399017 0.840866
0.585398 0.403822 0.843803
0.686689 0.408626 0.846741
0.787979 0.413431 0.849679
0.859257 0.416812 0.851746
0.124152 0.498277 0.846795
0.195431 0.501658 0.848862
0.296721 0.506463 0.851799
0.398011 0.511267 0.854737
0.499301 0.516072 0.857675
0.600591 0.520877 0.860613
0.701882 0.525681 0.863550
0.803172 0.530486 0.866488
0.874450 0.533867 0.868555
0.139345 0.615332 0.863604
0.210624 0.618713 0.865671
0.311914 0.623518 0.868609
0.413204 0.628322 0.871547
0.514494 0.633127 0.874484
0.615785 0.637931 0.877422
0.717075 0.642736 0.880360
0.818365 0.647540 0.883297
0.889643 0.650921 0.885365
0.154538 0.732387 0.880413
0.225817 0.735768 0.882480
0.327107 0.740573 0.885418
0.428397 0.745377 0.888356
0.529687 0.750182 0.891294
0.630978 0.754986 0.894231
0.732268 0.759791 0.897169
0.833558 0.764595 0.900107
0.904836 0.767976 0.902174
0.169731 0.849442 0.897222
0.241010 0.852823 0.899290
0.342300 0.857627 0.902227
0.443590 0.862432 0.905165
0.544880 0.867236 0.908103
0.646171 0.872041 0.911041
0.747461 0.876845 0.913978
0.848751 0.881650 0.916916
0.920029 0.885031 0.918983
0.180423 0.931814 0.909051
0.251701 0.935195 0.911119
0.352991 0.939999 0.914056
0.454282 0.944804 0.916994
0.555572 0.949608 0.919932
0.656862 0.954413 0.922869
0.758152 0.959217 0.925807
0.859442 0.964022 0.928745
0.930721 0.967403 0.930812
0.068961 0.067338 0.862526
0.140239 0.070719 0.864593
0.241530 0.075524 0.867531
0.342820 0.080328 0.870468
0.444110 0.085133 0.873406
0.545400 0.089937 0.876344
0.646690 0.094742 0.879282
0.747981 0.099547 0.882219
0.819259 0.102928 0.884287
0.079652 0.149710 0.874355
0.150931 0.153091 0.876422
0.252221 0.157896 0.879359
0.353511 0.162700 0.882297
0.454801 0.167505 0.885235
0.556092 0.172309 0.888173
0.657382 0.177114 0.891110
0.758672 0.181918 0.894048
0.829950 0.185299 0.896115
0.094846 0.266765 0.891164
0.166124 0.270146 0.893231
0.267414 0.274950 0.896169
0.368704 0.279755 0.899107
0.469994 0.284560 0.902044
0.571285 0.289364 0.904982
0.672575 0.294169 0.907920
0.773865 0.298973 0.910857
0.845143 0.302354 0.912925
0.110039 0.383820 0.907973
0.181317 0.387201 0.910040
0.282607 0.392005 0.912978
0.383897 0.396810 0.915916
0.485188 0.401614 0.918854
0.586478 0.406419 0.921791
0.687768 0.411223 0.924729
0.789058 0.416028 0.927667
0.860336 0.419409 0.929734
0.125232 0.500875 0.924782
0.196510 0.504255 0.926850
0.297800 0.509060 0.929787
0.399090 0.513865 0.932725
0.500381 0.518669 0.935663
0.601671 0.523474 0.938601
0.702961 0.528278 0.941538
0.804251 0.533083 0.944476
0.875529 0.536464 0.946543
0.140425 0.617929 0.941592
0.211703 0.621310 0.943659
0.312993 0.626115 0.946597
0.414283 0.630919 0.949534
0.515574 0.635724 0.952472
0.616864 0.640529 0.955410
0.718154 0.645333 0.958348
0.819444 0.650138 0.961285
0.890723 0.653519 0.963353
0.155618 0.734984 0.958401
0.226896 0.738365 0.960468
0.328186 0.743170 0.963406
0.429476 0.747974 0.966344
0.530767 0.752779 0.969281
0.632057 0.757583 0.972219
0.733347 0.762388 0.975157
0.834637 0.767192 0.978095
0.905916 0.770573 0.980162
0.170811 0.852039 0.975210
0.242089 0.855420 0.977278
0.343379 0.860224 0.980215
0.444669 0.865029 0.983153
0.545960 0.869834 0.986091
0.647250 0.874638 0.989029
0.748540 0.879443 0.991966
0.849830 0.884247 0.994904
0.921109 0.887628 0.996971
0.181502 0.934411 0.987039
0.252780 0.937792 0.989106
0.354071 0.942596 0.992044
0.455361 0.947401 0.994982
0.556651 0.952205 0.997920
0.657941 0.957010 1.000000
0.759231 0.961815 1.000000
0.860522 0.966619 1.000000
0.931800 0.970000 1.000000
