shared/luts/fuji_velvia_approx.cube
TITLE "Fuji Velvia approx"
LUT_3D_SIZE 9
0.000000 0.000000 0.000000
0.051435 0.000000 0.000000
0.235996 0.000000 0.000000
0.420557 0.000000 0.000000
0.605118 0.000000 0.000000
0.789679 0.000000 0.000000
0.974240 0.000000 0.000000
1.000000 0.000000 0.000000
1.000000 0.000000 0.000000
0.000000 0.049037 0.000000
0.045635 0.047216 0.000000
0.230196 0.040679 0.000000
0.414757 0.034143 0.000000
0.599318 0.027607 0.000000
0.783879 0.021071 0.000000
0.968440 0.014535 0.000000
1.000000 0.007999 0.000000
1.000000 0.006177 0.000000
0.000000 0.224994 0.000000
0.024825 0.223173 0.000000
0.209386 0.216636 0.000000
0.393947 0.210100 0.000000
0.578508 0.203564 0.000000
0.763069 0.197028 0.000000
0.947630 0.190492 0.000000
1.000000 0.183955 0.000000
1.000000 0.182134 0.000000
0.000000 0.400951 0.000000
0.004015 0.399129 0.000000
0.188576 0.392593 0.000000
0.373137 0.386057 0.000000
0.557698 0.379521 0.000000
0.742259 0.372985 0.000000
0.926820 0.366449 0.000000
1.000000 0.359912 0.000000
1.000000 0.358091 0.000000
0.000000 0.576908 0.000000
0.000000 0.575086 0.000000
0.167766 0.568550 0.000000
0.352327 0.562014 0.000000
0.536888 0.555478 0.000000
0.721449 0.548942 0.000000
0.906010 0.542405 0.000000
1.000000 0.535869 0.000000
1.000000 0.534048 0.000000
0.000000 0.752865 0.000000
0.000000 0.751043 0.000000
0.146956 0.744507 0.000000
0.331517 0.737971 0.000000
0.516078 0.731435 0.000000
0.700639 0.724899 0.000000
0.885200 0.718362 0.000000
1.000000 0.711826 0.000000
1.000000 0.710005 0.000000
0.000000 0.928822 0.000000
0.000000 0.927000 0.000000
0.126146 0.920464 0.000000
0.310707 0.913928 0.000000
0.495268 0.907392 0.000000
0.679829 0.900855 0.000000
0.864389 0.894319 0.000000
1.000000 0.887783 0.000000
1.000000 0.885962 0.000000
0.000000 1.000000 0.000000
0.000000 1.000000 0.000000
0.105335 1.000000 0.000000
0.289896 1.000000 0.000000
0.474457 1.000000 0.000000
0.659018 1.000000 0.000000
0.843579 1.000000 0.000000
1.000000 1.000000 0.000000
1.000000 1.000000 0.000000
0.000000 1.000000 0.000000
0.000000 1.000000 0.000000
0.099536 1.000000 0.000000
0.284097 1.000000 0.000000
0.468658 1.000000 0.000000
0.653219 1.000000 0.000000
0.837780 1.000000 0.000000
1.000000 1.000000 0.000000
1.000000 1.000000 0.000000
0.000000 0.000384 0.055571
0.050850 0.000000 0.051809
0.235410 0.000000 0.038308
0.419971 0.000000 0.024807
0.604532 0.000000 0.011307
0.789093 0.000000 0.000000
0.973654 0.000000 0.000000
1.000000 0.000000 0.000000
1.000000 0.000000 0.000000
0.000000 0.049422 0.049662
0.045050 0.047600 0.045900
0.229611 0.041064 0.032399
0.414172 0.034528 0.018899
0.598733 0.027991 0.005398
0.783294 0.021455 0.000000
0.967855 0.014919 0.000000
1.000000 0.008383 0.000000
1.000000 0.006561 0.000000
0.000000 0.225378 0.028460
0.024240 0.223557 0.024697
0.208801 0.217021 0.011196
0.393362 0.210485 0.000000
0.577923 0.203948 0.000000
0.762484 0.197412 0.000000
0.947045 0.190876 0.000000
1.000000 0.184340 0.000000
1.000000 0.182518 0.000000
0.000000 0.401335 0.007257
0.003430 0.399514 0.003494
0.187991 0.392978 0.000000
0.372552 0.386441 0.000000
0.557113 0.379905 0.000000
0.741674 0.373369 0.000000
0.926234 0.366833 0.000000
1.000000 0.360297 0.000000
1.000000 0.358475 0.000000
0.000000 0.577292 0.000000
0.000000 0.575471 0.000000
0.167180 0.568935 0.000000
0.351741 0.562398 0.000000
0.536302 0.555862 0.000000
0.720863 0.549326 0.000000
0.905424 0.542790 0.000000
1.000000 0.536254 0.000000
1.000000 0.534432 0.000000
0.000000 0.753249 0.000000
0.000000 0.751428 0.000000
0.146370 0.744891 0.000000
0.330931 0.738355 0.000000
0.515492 0.731819 0.000000
0.700053 0.725283 0.000000
0.884614 0.718747 0.000000
1.000000 0.712211 0.000000
1.000000 0.710389 0.000000
0.000000 0.929206 0.000000
0.000000 0.927384 0.000000
0.125560 0.920848 0.000000
0.310121 0.914312 0.000000
0.494682 0.907776 0.000000
0.679243 0.901240 0.000000
0.863804 0.894704 0.000000
1.000000 0.888167 0.000000
1.000000 0.886346 0.000000
0.000000 1.000000 0.000000
0.000000 1.000000 0.000000
0.104750 1.000000 0.000000
0.289311 1.000000 0.000000
0.473872 1.000000 0.000000
0.658433 1.000000 0.000000
0.842994 1.000000 0.000000
1.000000 1.000000 0.000000
1.000000 1.000000 0.000000
0.000000 1.000000 0.000000
0.000000 1.000000 0.000000
0.098950 1.000000 0.000000
0.283511 1.000000 0.000000
0.468072 1.000000 0.000000
0.652633 1.000000 0.000000
0.837194 1.000000 0.000000
1.000000 1.000000 0.000000
1.000000 1.000000 0.000000
0.000000 0.001764 0.254975
0.048749 0.000000 0.251213
0.233310 0.000000 0.237712
0.417871 0.000000 0.224211
0.602432 0.000000 0.210710
0.786993 0.000000 0.197210
0.971554 0.000000 0.183709
1.000000 0.000000 0.170208
1.000000 0.000000 0.166446
0.000000 0.050801 0.249066
0.042949 0.048979 0.245304
0.227510 0.042443 0.231803
0.412071 0.035907 0.218302
0.596632 0.029371 0.204801
0.781193 0.022835 0.191301
0.965754 0.016298 0.177800
1.000000 0.009762 0.164299
1.000000 0.007941 0.160537
0.000000 0.226758 0.227863
0.022139 0.224936 0.224101
0.206700 0.218400 0.210600
0.391261 0.211864 0.197099
0.575822 0.205328 0.183599
0.760383 0.198791 0.170098
0.944944 0.192255 0.156597
1.000000 0.185719 0.143096
1.000000 0.183898 0.139334
0.000000 0.402715 0.206660
0.001329 0.400893 0.202898
0.185890 0.394357 0.189397
0.370451 0.387821 0.175896
0.555012 0.381285 0.162396
0.739573 0.374748 0.148895
0.924134 0.368212 0.135394
1.000000 0.361676 0.121893
1.000000 0.359854 0.118131
0.000000 0.578672 0.185458
0.000000 0.576850 0.181695
0.165080 0.570314 0.168194
0.349641 0.563778 0.154694
0.534202 0.557241 0.141193
0.718763 0.550705 0.127692
0.903324 0.544169 0.114191
1.000000 0.537633 0.100691
1.000000 0.535811 0.096928
0.000000 0.754628 0.164255
0.000000 0.752807 0.160492
0.144269 0.746271 0.146992
0.328830 0.739735 0.133491
0.513391 0.733198 0.119990
0.697952 0.726662 0.106489
0.882513 0.720126 0.092989
1.000000 0.713590 0.079488
1.000000 0.711768 0.075725
0.000000 0.930585 0.143052
0.000000 0.928764 0.139290
0.123459 0.922228 0.125789
0.308020 0.915691 0.112288
0.492581 0.909155 0.098787
0.677142 0.902619 0.085287
0.861703 0.896083 0.071786
1.000000 0.889547 0.058285
1.000000 0.887725 0.054523
0.000000 1.000000 0.121849
0.000000 1.000000 0.118087
0.102649 1.000000 0.104586
0.287210 1.000000 0.091085
0.471771 1.000000 0.077584
0.656332 1.000000 0.064084
0.840893 1.000000 0.050583
1.000000 1.000000 0.037082
1.000000 1.000000 0.033320
0.000000 1.000000 0.115940
0.000000 1.000000 0.112178
0.096850 1.000000 0.098677
0.281411 1.000000 0.085176
0.465971 1.000000 0.071675
0.650532 1.000000 0.058175
0.835093 1.000000 0.044674
1.000000 1.000000 0.031173
1.000000 1.000000 0.027411
0.000000 0.003143 0.454379
0.046648 0.001321 0.450616
0.231209 0.000000 0.437115
0.415770 0.000000 0.423615
0.600331 0.000000 0.410114
0.784892 0.000000 0.396613
0.969453 0.000000 0.383112
1.000000 0.000000 0.369612
1.000000 0.000000 0.365849
0.000000 0.052180 0.448470
0.040848 0.050359 0.444707
0.225409 0.043822 0.431206
0.409970 0.037286 0.417706
0.594531 0.030750 0.404205
0.779092 0.024214 0.390704
0.963653 0.017678 0.377203
1.000000 0.011142 0.363703
1.000000 0.009320 0.359940
0.000000 0.228137 0.427267
0.020038 0.226315 0.423504
0.204599 0.219779 0.410004
0.389160 0.213243 0.396503
0.573721 0.206707 0.383002
0.758282 0.200171 0.369501
0.942843 0.193635 0.356001
1.000000 0.187098 0.342500
1.000000 0.185277 0.338737
0.000000 0.404094 0.406064
0.000000 0.402272 0.402301
0.183789 0.395736 0.388801
0.368350 0.389200 0.375300
0.552911 0.382664 0.361799
0.737472 0.376128 0.348298
0.922033 0.369591 0.334798
1.000000 0.363055 0.321297
1.000000 0.361234 0.317535
0.000000 0.580051 0.384861
0.000000 0.578229 0.381099
0.162979 0.571693 0.367598
0.347540 0.565157 0.354097
0.532101 0.558621 0.340596
0.716662 0.552085 0.327096
0.901223 0.545548 0.313595
1.000000 0.539012 0.300094
1.000000 0.537191 0.296332
0.000000 0.756008 0.363658
0.000000 0.754186 0.359896
0.142169 0.747650 0.346395
0.326730 0.741114 0.332894
0.511291 0.734578 0.319394
0.695852 0.728041 0.305893
0.880413 0.721505 0.292392
1.000000 0.714969 0.278891
1.000000 0.713148 0.275129
0.000000 0.931965 0.342456
0.000000 0.930143 0.338693
0.121358 0.923607 0.325192
0.305919 0.917071 0.311692
0.490480 0.910535 0.298191
0.675041 0.903998 0.284690
0.859602 0.897462 0.271189
1.000000 0.890926 0.257689
1.000000 0.889104 0.253926
0.000000 1.000000 0.321253
0.000000 1.000000 0.317490
0.100548 1.000000 0.303989
0.285109 1.000000 0.290489
0.469670 1.000000 0.276988
0.654231 1.000000 0.263487
0.838792 1.000000 0.249986
1.000000 1.000000 0.236486
1.000000 1.000000 0.232723
0.000000 1.000000 0.315344
0.000000 1.000000 0.311581
0.094749 1.000000 0.298081
0.279310 1.000000 0.284580
0.463871 1.000000 0.271079
0.648432 1.000000 0.257578
0.832993 1.000000 0.244077
1.000000 1.000000 0.230577
1.000000 1.000000 0.226814
0.000000 0.004522 0.653782
0.044547 0.002701 0.650020
0.229108 0.000000 0.636519
0.413669 0.000000 0.623018
0.598230 0.000000 0.609517
0.782791 0.000000 0.596017
0.967352 0.000000 0.582516
1.000000 0.000000 0.569015
1.000000 0.000000 0.565253
0.000000 0.053559 0.647873
0.038748 0.051738 0.644111
0.223309 0.045202 0.630610
0.407870 0.038665 0.617109
0.592430 0.032129 0.603608
0.776991 0.025593 0.590108
0.961552 0.019057 0.576607
1.000000 0.012521 0.563106
1.000000 0.010699 0.559344
0.000000 0.229516 0.626670
0.017937 0.227695 0.622908
0.202498 0.221159 0.609407
0.387059 0.214622 0.595906
0.571620 0.208086 0.582406
0.756181 0.201550 0.568905
0.940742 0.195014 0.555404
1.000000 0.188478 0.541903
1.000000 0.186656 0.538141
0.000000 0.405473 0.605468
0.000000 0.403652 0.601705
0.181688 0.397115 0.588204
0.366249 0.390579 0.574704
0.550810 0.384043 0.561203
0.735371 0.377507 0.547702
0.919932 0.370971 0.534201
1.000000 0.364435 0.520701
1.000000 0.362613 0.516938
0.000000 0.581430 0.584265
0.000000 0.579609 0.580502
0.160878 0.573072 0.567001
0.345439 0.566536 0.553501
0.530000 0.560000 0.540000
0.714561 0.553464 0.526499
0.899122 0.546928 0.512999
1.000000 0.540392 0.499498
1.000000 0.538570 0.495735
0.000000 0.757387 0.563062
0.000000 0.755565 0.559299
0.140068 0.749029 0.545799
0.324629 0.742493 0.532298
0.509190 0.735957 0.518797
0.693751 0.729421 0.505296
0.878312 0.722885 0.491796
1.000000 0.716348 0.478295
1.000000 0.714527 0.474532
0.000000 0.933344 0.541859
0.000000 0.931522 0.538097
0.119258 0.924986 0.524596
0.303819 0.918450 0.511095
0.488380 0.911914 0.497594
0.672941 0.905378 0.484094
0.857502 0.898841 0.470593
1.000000 0.892305 0.457092
1.000000 0.890484 0.453330
0.000000 1.000000 0.520656
0.000000 1.000000 0.516894
0.098448 1.000000 0.503393
0.283009 1.000000 0.489892
0.467569 1.000000 0.476392
0.652130 1.000000 0.462891
0.836691 1.000000 0.449390
1.000000 1.000000 0.435889
1.000000 1.000000 0.432127
0.000000 1.000000 0.514747
0.000000 1.000000 0.510985
0.092648 1.000000 0.497484
0.277209 1.000000 0.483983
0.461770 1.000000 0.470483
0.646331 1.000000 0.456982
0.830892 1.000000 0.443481
1.000000 1.000000 0.429980
1.000000 1.000000 0.426218
0.000000 0.005902 0.853186
0.042446 0.004080 0.849423
0.227007 0.000000 0.835922
0.411568 0.000000 0.822422
0.596129 0.000000 0.808921
0.780690 0.000000 0.795420
0.965251 0.000000 0.781920
1.000000 0.000000 0.768419
1.000000 0.000000 0.764656
0.000000 0.054939 0.847277
0.036647 0.053117 0.843514
0.221208 0.046581 0.830014
0.405769 0.040045 0.816513
0.590330 0.033509 0.803012
0.774891 0.026972 0.789511
0.959452 0.020436 0.776011
1.000000 0.013900 0.762510
1.000000 0.012079 0.758747
0.000000 0.230896 0.826074
0.015837 0.229074 0.822311
0.200398 0.222538 0.808811
0.384959 0.216002 0.795310
0.569520 0.209466 0.781809
0.754081 0.202929 0.768309
0.938641 0.196393 0.754808
1.000000 0.189857 0.741307
1.000000 0.188035 0.737545
0.000000 0.406852 0.804871
0.000000 0.405031 0.801109
0.179587 0.398495 0.787608
0.364148 0.391959 0.774107
0.548709 0.385422 0.760606
0.733270 0.378886 0.747106
0.917831 0.372350 0.733605
1.000000 0.365814 0.720104
1.000000 0.363992 0.716342
0.000000 0.582809 0.783668
0.000000 0.580988 0.779906
0.158777 0.574452 0.766405
0.343338 0.567915 0.752904
0.527899 0.561379 0.739404
0.712460 0.554843 0.725903
0.897021 0.548307 0.712402
1.000000 0.541771 0.698901
1.000000 0.539949 0.695139
0.000000 0.758766 0.762465
0.000000 0.756945 0.758703
0.137967 0.750409 0.745202
0.322528 0.743872 0.731701
0.507089 0.737336 0.718201
0.691650 0.730800 0.704700
0.876211 0.724264 0.691199
1.000000 0.717728 0.677699
1.000000 0.715906 0.673936
0.000000 0.934723 0.741263
0.000000 0.932902 0.737500
0.117157 0.926365 0.724000
0.301718 0.919829 0.710499
0.486279 0.913293 0.696998
0.670840 0.906757 0.683497
0.855401 0.900221 0.669997
1.000000 0.893685 0.656496
1.000000 0.891863 0.652733
0.000000 1.000000 0.720060
0.000000 1.000000 0.716297
0.096347 1.000000 0.702797
0.280908 1.000000 0.689296
0.465469 1.000000 0.675795
0.650030 1.000000 0.662294
0.834591 1.000000 0.648794
1.000000 1.000000 0.635293
1.000000 1.000000 0.631530
0.000000 1.000000 0.714151
0.000000 1.000000 0.710388
0.090547 1.000000 0.696888
0.275108 1.000000 0.683387
0.459669 1.000000 0.669886
0.644230 1.000000 0.656385
0.828791 1.000000 0.642885
1.000000 1.000000 0.629384
1.000000 1.000000 0.625622
0.000000 0.007281 1.000000
0.040346 0.005459 1.000000
0.224906 0.000000 1.000000
0.409467 0.000000 1.000000
0.594028 0.000000 1.000000
0.778589 0.000000 0.994824
0.963150 0.000000 0.981323
1.000000 0.000000 0.967822
1.000000 0.000000 0.964060
0.000000 0.056318 1.000000
0.034546 0.054496 1.000000
0.219107 0.047960 1.000000
0.403668 0.041424 1.000000
0.588229 0.034888 1.000000
0.772790 0.028352 0.988915
0.957351 0.021816 0.975414
1.000000 0.015279 0.961913
1.000000 0.013458 0.958151
0.000000 0.232275 1.000000
0.013736 0.230453 1.000000
0.198297 0.223917 1.000000
0.382858 0.217381 0.994714
0.567419 0.210845 0.981213
0.751980 0.204309 0.967712
0.936541 0.197772 0.954211
1.000000 0.191236 0.940711
1.000000 0.189415 0.936948
0.000000 0.408232 1.000000
0.000000 0.406410 1.000000
0.177487 0.399874 0.987011
0.362048 0.393338 0.973511
0.546609 0.386802 0.960010
0.731170 0.380266 0.946509
0.915730 0.373729 0.933008
1.000000 0.367193 0.919508
1.000000 0.365372 0.915745
0.000000 0.584189 0.983072
0.000000 0.582367 0.979309
0.156676 0.575831 0.965809
0.341237 0.569295 0.952308
0.525798 0.562759 0.938807
0.710359 0.556222 0.925306
0.894920 0.549686 0.911806
1.000000 0.543150 0.898305
1.000000 0.541328 0.894542
0.000000 0.760146 0.961869
0.000000 0.758324 0.958107
0.135866 0.751788 0.944606
0.320427 0.745252 0.931105
0.504988 0.738716 0.917604
0.689549 0.732179 0.904104
0.874110 0.725643 0.890603
1.000000 0.719107 0.877102
1.000000 0.717285 0.873340
0.000000 0.936103 0.940666
0.000000 0.934281 0.936904
0.115056 0.927745 0.923403
0.299617 0.921209 0.909902
0.484178 0.914672 0.896401
0.668739 0.908136 0.882901
0.853300 0.901600 0.869400
1.000000 0.895064 0.855899
1.000000 0.893242 0.852137
0.000000 1.000000 0.919463
0.000000 1.000000 0.915701
0.094246 1.000000 0.902200
0.278807 1.000000 0.888699
0.463368 1.000000 0.875199
0.647929 1.000000 0.861698
0.832490 1.000000 0.848197
1.000000 1.000000 0.834696
1.000000 1.000000 0.830934
0.000000 1.000000 0.913554
0.000000 1.000000 0.909792
0.088446 1.000000 0.896291
0.273007 1.000000 0.882790
0.457568 1.000000 0.869290
0.642129 1.000000 0.855789
0.826690 1.000000 0.842288
1.000000 1.000000 0.828787
1.000000 1.000000 0.825025
0.000000 0.008660 1.000000
0.038245 0.006839 1.000000
0.222806 0.000302 1.000000
0.407367 0.000000 1.000000
0.591928 0.000000 1.000000
0.776489 0.000000 1.000000
0.961049 0.000000 1.000000
1.000000 0.000000 1.000000
1.000000 0.000000 1.000000
0.000000 0.057697 1.000000
0.032445 0.055876 1.000000
0.217006 0.049340 1.000000
0.401567 0.042803 1.000000
0.586128 0.036267 1.000000
0.770689 0.029731 1.000000
0.955250 0.023195 1.000000
1.000000 0.016659 1.000000
1.000000 0.014837 1.000000
0.000000 0.233654 1.000000
0.011635 0.231833 1.000000
0.196196 0.225296 1.000000
0.380757 0.218760 1.000000
0.565318 0.212224 1.000000
0.749879 0.205688 1.000000
0.934440 0.199152 1.000000
1.000000 0.192616 1.000000
1.000000 0.190794 1.000000
0.000000 0.409611 1.000000
0.000000 0.407789 1.000000
0.175386 0.401253 1.000000
0.359947 0.394717 1.000000
0.544508 0.388181 1.000000
0.729069 0.381645 1.000000
0.913630 0.375109 1.000000
1.000000 0.368572 1.000000
1.000000 0.366751 1.000000
0.000000 0.585568 1.000000
0.000000 0.583746 1.000000
0.154576 0.577210 1.000000
0.339137 0.570674 1.000000
0.523698 0.564138 1.000000
0.708259 0.557602 1.000000
0.892820 0.551066 1.000000
1.000000 0.544529 1.000000
1.000000 0.542708 1.000000
0.000000 0.761525 1.000000
0.000000 0.759703 1.000000
0.133765 0.753167 1.000000
0.318326 0.746631 1.000000
0.502887 0.740095 1.000000
0.687448 0.733559 1.000000
0.872009 0.727022 1.000000
1.000000 0.720486 1.000000
1.000000 0.718665 1.000000
0.000000 0.937482 1.000000
0.000000 0.935660 1.000000
0.112955 0.929124 1.000000
0.297516 0.922588 1.000000
0.482077 0.916052 1.000000
0.666638 0.909516 1.000000
0.851199 0.902979 1.000000
1.000000 0.896443 1.000000
1.000000 0.894622 1.000000
0.000000 1.000000 1.000000
0.000000 1.000000 1.000000
0.092145 1.000000 1.000000
0.276706 1.000000 1.000000
0.461267 1.000000 1.000000
0.645828 1.000000 1.000000
0.830389 1.000000 1.000000
1.000000 1.000000 1.000000
1.000000 1.000000 1.000000
0.000000 1.000000 1.000000
0.000000 1.000000 1.000000
0.086346 1.000000 1.000000
0.270907 1.000000 1.000000
0.455467 1.000000 1.000000
0.640029 1.000000 1.000000
0.824589 1.000000 1.000000
1.000000 1.000000 1.000000
1.000000 1.000000 1.000000
0.000000 0.009044 1.000000
0.037659 0.007223 1.000000
0.222220 0.000687 1.000000
0.406781 0.000000 1.000000
0.591342 0.000000 1.000000
0.775903 0.000000 1.000000
0.960464 0.000000 1.000000
1.000000 0.000000 1.000000
1.000000 0.000000 1.000000
0.000000 0.058082 1.000000
0.031860 0.056260 1.000000
0.216421 0.049724 1.000000
0.400982 0.043188 1.000000
0.585543 0.036652 1.000000
0.770104 0.030115 1.000000
0.954665 0.023579 1.000000
1.000000 0.017043 1.000000
1.000000 0.015221 1.000000
0.000000 0.234039 1.000000
0.011050 0.232217 1.000000
0.195610 0.225681 1.000000
0.380171 0.219145 1.000000
0.564732 0.212608 1.000000
0.749293 0.206072 1.000000
0.933854 0.199536 1.000000
1.000000 0.193000 1.000000
1.000000 0.191178 1.000000
0.000000 0.409995 1.000000
0.000000 0.408174 1.000000
0.174800 0.401638 1.000000
0.359361 0.395102 1.000000
0.543922 0.388565 1.000000
0.728483 0.382029 1.000000
0.913044 0.375493 1.000000
1.000000 0.368957 1.000000
1.000000 0.367135 1.000000
0.000000 0.585952 1.000000
0.000000 0.584131 1.000000
0.153990 0.577595 1.000000
0.338551 0.571058 1.000000
0.523112 0.564522 1.000000
0.707673 0.557986 1.000000
0.892234 0.551450 1.000000
1.000000 0.544914 1.000000
1.000000 0.543092 1.000000
0.000000 0.761909 1.000000
0.000000 0.760088 1.000000
0.133180 0.753552 1.000000
0.317741 0.747015 1.000000
0.502302 0.740479 1.000000
0.686863 0.733943 1.000000
0.871424 0.727407 1.000000
1.000000 0.720871 1.000000
1.000000 0.719049 1.000000
0.000000 0.937866 1.000000
0.000000 0.936045 1.000000
0.112370 0.929508 1.000000
0.296931 0.922972 1.000000
0.481492 0.916436 1.000000
0.666053 0.909900 1.000000
0.850614 0.903364 1.000000
1.000000 0.896828 1.000000
1.000000 0.895006 1.000000
0.000000 1.000000 1.000000
0.000000 1.000000 1.000000
0.091560 1.000000 1.000000
0.276121 1.000000 1.000000
0.460682 1.000000 1.000000
0.645243 1.000000 1.000000
0.829804 1.000000 1.000000
1.000000 1.000000 1.000000
1.000000 1.000000 1.000000
0.000000 1.000000 1.000000
0.000000 1.000000 1.000000
0.085760 1.000000 1.000000
0.270321 1.000000 1.000000
0.454882 1.000000 1.000000
0.639443 1.000000 1.000000
0.824004 1.000000 1.000000
1.000000 1.000000 1.000000
1.000000 1.000000 1.000000
