shared/luts/fuji_velvia_approx.cube
TITLE "Fuji Velvia approx"
LUT_3D_SIZE 33
0.000000 0.000000 0.000000
0.000000 0.000000 0.000000
0.000000 0.000000 0.000000
0.005295 0.000000 0.000000
0.051435 0.000000 0.000000
0.097575 0.000000 0.000000
0.143715 0.000000 0.000000
0.189856 0.000000 0.000000
0.235996 0.000000 0.000000
0.282136 0.000000 0.000000
0.328276 0.000000 0.000000
0.374417 0.000000 0.000000
0.420557 0.000000 0.000000
0.466697 0.000000 0.000000
0.512837 0.000000 0.000000
0.558978 0.000000 0.000000
0.605118 0.000000 0.000000
0.651258 0.000000 0.000000
0.697398 0.000000 0.000000
0.743539 0.000000 0.000000
0.789679 0.000000 0.000000
0.835819 0.000000 0.000000
0.881959 0.000000 0.000000
0.928100 0.000000 0.000000
0.974240 0.000000 0.000000
1.000000 0.000000 0.000000
1.000000 0.000000 0.000000
1.000000 0.000000 0.000000
1.000000 0.000000 0.000000
1.000000 0.000000 0.000000
1.000000 0.000000 0.000000
1.000000 0.000000 0.000000
1.000000 0.000000 0.000000
0.000000 0.000000 0.000000
0.000000 0.000000 0.000000
0.000000 0.000000 0.000000
0.005295 0.000000 0.000000
0.051435 0.000000 0.000000
0.097575 0.000000 0.000000
0.143715 0.000000 0.000000
0.189856 0.000000 0.000000
0.235996 0.000000 0.000000
0.282136 0.000000 0.000000
0.328276 0.000000 0.000000
0.374417 0.000000 0.000000
0.420557 0.000000 0.000000
0.466697 0.000000 0.000000
0.512837 0.000000 0.000000
0.558978 0.000000 0.000000
0.605118 0.000000 0.000000
0.651258 0.000000 0.000000
0.697398 0.000000 0.000000
0.743539 0.000000 0.000000
0.789679 0.000000 0.000000
0.835819 0.000000 0.000000
0.881959 0.000000 0.000000
0.928100 0.000000 0.000000
0.974240 0.000000 0.000000
1.000000 0.000000 0.000000
1.000000 0.000000 0.000000
1.000000 0.000000 0.000000
1.000000 0.000000 0.000000
1.000000 0.000000 0.000000
1.000000 0.000000 0.000000
1.000000 0.000000 0.000000
1.000000 0.000000 0.000000
0.000000 0.000000 0.000000
0.000000 0.000000 0.000000
0.000000 0.000000 0.000000
0.005295 0.000000 0.000000
0.051435 0.000000 0.000000
0.097575 0.000000 0.000000
0.143715 0.000000 0.000000
0.189856 0.000000 0.000000
0.235996 0.000000 0.000000
0.282136 0.000000 0.000000
0.328276 0.000000 0.000000
0.374417 0.000000 0.000000
0.420557 0.000000 0.000000
0.466697 0.000000 0.000000
0.512837 0.000000 0.000000
0.558978 0.000000 0.000000
0.605118 0.000000 0.000000
0.651258 0.000000 0.000000
0.697398 0.000000 0.000000
0.743539 0.000000 0.000000
0.789679 0.000000 0.000000
0.835819 0.000000 0.000000
0.881959 0.000000 0.000000
0.928100 0.000000 0.000000
0.974240 0.000000 0.000000
1.000000 0.000000 0.000000
1.000000 0.000000 0.000000
1.000000 0.000000 0.000000
1.000000 0.000000 0.000000
1.000000 0.000000 0.000000
1.000000 0.000000 0.000000
1.000000 0.000000 0.000000
1.000000 0.000000 0.000000
0.000000 0.005048 0.000000
0.000000 0.005048 0.000000
0.000000 0.005048 0.000000
0.004698 0.004860 0.000000
0.050838 0.003226 0.000000
0.096978 0.001592 0.000000
0.143118 0.000000 0.000000
0.189259 0.000000 0.000000
0.235399 0.000000 0.000000
0.281539 0.000000 0.000000
0.327679 0.000000 0.000000
0.373820 0.000000 0.000000
0.419960 0.000000 0.000000
0.466100 0.000000 0.000000
0.512240 0.000000 0.000000
0.558381 0.000000 0.000000
0.604521 0.000000 0.000000
0.650661 0.000000 0.000000
0.696801 0.000000 0.000000
0.742942 0.000000 0.000000
0.789082 0.000000 0.000000
0.835222 0.000000 0.000000
0.881362 0.000000 0.000000
0.927503 0.000000 0.000000
0.973643 0.000000 0.000000
1.000000 0.000000 0.000000
1.000000 0.000000 0.000000
1.000000 0.000000 0.000000
1.000000 0.000000 0.000000
1.000000 0.000000 0.000000
1.000000 0.000000 0.000000
1.000000 0.000000 0.000000
1.000000 0.000000 0.000000
0.000000 0.049037 0.000000
0.000000 0.049037 0.000000
0.000000 0.049037 0.000000
0.000000 0.048850 0.000000
0.045635 0.047216 0.000000
0.091776 0.045582 0.000000
0.137916 0.043948 0.000000
0.184056 0.042313 0.000000
0.230196 0.040679 0.000000
0.276337 0.039045 0.000000
0.322477 0.037411 0.000000
0.368617 0.035777 0.000000
0.414757 0.034143 0.000000
0.460898 0.032509 0.000000
0.507038 0.030875 0.000000
0.553178 0.029241 0.000000
0.599318 0.027607 0.000000
0.645459 0.025973 0.000000
0.691599 0.024339 0.000000
0.737739 0.022705 0.000000
0.783879 0.021071 0.000000
0.830019 0.019437 0.000000
0.876160 0.017803 0.000000
0.922300 0.016169 0.000000
0.968440 0.014535 0.000000
1.000000 0.012901 0.000000
1.000000 0.011267 0.000000
1.000000 0.009633 0.000000
1.000000 0.007999 0.000000
1.000000 0.006365 0.000000
1.000000 0.006177 0.000000
1.000000 0.006177 0.000000
1.000000 0.006177 0.000000
0.000000 0.093026 0.000000
0.000000 0.093026 0.000000
0.000000 0.093026 0.000000
0.000000 0.092839 0.000000
0.040433 0.091205 0.000000
0.086573 0.089571 0.000000
0.132713 0.087937 0.000000
0.178854 0.086303 0.000000
0.224994 0.084669 0.000000
0.271134 0.083035 0.000000
0.317274 0.081401 0.000000
0.363415 0.079767 0.000000
0.409555 0.078132 0.000000
0.455695 0.076498 0.000000
0.501835 0.074864 0.000000
0.547976 0.073230 0.000000
0.594116 0.071596 0.000000
0.640256 0.069962 0.000000
0.686396 0.068328 0.000000
0.732536 0.066694 0.000000
0.778677 0.065060 0.000000
0.824817 0.063426 0.000000
0.870957 0.061792 0.000000
0.917098 0.060158 0.000000
0.963238 0.058524 0.000000
1.000000 0.056890 0.000000
1.000000 0.055256 0.000000
1.000000 0.053622 0.000000
1.000000 0.051988 0.000000
1.000000 0.050354 0.000000
1.000000 0.050166 0.000000
1.000000 0.050166 0.000000
1.000000 0.050166 0.000000
0.000000 0.137016 0.000000
0.000000 0.137016 0.000000
0.000000 0.137016 0.000000
0.000000 0.136828 0.000000
0.035230 0.135194 0.000000
0.081371 0.133560 0.000000
0.127511 0.131926 0.000000
0.173651 0.130292 0.000000
0.219791 0.128658 0.000000
0.265932 0.127024 0.000000
0.312072 0.125390 0.000000
0.358212 0.123756 0.000000
0.404352 0.122122 0.000000
0.450493 0.120488 0.000000
0.496633 0.118854 0.000000
0.542773 0.117220 0.000000
0.588913 0.115586 0.000000
0.635053 0.113951 0.000000
0.681194 0.112317 0.000000
0.727334 0.110683 0.000000
0.773474 0.109049 0.000000
0.819614 0.107415 0.000000
0.865755 0.105781 0.000000
0.911895 0.104147 0.000000
0.958035 0.102513 0.000000
1.000000 0.100879 0.000000
1.000000 0.099245 0.000000
1.000000 0.097611 0.000000
1.000000 0.095977 0.000000
1.000000 0.094343 0.000000
1.000000 0.094155 0.000000
1.000000 0.094155 0.000000
1.000000 0.094155 0.000000
0.000000 0.181005 0.000000
0.000000 0.181005 0.000000
0.000000 0.181005 0.000000
0.000000 0.180817 0.000000
0.030028 0.179183 0.000000
0.076168 0.177549 0.000000
0.122308 0.175915 0.000000
0.168449 0.174281 0.000000
0.214589 0.172647 0.000000
0.260729 0.171013 0.000000
0.306869 0.169379 0.000000
0.353009 0.167745 0.000000
0.399150 0.166111 0.000000
0.445290 0.164477 0.000000
0.491430 0.162843 0.000000
0.537570 0.161209 0.000000
0.583711 0.159575 0.000000
0.629851 0.157941 0.000000
0.675991 0.156307 0.000000
0.722131 0.154673 0.000000
0.768272 0.153039 0.000000
0.814412 0.151405 0.000000
0.860552 0.149770 0.000000
0.906692 0.148136 0.000000
0.952833 0.146502 0.000000
0.998973 0.144868 0.000000
1.000000 0.143234 0.000000
1.000000 0.141600 0.000000
1.000000 0.139966 0.000000
1.000000 0.138332 0.000000
1.000000 0.138145 0.000000
1.000000 0.138145 0.000000
1.000000 0.138145 0.000000
0.000000 0.224994 0.000000
0.000000 0.224994 0.000000
0.000000 0.224994 0.000000
0.000000 0.224807 0.000000
0.024825 0.223173 0.000000
0.070966 0.221538 0.000000
0.117106 0.219904 0.000000
0.163246 0.218270 0.000000
0.209386 0.216636 0.000000
0.255527 0.215002 0.000000
0.301667 0.213368 0.000000
0.347807 0.211734 0.000000
0.393947 0.210100 0.000000
0.440087 0.208466 0.000000
0.486228 0.206832 0.000000
0.532368 0.205198 0.000000
0.578508 0.203564 0.000000
0.624648 0.201930 0.000000
0.670789 0.200296 0.000000
0.716929 0.198662 0.000000
0.763069 0.197028 0.000000
0.809209 0.195394 0.000000
0.855350 0.193760 0.000000
0.901490 0.192126 0.000000
0.947630 0.190492 0.000000
0.993770 0.188858 0.000000
1.000000 0.187224 0.000000
1.000000 0.185590 0.000000
1.000000 0.183955 0.000000
1.000000 0.182321 0.000000
1.000000 0.182134 0.000000
1.000000 0.182134 0.000000
1.000000 0.182134 0.000000
0.000000 0.268983 0.000000
0.000000 0.268983 0.000000
0.000000 0.268983 0.000000
0.000000 0.268796 0.000000
0.019623 0.267162 0.000000
0.065763 0.265528 0.000000
0.111903 0.263894 0.000000
0.158043 0.262260 0.000000
0.204184 0.260626 0.000000
0.250324 0.258992 0.000000
0.296464 0.257357 0.000000
0.342604 0.255723 0.000000
0.388745 0.254089 0.000000
0.434885 0.252455 0.000000
0.481025 0.250821 0.000000
0.527165 0.249187 0.000000
0.573306 0.247553 0.000000
0.619446 0.245919 0.000000
0.665586 0.244285 0.000000
0.711726 0.242651 0.000000
0.757867 0.241017 0.000000
0.804007 0.239383 0.000000
0.850147 0.237749 0.000000
0.896287 0.236115 0.000000
0.942428 0.234481 0.000000
0.988568 0.232847 0.000000
1.000000 0.231213 0.000000
1.000000 0.229579 0.000000
1.000000 0.227945 0.000000
1.000000 0.226311 0.000000
1.000000 0.226123 0.000000
1.000000 0.226123 0.000000
1.000000 0.226123 0.000000
0.000000 0.312973 0.000000
0.000000 0.312973 0.000000
0.000000 0.312973 0.000000
0.000000 0.312785 0.000000
0.014420 0.311151 0.000000
0.060560 0.309517 0.000000
0.106701 0.307883 0.000000
0.152841 0.306249 0.000000
0.198981 0.304615 0.000000
0.245121 0.302981 0.000000
0.291262 0.301347 0.000000
0.337402 0.299713 0.000000
0.383542 0.298079 0.000000
0.429682 0.296445 0.000000
0.475823 0.294811 0.000000
0.521963 0.293176 0.000000
0.568103 0.291542 0.000000
0.614243 0.289908 0.000000
0.660384 0.288274 0.000000
0.706524 0.286640 0.000000
0.752664 0.285006 0.000000
0.798804 0.283372 0.000000
0.844945 0.281738 0.000000
0.891085 0.280104 0.000000
0.937225 0.278470 0.000000
0.983365 0.276836 0.000000
1.000000 0.275202 0.000000
1.000000 0.273568 0.000000
1.000000 0.271934 0.000000
1.000000 0.270300 0.000000
1.000000 0.270112 0.000000
1.000000 0.270112 0.000000
1.000000 0.270112 0.000000
0.000000 0.356962 0.000000
0.000000 0.356962 0.000000
0.000000 0.356962 0.000000
0.000000 0.356774 0.000000
0.009218 0.355140 0.000000
0.055358 0.353506 0.000000
0.101498 0.351872 0.000000
0.147638 0.350238 0.000000
0.193779 0.348604 0.000000
0.239919 0.346970 0.000000
0.286059 0.345336 0.000000
0.332199 0.343702 0.000000
0.378340 0.342068 0.000000
0.424480 0.340434 0.000000
0.470620 0.338800 0.000000
0.516760 0.337166 0.000000
0.562901 0.335532 0.000000
0.609041 0.333898 0.000000
0.655181 0.332264 0.000000
0.701321 0.330630 0.000000
0.747462 0.328995 0.000000
0.793602 0.327361 0.000000
0.839742 0.325727 0.000000
0.885882 0.324093 0.000000
0.932023 0.322459 0.000000
0.978163 0.320825 0.000000
1.000000 0.319191 0.000000
1.000000 0.317557 0.000000
1.000000 0.315923 0.000000
1.000000 0.314289 0.000000
1.000000 0.314102 0.000000
1.000000 0.314102 0.000000
1.000000 0.314102 0.000000
0.000000 0.400951 0.000000
0.000000 0.400951 0.000000
0.000000 0.400951 0.000000
0.000000 0.400763 0.000000
0.004015 0.399129 0.000000
0.050155 0.397495 0.000000
0.096296 0.395861 0.000000
0.142436 0.394227 0.000000
0.188576 0.392593 0.000000
0.234716 0.390959 0.000000
0.280857 0.389325 0.000000
0.326997 0.387691 0.000000
0.373137 0.386057 0.000000
0.419277 0.384423 0.000000
0.465418 0.382789 0.000000
0.511558 0.381155 0.000000
0.557698 0.379521 0.000000
0.603838 0.377887 0.000000
0.649979 0.376253 0.000000
0.696119 0.374619 0.000000
0.742259 0.372985 0.000000
0.788399 0.371351 0.000000
0.834539 0.369717 0.000000
0.880680 0.368083 0.000000
0.926820 0.366449 0.000000
0.972960 0.364814 0.000000
1.000000 0.363180 0.000000
1.000000 0.361546 0.000000
1.000000 0.359912 0.000000
1.000000 0.358278 0.000000
1.000000 0.358091 0.000000
1.000000 0.358091 0.000000
1.000000 0.358091 0.000000
0.000000 0.444940 0.000000
0.000000 0.444940 0.000000
0.000000 0.444940 0.000000
0.000000 0.444753 0.000000
0.000000 0.443119 0.000000
0.044953 0.441485 0.000000
0.091093 0.439851 0.000000
0.137233 0.438217 0.000000
0.183374 0.436582 0.000000
0.229514 0.434948 0.000000
0.275654 0.433314 0.000000
0.321794 0.431680 0.000000
0.367934 0.430046 0.000000
0.414075 0.428412 0.000000
0.460215 0.426778 0.000000
0.506355 0.425144 0.000000
0.552495 0.423510 0.000000
0.598636 0.421876 0.000000
0.644776 0.420242 0.000000
0.690916 0.418608 0.000000
0.737056 0.416974 0.000000
0.783197 0.415340 0.000000
0.829337 0.413706 0.000000
0.875477 0.412072 0.000000
0.921617 0.410438 0.000000
0.967758 0.408804 0.000000
1.000000 0.407170 0.000000
1.000000 0.405536 0.000000
1.000000 0.403902 0.000000
1.000000 0.402268 0.000000
1.000000 0.402080 0.000000
1.000000 0.402080 0.000000
1.000000 0.402080 0.000000
0.000000 0.488929 0.000000
0.000000 0.488929 0.000000
0.000000 0.488929 0.000000
0.000000 0.488742 0.000000
0.000000 0.487108 0.000000
0.039750 0.485474 0.000000
0.085891 0.483840 0.000000
0.132031 0.482206 0.000000
0.178171 0.480572 0.000000
0.224311 0.478938 0.000000
0.270451 0.477304 0.000000
0.316592 0.475670 0.000000
0.362732 0.474036 0.000000
0.408872 0.472401 0.000000
0.455012 0.470767 0.000000
0.501153 0.469133 0.000000
0.547293 0.467499 0.000000
0.593433 0.465865 0.000000
0.639573 0.464231 0.000000
0.685714 0.462597 0.000000
0.731854 0.460963 0.000000
0.777994 0.459329 0.000000
0.824134 0.457695 0.000000
0.870275 0.456061 0.000000
0.916415 0.454427 0.000000
0.962555 0.452793 0.000000
1.000000 0.451159 0.000000
1.000000 0.449525 0.000000
1.000000 0.447891 0.000000
1.000000 0.446257 0.000000
1.000000 0.446069 0.000000
1.000000 0.446069 0.000000
1.000000 0.446069 0.000000
0.000000 0.532919 0.000000
0.000000 0.532919 0.000000
0.000000 0.532919 0.000000
0.000000 0.532731 0.000000
0.000000 0.531097 0.000000
0.034548 0.529463 0.000000
0.080688 0.527829 0.000000
0.126828 0.526195 0.000000
0.172968 0.524561 0.000000
0.219109 0.522927 0.000000
0.265249 0.521293 0.000000
0.311389 0.519659 0.000000
0.357529 0.518025 0.000000
0.403670 0.516391 0.000000
0.449810 0.514757 0.000000
0.495950 0.513123 0.000000
0.542090 0.511489 0.000000
0.588231 0.509854 0.000000
0.634371 0.508220 0.000000
0.680511 0.506586 0.000000
0.726651 0.504952 0.000000
0.772792 0.503318 0.000000
0.818932 0.501684 0.000000
0.865072 0.500050 0.000000
0.911212 0.498416 0.000000
0.957353 0.496782 0.000000
1.000000 0.495148 0.000000
1.000000 0.493514 0.000000
1.000000 0.491880 0.000000
1.000000 0.490246 0.000000
1.000000 0.490058 0.000000
1.000000 0.490058 0.000000
1.000000 0.490058 0.000000
0.000000 0.576908 0.000000
0.000000 0.576908 0.000000
0.000000 0.576908 0.000000
0.000000 0.576720 0.000000
0.000000 0.575086 0.000000
0.029345 0.573452 0.000000
0.075485 0.571818 0.000000
0.121626 0.570184 0.000000
0.167766 0.568550 0.000000
0.213906 0.566916 0.000000
0.260046 0.565282 0.000000
0.306187 0.563648 0.000000
0.352327 0.562014 0.000000
0.398467 0.560380 0.000000
0.444607 0.558746 0.000000
0.490748 0.557112 0.000000
0.536888 0.555478 0.000000
0.583028 0.553844 0.000000
0.629168 0.552210 0.000000
0.675309 0.550576 0.000000
0.721449 0.548942 0.000000
0.767589 0.547308 0.000000
0.813729 0.545673 0.000000
0.859870 0.544039 0.000000
0.906010 0.542405 0.000000
0.952150 0.540771 0.000000
0.998290 0.539137 0.000000
1.000000 0.537503 0.000000
1.000000 0.535869 0.000000
1.000000 0.534235 0.000000
1.000000 0.534048 0.000000
1.000000 0.534048 0.000000
1.000000 0.534048 0.000000
0.000000 0.620897 0.000000
0.000000 0.620897 0.000000
0.000000 0.620897 0.000000
0.000000 0.620710 0.000000
0.000000 0.619075 0.000000
0.024143 0.617441 0.000000
0.070283 0.615807 0.000000
0.116423 0.614173 0.000000
0.162563 0.612539 0.000000
0.208704 0.610905 0.000000
0.254844 0.609271 0.000000
0.300984 0.607637 0.000000
0.347124 0.606003 0.000000
0.393265 0.604369 0.000000
0.439405 0.602735 0.000000
0.485545 0.601101 0.000000
0.531685 0.599467 0.000000
0.577826 0.597833 0.000000
0.623966 0.596199 0.000000
0.670106 0.594565 0.000000
0.716246 0.592931 0.000000
0.762387 0.591297 0.000000
0.808527 0.589663 0.000000
0.854667 0.588029 0.000000
0.900807 0.586395 0.000000
0.946947 0.584761 0.000000
0.993088 0.583127 0.000000
1.000000 0.581492 0.000000
1.000000 0.579858 0.000000
1.000000 0.578224 0.000000
1.000000 0.578037 0.000000
1.000000 0.578037 0.000000
1.000000 0.578037 0.000000
0.000000 0.664886 0.000000
0.000000 0.664886 0.000000
0.000000 0.664886 0.000000
0.000000 0.664699 0.000000
0.000000 0.663065 0.000000
0.018940 0.661431 0.000000
0.065080 0.659797 0.000000
0.111221 0.658163 0.000000
0.157361 0.656529 0.000000
0.203501 0.654894 0.000000
0.249641 0.653261 0.000000
0.295782 0.651626 0.000000
0.341922 0.649992 0.000000
0.388062 0.648358 0.000000
0.434202 0.646724 0.000000
0.480343 0.645090 0.000000
0.526483 0.643456 0.000000
0.572623 0.641822 0.000000
0.618763 0.640188 0.000000
0.664904 0.638554 0.000000
0.711044 0.636920 0.000000
0.757184 0.635286 0.000000
0.803324 0.633652 0.000000
0.849464 0.632018 0.000000
0.895605 0.630384 0.000000
0.941745 0.628750 0.000000
0.987885 0.627116 0.000000
1.000000 0.625482 0.000000
1.000000 0.623848 0.000000
1.000000 0.622214 0.000000
1.000000 0.622026 0.000000
1.000000 0.622026 0.000000
1.000000 0.622026 0.000000
0.000000 0.708876 0.000000
0.000000 0.708876 0.000000
0.000000 0.708876 0.000000
0.000000 0.708688 0.000000
0.000000 0.707054 0.000000
0.013738 0.705420 0.000000
0.059878 0.703786 0.000000
0.106018 0.702152 0.000000
0.152158 0.700518 0.000000
0.198299 0.698884 0.000000
0.244439 0.697250 0.000000
0.290579 0.695616 0.000000
0.336719 0.693982 0.000000
0.382859 0.692348 0.000000
0.429000 0.690714 0.000000
0.475140 0.689079 0.000000
0.521280 0.687445 0.000000
0.567420 0.685811 0.000000
0.613561 0.684177 0.000000
0.659701 0.682543 0.000000
0.705841 0.680909 0.000000
0.751981 0.679275 0.000000
0.798122 0.677641 0.000000
0.844262 0.676007 0.000000
0.890402 0.674373 0.000000
0.936542 0.672739 0.000000
0.982683 0.671105 0.000000
1.000000 0.669471 0.000000
1.000000 0.667837 0.000000
1.000000 0.666203 0.000000
1.000000 0.666015 0.000000
1.000000 0.666015 0.000000
1.000000 0.666015 0.000000
0.000000 0.752865 0.000000
0.000000 0.752865 0.000000
0.000000 0.752865 0.000000
0.000000 0.752677 0.000000
0.000000 0.751043 0.000000
0.008535 0.749409 0.000000
0.054675 0.747775 0.000000
0.100815 0.746141 0.000000
0.146956 0.744507 0.000000
0.193096 0.742873 0.000000
0.239236 0.741239 0.000000
0.285376 0.739605 0.000000
0.331517 0.737971 0.000000
0.377657 0.736337 0.000000
0.423797 0.734703 0.000000
0.469937 0.733069 0.000000
0.516078 0.731435 0.000000
0.562218 0.729801 0.000000
0.608358 0.728167 0.000000
0.654498 0.726533 0.000000
0.700639 0.724899 0.000000
0.746779 0.723264 0.000000
0.792919 0.721630 0.000000
0.839059 0.719996 0.000000
0.885200 0.718362 0.000000
0.931340 0.716728 0.000000
0.977480 0.715094 0.000000
1.000000 0.713460 0.000000
1.000000 0.711826 0.000000
1.000000 0.710192 0.000000
1.000000 0.710005 0.000000
1.000000 0.710005 0.000000
1.000000 0.710005 0.000000
0.000000 0.796854 0.000000
0.000000 0.796854 0.000000
0.000000 0.796854 0.000000
0.000000 0.796666 0.000000
0.000000 0.795032 0.000000
0.003332 0.793398 0.000000
0.049473 0.791764 0.000000
0.095613 0.790130 0.000000
0.141753 0.788496 0.000000
0.187893 0.786862 0.000000
0.234034 0.785228 0.000000
0.280174 0.783594 0.000000
0.326314 0.781960 0.000000
0.372454 0.780326 0.000000
0.418595 0.778692 0.000000
0.464735 0.777058 0.000000
0.510875 0.775424 0.000000
0.557015 0.773790 0.000000
0.603156 0.772156 0.000000
0.649296 0.770522 0.000000
0.695436 0.768888 0.000000
0.741576 0.767254 0.000000
0.787717 0.765620 0.000000
0.833857 0.763986 0.000000
0.879997 0.762352 0.000000
0.926137 0.760718 0.000000
0.972278 0.759083 0.000000
1.000000 0.757449 0.000000
1.000000 0.755815 0.000000
1.000000 0.754181 0.000000
1.000000 0.753994 0.000000
1.000000 0.753994 0.000000
1.000000 0.753994 0.000000
0.000000 0.840843 0.000000
0.000000 0.840843 0.000000
0.000000 0.840843 0.000000
0.000000 0.840656 0.000000
0.000000 0.839022 0.000000
0.000000 0.837388 0.000000
0.044270 0.835754 0.000000
0.090410 0.834119 0.000000
0.136551 0.832485 0.000000
0.182691 0.830851 0.000000
0.228831 0.829217 0.000000
0.274971 0.827583 0.000000
0.321112 0.825949 0.000000
0.367252 0.824315 0.000000
0.413392 0.822681 0.000000
0.459532 0.821047 0.000000
0.505673 0.819413 0.000000
0.551813 0.817779 0.000000
0.597953 0.816145 0.000000
0.644093 0.814511 0.000000
0.690234 0.812877 0.000000
0.736374 0.811243 0.000000
0.782514 0.809609 0.000000
0.828654 0.807975 0.000000
0.874795 0.806341 0.000000
0.920935 0.804707 0.000000
0.967075 0.803073 0.000000
1.000000 0.801439 0.000000
1.000000 0.799805 0.000000
1.000000 0.798171 0.000000
1.000000 0.797983 0.000000
1.000000 0.797983 0.000000
1.000000 0.797983 0.000000
0.000000 0.884833 0.000000
0.000000 0.884833 0.000000
0.000000 0.884833 0.000000
0.000000 0.884645 0.000000
0.000000 0.883011 0.000000
0.000000 0.881377 0.000000
0.039068 0.879743 0.000000
0.085208 0.878109 0.000000
0.131348 0.876475 0.000000
0.177488 0.874841 0.000000
0.223629 0.873207 0.000000
0.269769 0.871573 0.000000
0.315909 0.869938 0.000000
0.362049 0.868304 0.000000
0.408190 0.866670 0.000000
0.454330 0.865036 0.000000
0.500470 0.863402 0.000000
0.546610 0.861768 0.000000
0.592751 0.860134 0.000000
0.638891 0.858500 0.000000
0.685031 0.856866 0.000000
0.731171 0.855232 0.000000
0.777312 0.853598 0.000000
0.823452 0.851964 0.000000
0.869592 0.850330 0.000000
0.915732 0.848696 0.000000
0.961873 0.847062 0.000000
1.000000 0.845428 0.000000
1.000000 0.843794 0.000000
1.000000 0.842160 0.000000
1.000000 0.841972 0.000000
1.000000 0.841972 0.000000
1.000000 0.841972 0.000000
0.000000 0.928822 0.000000
0.000000 0.928822 0.000000
0.000000 0.928822 0.000000
0.000000 0.928634 0.000000
0.000000 0.927000 0.000000
0.000000 0.925366 0.000000
0.033865 0.923732 0.000000
0.080005 0.922098 0.000000
0.126146 0.920464 0.000000
0.172286 0.918830 0.000000
0.218426 0.917196 0.000000
0.264566 0.915562 0.000000
0.310707 0.913928 0.000000
0.356847 0.912294 0.000000
0.402987 0.910660 0.000000
0.449127 0.909026 0.000000
0.495268 0.907392 0.000000
0.541408 0.905757 0.000000
0.587548 0.904123 0.000000
0.633688 0.902489 0.000000
0.679829 0.900855 0.000000
0.725969 0.899221 0.000000
0.772109 0.897587 0.000000
0.818249 0.895953 0.000000
0.864389 0.894319 0.000000
0.910530 0.892685 0.000000
0.956670 0.891051 0.000000
1.000000 0.889417 0.000000
1.000000 0.887783 0.000000
1.000000 0.886149 0.000000
1.000000 0.885962 0.000000
1.000000 0.885962 0.000000
1.000000 0.885962 0.000000
0.000000 0.972811 0.000000
0.000000 0.972811 0.000000
0.000000 0.972811 0.000000
0.000000 0.972623 0.000000
0.000000 0.970989 0.000000
0.000000 0.969355 0.000000
0.028663 0.967721 0.000000
0.074803 0.966087 0.000000
0.120943 0.964453 0.000000
0.167083 0.962819 0.000000
0.213224 0.961185 0.000000
0.259364 0.959551 0.000000
0.305504 0.957917 0.000000
0.351644 0.956283 0.000000
0.397784 0.954649 0.000000
0.443925 0.953015 0.000000
0.490065 0.951381 0.000000
0.536205 0.949747 0.000000
0.582345 0.948113 0.000000
0.628486 0.946479 0.000000
0.674626 0.944845 0.000000
0.720766 0.943211 0.000000
0.766906 0.941576 0.000000
0.813047 0.939942 0.000000
0.859187 0.938308 0.000000
0.905327 0.936674 0.000000
0.951467 0.935040 0.000000
0.997608 0.933406 0.000000
1.000000 0.931772 0.000000
1.000000 0.930138 0.000000
1.000000 0.929951 0.000000
1.000000 0.929951 0.000000
1.000000 0.929951 0.000000
0.000000 1.000000 0.000000
0.000000 1.000000 0.000000
0.000000 1.000000 0.000000
0.000000 1.000000 0.000000
0.000000 1.000000 0.000000
0.000000 1.000000 0.000000
0.023460 1.000000 0.000000
0.069600 1.000000 0.000000
0.115740 1.000000 0.000000
0.161881 1.000000 0.000000
0.208021 1.000000 0.000000
0.254161 1.000000 0.000000
0.300301 1.000000 0.000000
0.346442 1.000000 0.000000
0.392582 0.998638 0.000000
0.438722 0.997004 0.000000
0.484862 0.995370 0.000000
0.531003 0.993736 0.000000
0.577143 0.992102 0.000000
0.623283 0.990468 0.000000
0.669423 0.988834 0.000000
0.715564 0.987200 0.000000
0.761704 0.985566 0.000000
0.807844 0.983932 0.000000
0.853984 0.982298 0.000000
0.900125 0.980664 0.000000
0.946265 0.979030 0.000000
0.992405 0.977396 0.000000
1.000000 0.975762 0.000000
