shared/luts/fuji_classic_chrome_approx.cube
TITLE "Fuji Classic Chrome approx"
LUT_3D_SIZE 5
0.057600 0.040000 0.041600
0.230169 0.048186 0.046605
0.432749 0.057795 0.052480
0.635329 0.067404 0.058356
0.807898 0.075589 0.063361
0.083484 0.239427 0.070238
0.256053 0.247612 0.075243
0.458633 0.257221 0.081118
0.661214 0.266830 0.086994
0.833782 0.275016 0.091999
0.113871 0.473536 0.103857
0.286439 0.481722 0.108862
0.489019 0.491331 0.114737
0.691600 0.500940 0.120613
0.864168 0.509125 0.125618
0.144257 0.707646 0.137475
0.316825 0.715831 0.142480
0.519406 0.725440 0.148356
0.721986 0.735050 0.154231
0.894554 0.743235 0.159236
0.170141 0.907073 0.166113
0.342710 0.915258 0.171118
0.545290 0.924867 0.176994
0.747870 0.934476 0.182869
0.920439 0.942662 0.187874
0.060213 0.046288 0.230413
0.232782 0.054473 0.235418
0.435362 0.064082 0.241293
0.637942 0.073692 0.247169
0.810511 0.081877 0.252174
0.086097 0.245714 0.259051
0.258666 0.253900 0.264056
0.461246 0.263509 0.269931
0.663827 0.273118 0.275807
0.836395 0.281304 0.280812
0.116484 0.479824 0.292670
0.289052 0.488010 0.297675
0.491633 0.497619 0.303550
0.694213 0.507228 0.309425
0.866781 0.515413 0.314430
0.146870 0.713934 0.326288
0.319438 0.722119 0.331293
0.522019 0.731728 0.337169
0.724599 0.741337 0.343044
0.897168 0.749523 0.348049
0.172754 0.913360 0.354926
0.345323 0.921546 0.359931
0.547903 0.931155 0.365807
0.750483 0.940764 0.371682
0.923052 0.948950 0.376687
0.063281 0.053669 0.452063
0.235849 0.061855 0.457068
0.438429 0.071464 0.462943
0.641010 0.081073 0.468819
0.813578 0.089258 0.473824
0.089165 0.253096 0.480701
0.261734 0.261281 0.485706
0.464314 0.270890 0.491581
0.666894 0.280500 0.497457
0.839463 0.288685 0.502462
0.119551 0.487205 0.514320
0.292120 0.495391 0.519325
0.494700 0.505000 0.525200
0.697280 0.514609 0.531075
0.869849 0.522795 0.536080
0.149937 0.721315 0.547938
0.322506 0.729500 0.552943
0.525086 0.739110 0.558819
0.727666 0.748719 0.564694
0.900235 0.756904 0.569699
0.175822 0.920742 0.576576
0.348390 0.928927 0.581581
0.550970 0.938536 0.587457
0.753551 0.948145 0.593332
0.926119 0.956331 0.598337
0.066348 0.061050 0.673713
0.238917 0.069236 0.678718
0.441497 0.078845 0.684593
0.644077 0.088454 0.690469
0.816646 0.096640 0.695474
0.092232 0.260477 0.702351
0.264801 0.268663 0.707356
0.467381 0.278272 0.713231
0.669962 0.287881 0.719107
0.842530 0.296066 0.724112
0.122619 0.494587 0.735970
0.295187 0.502772 0.740975
0.497768 0.512381 0.746850
0.700348 0.521990 0.752725
0.872916 0.530176 0.757730
0.153005 0.728696 0.769588
0.325573 0.736882 0.774593
0.528154 0.746491 0.780469
0.730734 0.756100 0.786344
0.903303 0.764286 0.791349
0.178889 0.928123 0.798226
0.351458 0.936309 0.803231
0.554038 0.945918 0.809107
0.756618 0.955527 0.814982
0.929187 0.963712 0.819987
0.068961 0.067338 0.862526
0.241530 0.075524 0.867531
0.444110 0.085133 0.873406
0.646690 0.094742 0.879282
0.819259 0.102928 0.884287
0.094846 0.266765 0.891164
0.267414 0.274950 0.896169
0.469994 0.284560 0.902044
0.672575 0.294169 0.907920
0.845143 0.302354 0.912925
0.125232 0.500875 0.924782
0.297800 0.509060 0.929787
0.500381 0.518669 0.935663
0.702961 0.528278 0.941538
0.875529 0.536464 0.946543
0.155618 0.734984 0.958401
0.328186 0.743170 0.963406
0.530767 0.752779 0.969281
0.733347 0.762388 0.975157
0.905916 0.770573 0.980162
0.181502 0.934411 0.987039
0.354071 0.942596 0.992044
0.556651 0.952205 0.997920
0.759231 0.961815 1.000000
0.931800 0.970000 1.000000
