shared/luts/fuji_nostalgic_neg_approx.cube
TITLE "Fuji Nostalgic Neg approx"
LUT_3D_SIZE 9
0.105600 0.081400 0.064400
0.206580 0.081400 0.064400
0.331320 0.081400 0.064400
0.456060 0.081400 0.064400
0.580800 0.081400 0.064400
0.705540 0.081400 0.064400
0.830280 0.081400 0.064400
0.955020 0.081400 0.064400
1.000000 0.081400 0.064400
0.105600 0.176770 0.064400
0.206580 0.176770 0.064400
0.331320 0.176770 0.064400
0.456060 0.176770 0.064400
0.580800 0.176770 0.064400
0.705540 0.176770 0.064400
0.830280 0.176770 0.064400
0.955020 0.176770 0.064400
1.000000 0.176770 0.064400
0.105600 0.294580 0.064400
0.206580 0.294580 0.064400
0.331320 0.294580 0.064400
0.456060 0.294580 0.064400
0.580800 0.294580 0.064400
0.705540 0.294580 0.064400
0.830280 0.294580 0.064400
0.955020 0.294580 0.064400
1.000000 0.294580 0.064400
0.105600 0.412390 0.064400
0.206580 0.412390 0.064400
0.331320 0.412390 0.064400
0.456060 0.412390 0.064400
0.580800 0.412390 0.064400
0.705540 0.412390 0.064400
0.830280 0.412390 0.064400
0.955020 0.412390 0.064400
1.000000 0.412390 0.064400
0.105600 0.530200 0.064400
0.206580 0.530200 0.064400
0.331320 0.530200 0.064400
0.456060 0.530200 0.064400
0.580800 0.530200 0.064400
0.705540 0.530200 0.064400
0.830280 0.530200 0.064400
0.955020 0.530200 0.064400
1.000000 0.530200 0.064400
0.105600 0.648010 0.064400
0.206580 0.648010 0.064400
0.331320 0.648010 0.064400
0.456060 0.648010 0.064400
0.580800 0.648010 0.064400
0.705540 0.648010 0.064400
0.830280 0.648010 0.064400
0.955020 0.648010 0.064400
1.000000 0.648010 0.064400
0.105600 0.765820 0.064400
0.206580 0.765820 0.064400
0.331320 0.765820 0.064400
0.456060 0.765820 0.064400
0.580800 0.765820 0.064400
0.705540 0.765820 0.064400
0.830280 0.765820 0.064400
0.955020 0.765820 0.064400
1.000000 0.765820 0.064400
0.105600 0.883630 0.064400
0.206580 0.883630 0.064400
0.331320 0.883630 0.064400
0.456060 0.883630 0.064400
0.580800 0.883630 0.064400
0.705540 0.883630 0.064400
0.830280 0.883630 0.064400
0.955020 0.883630 0.064400
1.000000 0.883630 0.064400
0.105600 0.979000 0.064400
0.206580 0.979000 0.064400
0.331320 0.979000 0.064400
0.456060 0.979000 0.064400
0.580800 0.979000 0.064400
0.705540 0.979000 0.064400
0.830280 0.979000 0.064400
0.955020 0.979000 0.064400
1.000000 0.979000 0.064400
0.105600 0.081400 0.150420
0.206580 0.081400 0.150420
0.331320 0.081400 0.150420
0.456060 0.081400 0.150420
0.580800 0.081400 0.150420
0.705540 0.081400 0.150420
0.830280 0.081400 0.150420
0.955020 0.081400 0.150420
1.000000 0.081400 0.150420
0.105600 0.176770 0.150420
0.206580 0.176770 0.150420
0.331320 0.176770 0.150420
0.456060 0.176770 0.150420
0.580800 0.176770 0.150420
0.705540 0.176770 0.150420
0.830280 0.176770 0.150420
0.955020 0.176770 0.150420
1.000000 0.176770 0.150420
0.105600 0.294580 0.150420
0.206580 0.294580 0.150420
0.331320 0.294580 0.150420
0.456060 0.294580 0.150420
0.580800 0.294580 0.150420
0.705540 0.294580 0.150420
0.830280 0.294580 0.150420
0.955020 0.294580 0.150420
1.000000 0.294580 0.150420
0.105600 0.412390 0.150420
0.206580 0.412390 0.150420
0.331320 0.412390 0.150420
0.456060 0.412390 0.150420
0.580800 0.412390 0.150420
0.705540 0.412390 0.150420
0.830280 0.412390 0.150420
0.955020 0.412390 0.150420
1.000000 0.412390 0.150420
0.105600 0.530200 0.150420
0.206580 0.530200 0.150420
0.331320 0.530200 0.150420
0.456060 0.530200 0.150420
0.580800 0.530200 0.150420
0.705540 0.530200 0.150420
0.830280 0.530200 0.150420
0.955020 0.530200 0.150420
1.000000 0.530200 0.150420
0.105600 0.648010 0.150420
0.206580 0.648010 0.150420
0.331320 0.648010 0.150420
0.456060 0.648010 0.150420
0.580800 0.648010 0.150420
0.705540 0.648010 0.150420
0.830280 0.648010 0.150420
0.955020 0.648010 0.150420
1.000000 0.648010 0.150420
0.105600 0.765820 0.150420
0.206580 0.765820 0.150420
0.331320 0.765820 0.150420
0.456060 0.765820 0.150420
0.580800 0.765820 0.150420
0.705540 0.765820 0.150420
0.830280 0.765820 0.150420
0.955020 0.765820 0.150420
1.000000 0.765820 0.150420
0.105600 0.883630 0.150420
0.206580 0.883630 0.150420
0.331320 0.883630 0.150420
0.456060 0.883630 0.150420
0.580800 0.883630 0.150420
0.705540 0.883630 0.150420
0.830280 0.883630 0.150420
0.955020 0.883630 0.150420
1.000000 0.883630 0.150420
0.105600 0.979000 0.150420
0.206580 0.979000 0.150420
0.331320 0.979000 0.150420
0.456060 0.979000 0.150420
0.580800 0.979000 0.150420
0.705540 0.979000 0.150420
0.830280 0.979000 0.150420
0.955020 0.979000 0.150420
1.000000 0.979000 0.150420
0.105600 0.081400 0.256680
0.206580 0.081400 0.256680
0.331320 0.081400 0.256680
0.456060 0.081400 0.256680
0.580800 0.081400 0.256680
0.705540 0.081400 0.256680
0.830280 0.081400 0.256680
0.955020 0.081400 0.256680
1.000000 0.081400 0.256680
0.105600 0.176770 0.256680
0.206580 0.176770 0.256680
0.331320 0.176770 0.256680
0.456060 0.176770 0.256680
0.580800 0.176770 0.256680
0.705540 0.176770 0.256680
0.830280 0.176770 0.256680
0.955020 0.176770 0.256680
1.000000 0.176770 0.256680
0.105600 0.294580 0.256680
0.206580 0.294580 0.256680
0.331320 0.294580 0.256680
0.456060 0.294580 0.256680
0.580800 0.294580 0.256680
0.705540 0.294580 0.256680
0.830280 0.294580 0.256680
0.955020 0.294580 0.256680
1.000000 0.294580 0.256680
0.105600 0.412390 0.256680
0.206580 0.412390 0.256680
0.331320 0.412390 0.256680
0.456060 0.412390 0.256680
0.580800 0.412390 0.256680
0.705540 0.412390 0.256680
0.830280 0.412390 0.256680
0.955020 0.412390 0.256680
1.000000 0.412390 0.256680
0.105600 0.530200 0.256680
0.206580 0.530200 0.256680
0.331320 0.530200 0.256680
0.456060 0.530200 0.256680
0.580800 0.530200 0.256680
0.705540 0.530200 0.256680
0.830280 0.530200 0.256680
0.955020 0.530200 0.256680
1.000000 0.530200 0.256680
0.105600 0.648010 0.256680
0.206580 0.648010 0.256680
0.331320 0.648010 0.256680
0.456060 0.648010 0.256680
0.580800 0.648010 0.256680
0.705540 0.648010 0.256680
0.830280 0.648010 0.256680
0.955020 0.648010 0.256680
1.000000 0.648010 0.256680
0.105600 0.765820 0.256680
0.206580 0.765820 0.256680
0.331320 0.765820 0.256680
0.456060 0.765820 0.256680
0.580800 0.765820 0.256680
0.705540 0.765820 0.256680
0.830280 0.765820 0.256680
0.955020 0.765820 0.256680
1.000000 0.765820 0.256680
0.105600 0.883630 0.256680
0.206580 0.883630 0.256680
0.331320 0.883630 0.256680
0.456060 0.883630 0.256680
0.580800 0.883630 0.256680
0.705540 0.883630 0.256680
0.830280 0.883630 0.256680
0.955020 0.883630 0.256680
1.000000 0.883630 0.256680
0.105600 0.979000 0.256680
0.206580 0.979000 0.256680
0.331320 0.979000 0.256680
0.456060 0.979000 0.256680
0.580800 0.979000 0.256680
0.705540 0.979000 0.256680
0.830280 0.979000 0.256680
0.955020 0.979000 0.256680
1.000000 0.979000 0.256680
0.105600 0.081400 0.362940
0.206580 0.081400 0.362940
0.331320 0.081400 0.362940
0.456060 0.081400 0.362940
0.580800 0.081400 0.362940
0.705540 0.081400 0.362940
0.830280 0.081400 0.362940
0.955020 0.081400 0.362940
1.000000 0.081400 0.362940
0.105600 0.176770 0.362940
0.206580 0.176770 0.362940
0.331320 0.176770 0.362940
0.456060 0.176770 0.362940
0.580800 0.176770 0.362940
0.705540 0.176770 0.362940
0.830280 0.176770 0.362940
0.955020 0.176770 0.362940
1.000000 0.176770 0.362940
0.105600 0.294580 0.362940
0.206580 0.294580 0.362940
0.331320 0.294580 0.362940
0.456060 0.294580 0.362940
0.580800 0.294580 0.362940
0.705540 0.294580 0.362940
0.830280 0.294580 0.362940
0.955020 0.294580 0.362940
1.000000 0.294580 0.362940
0.105600 0.412390 0.362940
0.206580 0.412390 0.362940
0.331320 0.412390 0.362940
0.456060 0.412390 0.362940
0.580800 0.412390 0.362940
0.705540 0.412390 0.362940
0.830280 0.412390 0.362940
0.955020 0.412390 0.362940
1.000000 0.412390 0.362940
0.105600 0.530200 0.362940
0.206580 0.530200 0.362940
0.331320 0.530200 0.362940
0.456060 0.530200 0.362940
0.580800 0.530200 0.362940
0.705540 0.530200 0.362940
0.830280 0.530200 0.362940
0.955020 0.530200 0.362940
1.000000 0.530200 0.362940
0.105600 0.648010 0.362940
0.206580 0.648010 0.362940
0.331320 0.648010 0.362940
0.456060 0.648010 0.362940
0.580800 0.648010 0.362940
0.705540 0.648010 0.362940
0.830280 0.648010 0.362940
0.955020 0.648010 0.362940
1.000000 0.648010 0.362940
0.105600 0.765820 0.362940
0.206580 0.765820 0.362940
0.331320 0.765820 0.362940
0.456060 0.765820 0.362940
0.580800 0.765820 0.362940
0.705540 0.765820 0.362940
0.830280 0.765820 0.362940
0.955020 0.765820 0.362940
1.000000 0.765820 0.362940
0.105600 0.883630 0.362940
0.206580 0.883630 0.362940
0.331320 0.883630 0.362940
0.456060 0.883630 0.362940
0.580800 0.883630 0.362940
0.705540 0.883630 0.362940
0.830280 0.883630 0.362940
0.955020 0.883630 0.362940
1.000000 0.883630 0.362940
0.105600 0.979000 0.362940
0.206580 0.979000 0.362940
0.331320 0.979000 0.362940
0.456060 0.979000 0.362940
0.580800 0.979000 0.362940
0.705540 0.979000 0.362940
0.830280 0.979000 0.362940
0.955020 0.979000 0.362940
1.000000 0.979000 0.362940
0.105600 0.081400 0.469200
0.206580 0.081400 0.469200
0.331320 0.081400 0.469200
0.456060 0.081400 0.469200
0.580800 0.081400 0.469200
0.705540 0.081400 0.469200
0.830280 0.081400 0.469200
0.955020 0.081400 0.469200
1.000000 0.081400 0.469200
0.105600 0.176770 0.469200
0.206580 0.176770 0.469200
0.331320 0.176770 0.469200
0.456060 0.176770 0.469200
0.580800 0.176770 0.469200
0.705540 0.176770 0.469200
0.830280 0.176770 0.469200
0.955020 0.176770 0.469200
1.000000 0.176770 0.469200
0.105600 0.294580 0.469200
0.206580 0.294580 0.469200
0.331320 0.294580 0.469200
0.456060 0.294580 0.469200
0.580800 0.294580 0.469200
0.705540 0.294580 0.469200
0.830280 0.294580 0.469200
0.955020 0.294580 0.469200
1.000000 0.294580 0.469200
0.105600 0.412390 0.469200
0.206580 0.412390 0.469200
0.331320 0.412390 0.469200
0.456060 0.412390 0.469200
0.580800 0.412390 0.469200
0.705540 0.412390 0.469200
0.830280 0.412390 0.469200
0.955020 0.412390 0.469200
1.000000 0.412390 0.469200
0.105600 0.530200 0.469200
0.206580 0.530200 0.469200
0.331320 0.530200 0.469200
0.456060 0.530200 0.469200
0.580800 0.530200 0.469200
0.705540 0.530200 0.469200
0.830280 0.530200 0.469200
0.955020 0.530200 0.469200
1.000000 0.530200 0.469200
0.105600 0.648010 0.469200
0.206580 0.648010 0.469200
0.331320 0.648010 0.469200
0.456060 0.648010 0.469200
0.580800 0.648010 0.469200
0.705540 0.648010 0.469200
0.830280 0.648010 0.469200
0.955020 0.648010 0.469200
1.000000 0.648010 0.469200
0.105600 0.765820 0.469200
0.206580 0.765820 0.469200
0.331320 0.765820 0.469200
0.456060 0.765820 0.469200
0.580800 0.765820 0.469200
0.705540 0.765820 0.469200
0.830280 0.765820 0.469200
0.955020 0.765820 0.469200
1.000000 0.765820 0.469200
0.105600 0.883630 0.469200
0.206580 0.883630 0.469200
0.331320 0.883630 0.469200
0.456060 0.883630 0.469200
0.580800 0.883630 0.469200
0.705540 0.883630 0.469200
0.830280 0.883630 0.469200
0.955020 0.883630 0.469200
1.000000 0.883630 0.469200
0.105600 0.979000 0.469200
0.206580 0.979000 0.469200
0.331320 0.979000 0.469200
0.456060 0.979000 0.469200
0.580800 0.979000 0.469200
0.705540 0.979000 0.469200
0.830280 0.979000 0.469200
0.955020 0.979000 0.469200
1.000000 0.979000 0.469200
0.105600 0.081400 0.575460
0.206580 0.081400 0.575460
0.331320 0.081400 0.575460
0.456060 0.081400 0.575460
0.580800 0.081400 0.575460
0.705540 0.081400 0.575460
0.830280 0.081400 0.575460
0.955020 0.081400 0.575460
1.000000 0.081400 0.575460
0.105600 0.176770 0.575460
0.206580 0.176770 0.575460
0.331320 0.176770 0.575460
0.456060 0.176770 0.575460
0.580800 0.176770 0.575460
0.705540 0.176770 0.575460
0.830280 0.176770 0.575460
0.955020 0.176770 0.575460
1.000000 0.176770 0.575460
0.105600 0.294580 0.575460
0.206580 0.294580 0.575460
0.331320 0.294580 0.575460
0.456060 0.294580 0.575460
0.580800 0.294580 0.575460
0.705540 0.294580 0.575460
0.830280 0.294580 0.575460
0.955020 0.294580 0.575460
1.000000 0.294580 0.575460
0.105600 0.412390 0.575460
0.206580 0.412390 0.575460
0.331320 0.412390 0.575460
0.456060 0.412390 0.575460
0.580800 0.412390 0.575460
0.705540 0.412390 0.575460
0.830280 0.412390 0.575460
0.955020 0.412390 0.575460
1.000000 0.412390 0.575460
0.105600 0.530200 0.575460
0.206580 0.530200 0.575460
0.331320 0.530200 0.575460
0.456060 0.530200 0.575460
0.580800 0.530200 0.575460
0.705540 0.530200 0.575460
0.830280 0.530200 0.575460
0.955020 0.530200 0.575460
1.000000 0.530200 0.575460
0.105600 0.648010 0.575460
0.206580 0.648010 0.575460
0.331320 0.648010 0.575460
0.456060 0.648010 0.575460
0.580800 0.648010 0.575460
0.705540 0.648010 0.575460
0.830280 0.648010 0.575460
0.955020 0.648010 0.575460
1.000000 0.648010 0.575460
0.105600 0.765820 0.575460
0.206580 0.765820 0.575460
0.331320 0.765820 0.575460
0.456060 0.765820 0.575460
0.580800 0.765820 0.575460
0.705540 0.765820 0.575460
0.830280 0.765820 0.575460
0.955020 0.765820 0.575460
1.000000 0.765820 0.575460
0.105600 0.883630 0.575460
0.206580 0.883630 0.575460
0.331320 0.883630 0.575460
0.456060 0.883630 0.575460
0.580800 0.883630 0.575460
0.705540 0.883630 0.575460
0.830280 0.883630 0.575460
0.955020 0.883630 0.575460
1.000000 0.883630 0.575460
0.105600 0.979000 0.575460
0.206580 0.979000 0.575460
0.331320 0.979000 0.575460
0.456060 0.979000 0.575460
0.580800 0.979000 0.575460
0.705540 0.979000 0.575460
0.830280 0.979000 0.575460
0.955020 0.979000 0.575460
1.000000 0.979000 0.575460
0.105600 0.081400 0.681720
0.206580 0.081400 0.681720
0.331320 0.081400 0.681720
0.456060 0.081400 0.681720
0.580800 0.081400 0.681720
0.705540 0.081400 0.681720
0.830280 0.081400 0.681720
0.955020 0.081400 0.681720
1.000000 0.081400 0.681720
0.105600 0.176770 0.681720
0.206580 0.176770 0.681720
0.331320 0.176770 0.681720
0.456060 0.176770 0.681720
0.580800 0.176770 0.681720
0.705540 0.176770 0.681720
0.830280 0.176770 0.681720
0.955020 0.176770 0.681720
1.000000 0.176770 0.681720
0.105600 0.294580 0.681720
0.206580 0.294580 0.681720
0.331320 0.294580 0.681720
0.456060 0.294580 0.681720
0.580800 0.294580 0.681720
0.705540 0.294580 0.681720
0.830280 0.294580 0.681720
0.955020 0.294580 0.681720
1.000000 0.294580 0.681720
0.105600 0.412390 0.681720
0.206580 0.412390 0.681720
0.331320 0.412390 0.681720
0.456060 0.412390 0.681720
0.580800 0.412390 0.681720
0.705540 0.412390 0.681720
0.830280 0.412390 0.681720
0.955020 0.412390 0.681720
1.000000 0.412390 0.681720
0.105600 0.530200 0.681720
0.206580 0.530200 0.681720
0.331320 0.530200 0.681720
0.456060 0.530200 0.681720
0.580800 0.530200 0.681720
0.705540 0.530200 0.681720
0.830280 0.530200 0.681720
0.955020 0.530200 0.681720
1.000000 0.530200 0.681720
0.105600 0.648010 0.681720
0.206580 0.648010 0.681720
0.331320 0.648010 0.681720
0.456060 0.648010 0.681720
0.580800 0.648010 0.681720
0.705540 0.648010 0.681720
0.830280 0.648010 0.681720
0.955020 0.648010 0.681720
1.000000 0.648010 0.681720
0.105600 0.765820 0.681720
0.206580 0.765820 0.681720
0.331320 0.765820 0.681720
0.456060 0.765820 0.681720
0.580800 0.765820 0.681720
0.705540 0.765820 0.681720
0.830280 0.765820 0.681720
0.955020 0.765820 0.681720
1.000000 0.765820 0.681720
0.105600 0.883630 0.681720
0.206580 0.883630 0.681720
0.331320 0.883630 0.681720
0.456060 0.883630 0.681720
0.580800 0.883630 0.681720
0.705540 0.883630 0.681720
0.830280 0.883630 0.681720
0.955020 0.883630 0.681720
1.000000 0.883630 0.681720
0.105600 0.979000 0.681720
0.206580 0.979000 0.681720
0.331320 0.979000 0.681720
0.456060 0.979000 0.681720
0.580800 0.979000 0.681720
0.705540 0.979000 0.681720
0.830280 0.979000 0.681720
0.955020 0.979000 0.681720
1.000000 0.979000 0.681720
0.105600 0.081400 0.787980
0.206580 0.081400 0.787980
0.331320 0.081400 0.787980
0.456060 0.081400 0.787980
0.580800 0.081400 0.787980
0.705540 0.081400 0.787980
0.830280 0.081400 0.787980
0.955020 0.081400 0.787980
1.000000 0.081400 0.787980
0.105600 0.176770 0.787980
0.206580 0.176770 0.787980
0.331320 0.176770 0.787980
0.456060 0.176770 0.787980
0.580800 0.176770 0.787980
0.705540 0.176770 0.787980
0.830280 0.176770 0.787980
0.955020 0.176770 0.787980
1.000000 0.176770 0.787980
0.105600 0.294580 0.787980
0.206580 0.294580 0.787980
0.331320 0.294580 0.787980
0.456060 0.294580 0.787980
0.580800 0.294580 0.787980
0.705540 0.294580 0.787980
0.830280 0.294580 0.787980
0.955020 0.294580 0.787980
1.000000 0.294580 0.787980
0.105600 0.412390 0.787980
0.206580 0.412390 0.787980
0.331320 0.412390 0.787980
0.456060 0.412390 0.787980
0.580800 0.412390 0.787980
0.705540 0.412390 0.787980
0.830280 0.412390 0.787980
0.955020 0.412390 0.787980
1.000000 0.412390 0.787980
0.105600 0.530200 0.787980
0.206580 0.530200 0.787980
0.331320 0.530200 0.787980
0.456060 0.530200 0.787980
0.580800 0.530200 0.787980
0.705540 0.530200 0.787980
0.830280 0.530200 0.787980
0.955020 0.530200 0.787980
1.000000 0.530200 0.787980
0.105600 0.648010 0.787980
0.206580 0.648010 0.787980
0.331320 0.648010 0.787980
0.456060 0.648010 0.787980
0.580800 0.648010 0.787980
0.705540 0.648010 0.787980
0.830280 0.648010 0.787980
0.955020 0.648010 0.787980
1.000000 0.648010 0.787980
0.105600 0.765820 0.787980
0.206580 0.765820 0.787980
0.331320 0.765820 0.787980
0.456060 0.765820 0.787980
0.580800 0.765820 0.787980
0.705540 0.765820 0.787980
0.830280 0.765820 0.787980
0.955020 0.765820 0.787980
1.000000 0.765820 0.787980
0.105600 0.883630 0.787980
0.206580 0.883630 0.787980
0.331320 0.883630 0.787980
0.456060 0.883630 0.787980
0.580800 0.883630 0.787980
0.705540 0.883630 0.787980
0.830280 0.883630 0.787980
0.955020 0.883630 0.787980
1.000000 0.883630 0.787980
0.105600 0.979000 0.787980
0.206580 0.979000 0.787980
0.331320 0.979000 0.787980
0.456060 0.979000 0.787980
0.580800 0.979000 0.787980
0.705540 0.979000 0.787980
0.830280 0.979000 0.787980
0.955020 0.979000 0.787980
1.000000 0.979000 0.787980
0.105600 0.081400 0.874000
0.206580 0.081400 0.874000
0.331320 0.081400 0.874000
0.456060 0.081400 0.874000
0.580800 0.081400 0.874000
0.705540 0.081400 0.874000
0.830280 0.081400 0.874000
0.955020 0.081400 0.874000
1.000000 0.081400 0.874000
0.105600 0.176770 0.874000
0.206580 0.176770 0.874000
0.331320 0.176770 0.874000
0.456060 0.176770 0.874000
0.580800 0.176770 0.874000
0.705540 0.176770 0.874000
0.830280 0.176770 0.874000
0.955020 0.176770 0.874000
1.000000 0.176770 0.874000
0.105600 0.294580 0.874000
0.206580 0.294580 0.874000
0.331320 0.294580 0.874000
0.456060 0.294580 0.874000
0.580800 0.294580 0.874000
0.705540 0.294580 0.874000
0.830280 0.294580 0.874000
0.955020 0.294580 0.874000
1.000000 0.294580 0.874000
0.105600 0.412390 0.874000
0.206580 0.412390 0.874000
0.331320 0.412390 0.874000
0.456060 0.412390 0.874000
0.580800 0.412390 0.874000
0.705540 0.412390 0.874000
0.830280 0.412390 0.874000
0.955020 0.412390 0.874000
1.000000 0.412390 0.874000
0.105600 0.530200 0.874000
0.206580 0.530200 0.874000
0.331320 0.530200 0.874000
0.456060 0.530200 0.874000
0.580800 0.530200 0.874000
0.705540 0.530200 0.874000
0.830280 0.530200 0.874000
0.955020 0.530200 0.874000
1.000000 0.530200 0.874000
0.105600 0.648010 0.874000
0.206580 0.648010 0.874000
0.331320 0.648010 0.874000
0.456060 0.648010 0.874000
0.580800 0.648010 0.874000
0.705540 0.648010 0.874000
0.830280 0.648010 0.874000
0.955020 0.648010 0.874000
1.000000 0.648010 0.874000
0.105600 0.765820 0.874000
0.206580 0.765820 0.874000
0.331320 0.765820 0.874000
0.456060 0.765820 0.874000
0.580800 0.765820 0.874000
0.705540 0.765820 0.874000
0.830280 0.765820 0.874000
0.955020 0.765820 0.874000
1.000000 0.765820 0.874000
0.105600 0.883630 0.874000
0.206580 0.883630 0.874000
0.331320 0.883630 0.874000
0.456060 0.883630 0.874000
0.580800 0.883630 0.874000
0.705540 0.883630 0.874000
0.830280 0.883630 0.874000
0.955020 0.883630 0.874000
1.000000 0.883630 0.874000
0.105600 0.979000 0.874000
0.206580 0.979000 0.874000
0.331320 0.979000 0.874000
0.456060 0.979000 0.874000
0.580800 0.979000 0.874000
0.705540 0.979000 0.874000
0.830280 0.979000 0.874000
0.955020 0.979000 0.874000
1.000000 0.979000 0.874000
