shared/luts/fuji_classic_chrome_approx.cube
TITLE "Fuji Classic Chrome approx"
LUT_3D_SIZE 33
0.057600 0.040000 0.041600
0.057600 0.040000 0.041600
0.078233 0.040979 0.042198
0.103556 0.042180 0.042933
0.128878 0.043381 0.043667
0.154201 0.044582 0.044402
0.179523 0.045783 0.045136
0.204846 0.046984 0.045871
0.230169 0.048186 0.046605
0.255491 0.049387 0.047339
0.280814 0.050588 0.048074
0.306136 0.051789 0.048808
0.331459 0.052990 0.049543
0.356781 0.054191 0.050277
0.382104 0.055392 0.051012
0.407426 0.056593 0.051746
0.432749 0.057795 0.052480
0.458072 0.058996 0.053215
0.483394 0.060197 0.053949
0.508717 0.061398 0.054684
0.534039 0.062599 0.055418
0.559362 0.063800 0.056153
0.584684 0.065001 0.056887
0.610007 0.066203 0.057621
0.635329 0.067404 0.058356
0.660652 0.068605 0.059090
0.685974 0.069806 0.059825
0.711297 0.071007 0.060559
0.736620 0.072208 0.061294
0.761942 0.073409 0.062028
0.787265 0.074611 0.062762
0.807898 0.075589 0.063361
0.807898 0.075589 0.063361
0.057600 0.040000 0.041600
0.057600 0.040000 0.041600
0.078233 0.040979 0.042198
0.103556 0.042180 0.042933
0.128878 0.043381 0.043667
0.154201 0.044582 0.044402
0.179523 0.045783 0.045136
0.204846 0.046984 0.045871
0.230169 0.048186 0.046605
0.255491 0.049387 0.047339
0.280814 0.050588 0.048074
0.306136 0.051789 0.048808
0.331459 0.052990 0.049543
0.356781 0.054191 0.050277
0.382104 0.055392 0.051012
0.407426 0.056593 0.051746
0.432749 0.057795 0.052480
0.458072 0.058996 0.053215
0.483394 0.060197 0.053949
0.508717 0.061398 0.054684
0.534039 0.062599 0.055418
0.559362 0.063800 0.056153
0.584684 0.065001 0.056887
0.610007 0.066203 0.057621
0.635329 0.067404 0.058356
0.660652 0.068605 0.059090
0.685974 0.069806 0.059825
0.711297 0.071007 0.060559
0.736620 0.072208 0.061294
0.761942 0.073409 0.062028
0.787265 0.074611 0.062762
0.807898 0.075589 0.063361
0.807898 0.075589 0.063361
0.060695 0.063844 0.045024
0.060695 0.063844 0.045024
0.081328 0.064823 0.045623
0.106651 0.066024 0.046357
0.131973 0.067225 0.047091
0.157296 0.068427 0.047826
0.182618 0.069628 0.048560
0.207941 0.070829 0.049295
0.233263 0.072030 0.050029
0.258586 0.073231 0.050764
0.283908 0.074432 0.051498
0.309231 0.075633 0.052232
0.334554 0.076835 0.052967
0.359876 0.078036 0.053701
0.385199 0.079237 0.054436
0.410521 0.080438 0.055170
0.435844 0.081639 0.055905
0.461166 0.082840 0.056639
0.486489 0.084041 0.057373
0.511811 0.085243 0.058108
0.537134 0.086444 0.058842
0.562457 0.087645 0.059577
0.587779 0.088846 0.060311
0.613102 0.090047 0.061046
0.638424 0.091248 0.061780
0.663747 0.092449 0.062514
0.689069 0.093650 0.063249
0.714392 0.094852 0.063983
0.739715 0.096053 0.064718
0.765037 0.097254 0.065452
0.790360 0.098455 0.066186
0.810993 0.099434 0.066785
0.810993 0.099434 0.066785
0.064493 0.093108 0.049226
0.064493 0.093108 0.049226
0.085126 0.094087 0.049825
0.110449 0.095288 0.050559
0.135771 0.096489 0.051294
0.161094 0.097690 0.052028
0.186417 0.098891 0.052763
0.211739 0.100093 0.053497
0.237062 0.101294 0.054231
0.262384 0.102495 0.054966
0.287707 0.103696 0.055700
0.313029 0.104897 0.056435
0.338352 0.106098 0.057169
0.363674 0.107299 0.057904
0.388997 0.108501 0.058638
0.414320 0.109702 0.059372
0.439642 0.110903 0.060107
0.464965 0.112104 0.060841
0.490287 0.113305 0.061576
0.515610 0.114506 0.062310
0.540932 0.115707 0.063045
0.566255 0.116908 0.063779
0.591577 0.118110 0.064513
0.616900 0.119311 0.065248
0.642223 0.120512 0.065982
0.667545 0.121713 0.066717
0.692868 0.122914 0.067451
0.718190 0.124115 0.068186
0.743513 0.125316 0.068920
0.768835 0.126518 0.069654
0.794158 0.127719 0.070389
0.814791 0.128697 0.070987
0.814791 0.128697 0.070987
0.068291 0.122372 0.053429
0.068291 0.122372 0.053429
0.088925 0.123351 0.054027
0.114247 0.124552 0.054762
0.139570 0.125753 0.055496
0.164892 0.126954 0.056230
0.190215 0.128155 0.056965
0.215537 0.129356 0.057699
0.240860 0.130557 0.058434
0.266182 0.131758 0.059168
0.291505 0.132960 0.059903
0.316828 0.134161 0.060637
0.342150 0.135362 0.061371
0.367473 0.136563 0.062106
0.392795 0.137764 0.062840
0.418118 0.138965 0.063575
0.443440 0.140166 0.064309
0.468763 0.141368 0.065044
0.494085 0.142569 0.065778
0.519408 0.143770 0.066512
0.544730 0.144971 0.067247
0.570053 0.146172 0.067981
0.595376 0.147373 0.068716
0.620698 0.148574 0.069450
0.646021 0.149776 0.070185
0.671343 0.150977 0.070919
0.696666 0.152178 0.071653
0.721988 0.153379 0.072388
0.747311 0.154580 0.073122
0.772633 0.155781 0.073857
0.797956 0.156982 0.074591
0.818589 0.157961 0.075190
0.818589 0.157961 0.075190
0.072090 0.151636 0.057631
0.072090 0.151636 0.057631
0.092723 0.152614 0.058230
0.118045 0.153815 0.058964
0.143368 0.155017 0.059698
0.168691 0.156218 0.060433
0.194013 0.157419 0.061167
0.219336 0.158620 0.061902
0.244658 0.159821 0.062636
0.269981 0.161022 0.063371
0.295303 0.162223 0.064105
0.320626 0.163425 0.064839
0.345948 0.164626 0.065574
0.371271 0.165827 0.066308
0.396593 0.167028 0.067043
0.421916 0.168229 0.067777
0.447239 0.169430 0.068512
0.472561 0.170631 0.069246
0.497884 0.171832 0.069980
0.523206 0.173034 0.070715
0.548529 0.174235 0.071449
0.573851 0.175436 0.072184
0.599174 0.176637 0.072918
0.624497 0.177838 0.073652
0.649819 0.179039 0.074387
0.675142 0.180240 0.075121
0.700464 0.181442 0.075856
0.725787 0.182643 0.076590
0.751109 0.183844 0.077325
0.776432 0.185045 0.078059
0.801754 0.186246 0.078793
0.822388 0.187225 0.079392
0.822388 0.187225 0.079392
0.075888 0.180899 0.061833
0.075888 0.180899 0.061833
0.096521 0.181878 0.062432
0.121844 0.183079 0.063166
0.147166 0.184280 0.063901
0.172489 0.185481 0.064635
0.197811 0.186683 0.065370
0.223134 0.187884 0.066104
0.248456 0.189085 0.066838
0.273779 0.190286 0.067573
0.299102 0.191487 0.068307
0.324424 0.192688 0.069042
0.349747 0.193889 0.069776
0.375069 0.195091 0.070511
0.400392 0.196292 0.071245
0.425714 0.197493 0.071979
0.451037 0.198694 0.072714
0.476359 0.199895 0.073448
0.501682 0.201096 0.074183
0.527004 0.202297 0.074917
0.552327 0.203498 0.075652
0.577650 0.204700 0.076386
0.602972 0.205901 0.077120
0.628295 0.207102 0.077855
0.653617 0.208303 0.078589
0.678940 0.209504 0.079324
0.704262 0.210705 0.080058
0.729585 0.211906 0.080793
0.754907 0.213108 0.081527
0.780230 0.214309 0.082261
0.805553 0.215510 0.082996
0.826186 0.216489 0.083594
0.826186 0.216489 0.083594
0.079686 0.210163 0.066036
0.079686 0.210163 0.066036
0.100319 0.211142 0.066634
0.125642 0.212343 0.067369
0.150964 0.213544 0.068103
0.176287 0.214745 0.068837
0.201610 0.215946 0.069572
0.226932 0.217147 0.070306
0.252255 0.218348 0.071041
0.277577 0.219550 0.071775
0.302900 0.220751 0.072510
0.328222 0.221952 0.073244
0.353545 0.223153 0.073978
0.378867 0.224354 0.074713
0.404190 0.225555 0.075447
0.429513 0.226756 0.076182
0.454835 0.227958 0.076916
0.480158 0.229159 0.077651
0.505480 0.230360 0.078385
0.530803 0.231561 0.079119
0.556125 0.232762 0.079854
0.581448 0.233963 0.080588
0.606770 0.235164 0.081323
0.632093 0.236366 0.082057
0.657416 0.237567 0.082792
0.682738 0.238768 0.083526
0.708061 0.239969 0.084260
0.733383 0.241170 0.084995
0.758706 0.242371 0.085729
0.784028 0.243572 0.086464
0.809351 0.244773 0.087198
0.829984 0.245752 0.087797
0.829984 0.245752 0.087797
0.083484 0.239427 0.070238
0.083484 0.239427 0.070238
0.104118 0.240405 0.070837
0.129440 0.241607 0.071571
0.154763 0.242808 0.072305
0.180085 0.244009 0.073040
0.205408 0.245210 0.073774
0.230730 0.246411 0.074509
0.256053 0.247612 0.075243
0.281375 0.248813 0.075978
0.306698 0.250014 0.076712
0.332021 0.251216 0.077446
0.357343 0.252417 0.078181
0.382666 0.253618 0.078915
0.407988 0.254819 0.079650
0.433311 0.256020 0.080384
0.458633 0.257221 0.081118
0.483956 0.258422 0.081853
0.509278 0.259624 0.082587
0.534601 0.260825 0.083322
0.559924 0.262026 0.084056
0.585246 0.263227 0.084791
0.610569 0.264428 0.085525
0.635891 0.265629 0.086259
0.661214 0.266830 0.086994
0.686536 0.268032 0.087728
0.711859 0.269233 0.088463
0.737181 0.270434 0.089197
0.762504 0.271635 0.089932
0.787827 0.272836 0.090666
0.813149 0.274037 0.091400
0.833782 0.275016 0.091999
0.833782 0.275016 0.091999
0.087283 0.268690 0.074440
0.087283 0.268690 0.074440
0.107916 0.269669 0.075039
0.133238 0.270870 0.075773
0.158561 0.272071 0.076508
0.183884 0.273273 0.077242
0.209206 0.274474 0.077977
0.234529 0.275675 0.078711
0.259851 0.276876 0.079445
0.285174 0.278077 0.080180
0.310496 0.279278 0.080914
0.335819 0.280479 0.081649
0.361141 0.281680 0.082383
0.386464 0.282882 0.083118
0.411787 0.284083 0.083852
0.437109 0.285284 0.084586
0.462432 0.286485 0.085321
0.487754 0.287686 0.086055
0.513077 0.288887 0.086790
0.538399 0.290088 0.087524
0.563722 0.291290 0.088259
0.589044 0.292491 0.088993
0.614367 0.293692 0.089727
0.639690 0.294893 0.090462
0.665012 0.296094 0.091196
0.690335 0.297295 0.091931
0.715657 0.298496 0.092665
0.740980 0.299697 0.093400
0.766302 0.300899 0.094134
0.791625 0.302100 0.094868
0.816947 0.303301 0.095603
0.837581 0.304280 0.096201
0.837581 0.304280 0.096201
0.091081 0.297954 0.078643
0.091081 0.297954 0.078643
0.111714 0.298933 0.079241
0.137037 0.300134 0.079976
0.162359 0.301335 0.080710
0.187682 0.302536 0.081444
0.213004 0.303737 0.082179
0.238327 0.304938 0.082913
0.263649 0.306140 0.083648
0.288972 0.307341 0.084382
0.314295 0.308542 0.085117
0.339617 0.309743 0.085851
0.364940 0.310944 0.086585
0.390262 0.312145 0.087320
0.415585 0.313346 0.088054
0.440907 0.314548 0.088789
0.466230 0.315749 0.089523
0.491552 0.316950 0.090258
0.516875 0.318151 0.090992
0.542198 0.319352 0.091726
0.567520 0.320553 0.092461
0.592843 0.321754 0.093195
0.618165 0.322955 0.093930
0.643488 0.324157 0.094664
0.668810 0.325358 0.095399
0.694133 0.326559 0.096133
0.719455 0.327760 0.096867
0.744778 0.328961 0.097602
0.770101 0.330162 0.098336
0.795423 0.331363 0.099071
0.820746 0.332565 0.099805
0.841379 0.333543 0.100404
0.841379 0.333543 0.100404
0.094879 0.327218 0.082845
0.094879 0.327218 0.082845
0.115512 0.328196 0.083444
0.140835 0.329398 0.084178
0.166157 0.330599 0.084912
0.191480 0.331800 0.085647
0.216803 0.333001 0.086381
0.242125 0.334202 0.087116
0.267448 0.335403 0.087850
0.292770 0.336604 0.088584
0.318093 0.337806 0.089319
0.343415 0.339007 0.090053
0.368738 0.340208 0.090788
0.394061 0.341409 0.091522
0.419383 0.342610 0.092257
0.444706 0.343811 0.092991
0.470028 0.345012 0.093725
0.495351 0.346214 0.094460
0.520673 0.347415 0.095194
0.545996 0.348616 0.095929
0.571318 0.349817 0.096663
0.596641 0.351018 0.097398
0.621964 0.352219 0.098132
0.647286 0.353420 0.098866
0.672609 0.354621 0.099601
0.697931 0.355823 0.100335
0.723254 0.357024 0.101070
0.748576 0.358225 0.101804
0.773899 0.359426 0.102539
0.799221 0.360627 0.103273
0.824544 0.361828 0.104007
0.845177 0.362807 0.104606
0.845177 0.362807 0.104606
0.098677 0.356481 0.087047
0.098677 0.356481 0.087047
0.119311 0.357460 0.087646
0.144633 0.358661 0.088380
0.169956 0.359862 0.089115
0.195278 0.361064 0.089849
0.220601 0.362265 0.090584
0.245923 0.363466 0.091318
0.271246 0.364667 0.092052
0.296569 0.365868 0.092787
0.321891 0.367069 0.093521
0.347214 0.368270 0.094256
0.372536 0.369472 0.094990
0.397859 0.370673 0.095725
0.423181 0.371874 0.096459
0.448504 0.373075 0.097193
0.473826 0.374276 0.097928
0.499149 0.375477 0.098662
0.524471 0.376678 0.099397
0.549794 0.377880 0.100131
0.575117 0.379081 0.100866
0.600439 0.380282 0.101600
0.625762 0.381483 0.102334
0.651084 0.382684 0.103069
0.676407 0.383885 0.103803
0.701729 0.385086 0.104538
0.727052 0.386287 0.105272
0.752375 0.387489 0.106006
0.777697 0.388690 0.106741
0.803020 0.389891 0.107475
0.828342 0.391092 0.108210
0.848975 0.392071 0.108808
0.848975 0.392071 0.108808
0.102476 0.385745 0.091250
0.102476 0.385745 0.091250
0.123109 0.386724 0.091848
0.148431 0.387925 0.092583
0.173754 0.389126 0.093317
0.199077 0.390327 0.094051
0.224399 0.391528 0.094786
0.249722 0.392730 0.095520
0.275044 0.393931 0.096255
0.300367 0.395132 0.096989
0.325689 0.396333 0.097724
0.351012 0.397534 0.098458
0.376334 0.398735 0.099192
0.401657 0.399936 0.099927
0.426980 0.401138 0.100661
0.452302 0.402339 0.101396
0.477625 0.403540 0.102130
0.502947 0.404741 0.102865
0.528270 0.405942 0.103599
0.553592 0.407143 0.104333
0.578915 0.408344 0.105068
0.604237 0.409545 0.105802
0.629560 0.410747 0.106537
0.654883 0.411948 0.107271
0.680205 0.413149 0.108006
0.705528 0.414350 0.108740
0.730850 0.415551 0.109474
0.756173 0.416752 0.110209
0.781495 0.417953 0.110943
0.806818 0.419155 0.111678
0.832140 0.420356 0.112412
0.852774 0.421334 0.113011
0.852774 0.421334 0.113011
0.106274 0.415009 0.095452
0.106274 0.415009 0.095452
0.126907 0.415988 0.096050
0.152230 0.417189 0.096785
0.177552 0.418390 0.097519
0.202875 0.419591 0.098254
0.228197 0.420792 0.098988
0.253520 0.421993 0.099723
0.278842 0.423194 0.100457
0.304165 0.424396 0.101191
0.329488 0.425597 0.101926
0.354810 0.426798 0.102660
0.380133 0.427999 0.103395
0.405455 0.429200 0.104129
0.430778 0.430401 0.104864
0.456100 0.431602 0.105598
0.481423 0.432803 0.106332
0.506745 0.434005 0.107067
0.532068 0.435206 0.107801
0.557391 0.436407 0.108536
0.582713 0.437608 0.109270
0.608036 0.438809 0.110005
0.633358 0.440010 0.110739
0.658681 0.441211 0.111473
0.684003 0.442413 0.112208
0.709326 0.443614 0.112942
0.734648 0.444815 0.113677
0.759971 0.446016 0.114411
0.785294 0.447217 0.115146
0.810616 0.448418 0.115880
0.835939 0.449619 0.116614
0.856572 0.450598 0.117213
0.856572 0.450598 0.117213
0.110072 0.444273 0.099654
0.110072 0.444273 0.099654
0.130705 0.445251 0.100253
0.156028 0.446452 0.100987
0.181351 0.447654 0.101722
0.206673 0.448855 0.102456
0.231996 0.450056 0.103191
0.257318 0.451257 0.103925
0.282641 0.452458 0.104659
0.307963 0.453659 0.105394
0.333286 0.454860 0.106128
0.358608 0.456061 0.106863
0.383931 0.457263 0.107597
0.409254 0.458464 0.108332
0.434576 0.459665 0.109066
0.459899 0.460866 0.109800
0.485221 0.462067 0.110535
0.510544 0.463268 0.111269
0.535866 0.464469 0.112004
0.561189 0.465671 0.112738
0.586511 0.466872 0.113472
0.611834 0.468073 0.114207
0.637157 0.469274 0.114941
0.662479 0.470475 0.115676
0.687802 0.471676 0.116410
0.713124 0.472877 0.117145
0.738447 0.474079 0.117879
0.763769 0.475280 0.118614
0.789092 0.476481 0.119348
0.814414 0.477682 0.120082
0.839737 0.478883 0.120817
0.860370 0.479862 0.121415
0.860370 0.479862 0.121415
0.113871 0.473536 0.103857
0.113871 0.473536 0.103857
0.134504 0.474515 0.104455
0.159826 0.475716 0.105190
0.185149 0.476917 0.105924
0.210471 0.478118 0.106658
0.235794 0.479319 0.107393
0.261116 0.480521 0.108127
0.286439 0.481722 0.108862
0.311762 0.482923 0.109596
0.337084 0.484124 0.110331
0.362407 0.485325 0.111065
0.387729 0.486526 0.111799
0.413052 0.487727 0.112534
0.438374 0.488929 0.113268
0.463697 0.490130 0.114003
0.489019 0.491331 0.114737
0.514342 0.492532 0.115472
0.539665 0.493733 0.116206
0.564987 0.494934 0.116940
0.590310 0.496135 0.117675
0.615632 0.497337 0.118409
0.640955 0.498538 0.119144
0.666277 0.499739 0.119878
0.691600 0.500940 0.120613
0.716922 0.502141 0.121347
0.742245 0.503342 0.122081
0.767568 0.504543 0.122816
0.792890 0.505745 0.123550
0.818213 0.506946 0.124285
0.843535 0.508147 0.125019
0.864168 0.509125 0.125618
0.864168 0.509125 0.125618
0.117669 0.502800 0.108059
0.117669 0.502800 0.108059
0.138302 0.503779 0.108657
0.163624 0.504980 0.109392
0.188947 0.506181 0.110126
0.214270 0.507382 0.110861
0.239592 0.508583 0.111595
0.264915 0.509784 0.112330
0.290237 0.510985 0.113064
0.315560 0.512187 0.113798
0.340882 0.513388 0.114533
0.366205 0.514589 0.115267
0.391528 0.515790 0.116002
0.416850 0.516991 0.116736
0.442173 0.518192 0.117471
0.467495 0.519393 0.118205
0.492818 0.520595 0.118939
0.518140 0.521796 0.119674
0.543463 0.522997 0.120408
0.568785 0.524198 0.121143
0.594108 0.525399 0.121877
0.619430 0.526600 0.122612
0.644753 0.527801 0.123346
0.670076 0.529003 0.124080
0.695398 0.530204 0.124815
0.720721 0.531405 0.125549
0.746043 0.532606 0.126284
0.771366 0.533807 0.127018
0.796688 0.535008 0.127753
0.822011 0.536209 0.128487
0.847333 0.537410 0.129221
0.867967 0.538389 0.129820
0.867967 0.538389 0.129820
0.121467 0.532064 0.112261
0.121467 0.532064 0.112261
0.142100 0.533042 0.112860
0.167423 0.534243 0.113594
0.192745 0.535445 0.114329
0.218068 0.536646 0.115063
0.243390 0.537847 0.115798
0.268713 0.539048 0.116532
0.294036 0.540249 0.117266
0.319358 0.541450 0.118001
0.344681 0.542651 0.118735
0.370003 0.543853 0.119470
0.395326 0.545054 0.120204
0.420648 0.546255 0.120939
0.445971 0.547456 0.121673
0.471293 0.548657 0.122407
0.496616 0.549858 0.123142
0.521939 0.551059 0.123876
0.547261 0.552261 0.124611
0.572584 0.553462 0.125345
0.597906 0.554663 0.126080
0.623229 0.555864 0.126814
0.648551 0.557065 0.127548
0.673874 0.558266 0.128283
0.699196 0.559467 0.129017
0.724519 0.560669 0.129752
0.749842 0.561870 0.130486
0.775164 0.563071 0.131221
0.800487 0.564272 0.131955
0.825809 0.565473 0.132689
0.851132 0.566674 0.133424
0.871765 0.567653 0.134022
0.871765 0.567653 0.134022
0.125265 0.561327 0.116464
0.125265 0.561327 0.116464
0.145898 0.562306 0.117062
0.171221 0.563507 0.117797
0.196544 0.564708 0.118531
0.221866 0.565909 0.119265
0.247189 0.567111 0.120000
0.272511 0.568312 0.120734
0.297834 0.569513 0.121469
0.323156 0.570714 0.122203
0.348479 0.571915 0.122938
0.373801 0.573116 0.123672
0.399124 0.574317 0.124406
0.424447 0.575519 0.125141
0.449769 0.576720 0.125875
0.475092 0.577921 0.126610
0.500414 0.579122 0.127344
0.525737 0.580323 0.128079
0.551059 0.581524 0.128813
0.576382 0.582725 0.129547
0.601704 0.583927 0.130282
0.627027 0.585128 0.131016
0.652350 0.586329 0.131751
0.677672 0.587530 0.132485
0.702995 0.588731 0.133220
0.728317 0.589932 0.133954
0.753640 0.591133 0.134688
0.778962 0.592335 0.135423
0.804285 0.593536 0.136157
0.829607 0.594737 0.136892
0.854930 0.595938 0.137626
0.875563 0.596917 0.138225
0.875563 0.596917 0.138225
0.129064 0.590591 0.120666
0.129064 0.590591 0.120666
0.149697 0.591570 0.121264
0.175019 0.592771 0.121999
0.200342 0.593972 0.122733
0.225664 0.595173 0.123468
0.250987 0.596374 0.124202
0.276309 0.597575 0.124937
0.301632 0.598777 0.125671
0.326955 0.599978 0.126405
0.352277 0.601179 0.127140
0.377600 0.602380 0.127874
0.402922 0.603581 0.128609
0.428245 0.604782 0.129343
0.453567 0.605983 0.130078
0.478890 0.607185 0.130812
0.504212 0.608386 0.131546
0.529535 0.609587 0.132281
0.554858 0.610788 0.133015
0.580180 0.611989 0.133750
0.605503 0.613190 0.134484
0.630825 0.614391 0.135219
0.656148 0.615593 0.135953
0.681470 0.616794 0.136687
0.706793 0.617995 0.137422
0.732116 0.619196 0.138156
0.757438 0.620397 0.138891
0.782761 0.621598 0.139625
0.808083 0.622799 0.140360
0.833406 0.624000 0.141094
0.858728 0.625202 0.141828
0.879361 0.626180 0.142427
0.879361 0.626180 0.142427
0.132862 0.619855 0.124868
0.132862 0.619855 0.124868
0.153495 0.620834 0.125467
0.178818 0.622035 0.126201
0.204140 0.623236 0.126936
0.229463 0.624437 0.127670
0.254785 0.625638 0.128405
0.280108 0.626839 0.129139
0.305430 0.628040 0.129873
0.330753 0.629241 0.130608
0.356075 0.630443 0.131342
0.381398 0.631644 0.132077
0.406721 0.632845 0.132811
0.432043 0.634046 0.133546
0.457366 0.635247 0.134280
0.482688 0.636448 0.135014
0.508011 0.637649 0.135749
0.533333 0.638851 0.136483
0.558656 0.640052 0.137218
0.583978 0.641253 0.137952
0.609301 0.642454 0.138687
0.634624 0.643655 0.139421
0.659946 0.644856 0.140155
0.685269 0.646057 0.140890
0.710591 0.647259 0.141624
0.735914 0.648460 0.142359
0.761236 0.649661 0.143093
0.786559 0.650862 0.143828
0.811881 0.652063 0.144562
0.837204 0.653264 0.145296
0.862527 0.654465 0.146031
0.883160 0.655444 0.146629
0.883160 0.655444 0.146629
0.136660 0.649118 0.129071
0.136660 0.649118 0.129071
0.157293 0.650097 0.129669
0.182616 0.651298 0.130404
0.207938 0.652499 0.131138
0.233261 0.653701 0.131872
0.258583 0.654902 0.132607
0.283906 0.656103 0.133341
0.309229 0.657304 0.134076
0.334551 0.658505 0.134810
0.359874 0.659706 0.135545
0.385196 0.660907 0.136279
0.410519 0.662109 0.137013
0.435841 0.663310 0.137748
0.461164 0.664511 0.138482
0.486486 0.665712 0.139217
0.511809 0.666913 0.139951
0.537132 0.668114 0.140686
0.562454 0.669315 0.141420
0.587777 0.670516 0.142154
0.613099 0.671718 0.142889
0.638422 0.672919 0.143623
0.663744 0.674120 0.144358
0.689067 0.675321 0.145092
0.714389 0.676522 0.145827
0.739712 0.677723 0.146561
0.765035 0.678924 0.147295
0.790357 0.680126 0.148030
0.815680 0.681327 0.148764
0.841002 0.682528 0.149499
0.866325 0.683729 0.150233
0.886958 0.684708 0.150832
0.886958 0.684708 0.150832
0.140458 0.678382 0.133273
0.140458 0.678382 0.133273
0.161091 0.679361 0.133871
0.186414 0.680562 0.134606
0.211737 0.681763 0.135340
0.237059 0.682964 0.136075
0.262382 0.684165 0.136809
0.287704 0.685367 0.137544
0.313027 0.686568 0.138278
0.338349 0.687769 0.139012
0.363672 0.688970 0.139747
0.388995 0.690171 0.140481
0.414317 0.691372 0.141216
0.439640 0.692573 0.141950
0.464962 0.693775 0.142685
0.490285 0.694976 0.143419
0.515607 0.696177 0.144153
0.540930 0.697378 0.144888
0.566252 0.698579 0.145622
0.591575 0.699780 0.146357
0.616898 0.700981 0.147091
0.642220 0.702182 0.147826
0.667543 0.703384 0.148560
0.692865 0.704585 0.149294
0.718188 0.705786 0.150029
0.743510 0.706987 0.150763
0.768833 0.708188 0.151498
0.794155 0.709389 0.152232
0.819478 0.710590 0.152967
0.844801 0.711792 0.153701
0.870123 0.712993 0.154435
0.890756 0.713971 0.155034
0.890756 0.713971 0.155034
0.144257 0.707646 0.137475
0.144257 0.707646 0.137475
0.164890 0.708625 0.138074
0.190212 0.709826 0.138808
0.215535 0.711027 0.139543
0.240857 0.712228 0.140277
0.266180 0.713429 0.141012
0.291503 0.714630 0.141746
0.316825 0.715831 0.142480
0.342148 0.717032 0.143215
0.367470 0.718234 0.143949
0.392793 0.719435 0.144684
0.418115 0.720636 0.145418
0.443438 0.721837 0.146152
0.468760 0.723038 0.146887
0.494083 0.724239 0.147621
0.519406 0.725440 0.148356
0.544728 0.726642 0.149090
0.570051 0.727843 0.149825
0.595373 0.729044 0.150559
0.620696 0.730245 0.151294
0.646018 0.731446 0.152028
0.671341 0.732647 0.152762
0.696663 0.733848 0.153497
0.721986 0.735050 0.154231
0.747309 0.736251 0.154966
0.772631 0.737452 0.155700
0.797954 0.738653 0.156434
0.823276 0.739854 0.157169
0.848599 0.741055 0.157903
0.873921 0.742256 0.158638
0.894554 0.743235 0.159236
0.894554 0.743235 0.159236
0.148055 0.736910 0.141678
0.148055 0.736910 0.141678
0.168688 0.737888 0.142276
0.194011 0.739089 0.143011
0.219333 0.740291 0.143745
0.244656 0.741492 0.144479
0.269978 0.742693 0.145214
0.295301 0.743894 0.145948
0.320623 0.745095 0.146683
0.345946 0.746296 0.147417
0.371268 0.747497 0.148152
0.396591 0.748698 0.148886
0.421914 0.749900 0.149620
0.447236 0.751101 0.150355
0.472559 0.752302 0.151089
0.497881 0.753503 0.151824
0.523204 0.754704 0.152558
0.548526 0.755905 0.153293
0.573849 0.757106 0.154027
0.599171 0.758308 0.154761
0.624494 0.759509 0.155496
0.649817 0.760710 0.156230
0.675139 0.761911 0.156965
0.700462 0.763112 0.157699
0.725784 0.764313 0.158434
0.751107 0.765514 0.159168
0.776429 0.766716 0.159902
0.801752 0.767917 0.160637
0.827074 0.769118 0.161371
0.852397 0.770319 0.162106
0.877720 0.771520 0.162840
0.898353 0.772499 0.163439
0.898353 0.772499 0.163439
0.151853 0.766173 0.145880
0.151853 0.766173 0.145880
0.172486 0.767152 0.146478
0.197809 0.768353 0.147213
0.223131 0.769554 0.147947
0.248454 0.770755 0.148682
0.273777 0.771957 0.149416
0.299099 0.773158 0.150151
0.324422 0.774359 0.150885
0.349744 0.775560 0.151619
0.375067 0.776761 0.152354
0.400389 0.777962 0.153088
0.425712 0.779163 0.153823
0.451034 0.780364 0.154557
0.476357 0.781566 0.155292
0.501679 0.782767 0.156026
0.527002 0.783968 0.156760
0.552325 0.785169 0.157495
0.577647 0.786370 0.158229
0.602970 0.787571 0.158964
0.628292 0.788772 0.159698
0.653615 0.789974 0.160433
0.678937 0.791175 0.161167
0.704260 0.792376 0.161901
0.729582 0.793577 0.162636
0.754905 0.794778 0.163370
0.780228 0.795979 0.164105
0.805550 0.797180 0.164839
0.830873 0.798382 0.165574
