shared/luts/fuji_nostalgic_neg_approx.cube
TITLE "Fuji Nostalgic Neg approx"
LUT_3D_SIZE 33
0.105600 0.081400 0.064400
0.113025 0.081400 0.064400
0.144210 0.081400 0.064400
0.175395 0.081400 0.064400
0.206580 0.081400 0.064400
0.237765 0.081400 0.064400
0.268950 0.081400 0.064400
0.300135 0.081400 0.064400
0.331320 0.081400 0.064400
0.362505 0.081400 0.064400
0.393690 0.081400 0.064400
0.424875 0.081400 0.064400
0.456060 0.081400 0.064400
0.487245 0.081400 0.064400
0.518430 0.081400 0.064400
0.549615 0.081400 0.064400
0.580800 0.081400 0.064400
0.611985 0.081400 0.064400
0.643170 0.081400 0.064400
0.674355 0.081400 0.064400
0.705540 0.081400 0.064400
0.736725 0.081400 0.064400
0.767910 0.081400 0.064400
0.799095 0.081400 0.064400
0.830280 0.081400 0.064400
0.861465 0.081400 0.064400
0.892650 0.081400 0.064400
0.923835 0.081400 0.064400
0.955020 0.081400 0.064400
0.986205 0.081400 0.064400
1.000000 0.081400 0.064400
1.000000 0.081400 0.064400
1.000000 0.081400 0.064400
0.105600 0.088413 0.064400
0.113025 0.088413 0.064400
0.144210 0.088413 0.064400
0.175395 0.088413 0.064400
0.206580 0.088413 0.064400
0.237765 0.088413 0.064400
0.268950 0.088413 0.064400
0.300135 0.088413 0.064400
0.331320 0.088413 0.064400
0.362505 0.088413 0.064400
0.393690 0.088413 0.064400
0.424875 0.088413 0.064400
0.456060 0.088413 0.064400
0.487245 0.088413 0.064400
0.518430 0.088413 0.064400
0.549615 0.088413 0.064400
0.580800 0.088413 0.064400
0.611985 0.088413 0.064400
0.643170 0.088413 0.064400
0.674355 0.088413 0.064400
0.705540 0.088413 0.064400
0.736725 0.088413 0.064400
0.767910 0.088413 0.064400
0.799095 0.088413 0.064400
0.830280 0.088413 0.064400
0.861465 0.088413 0.064400
0.892650 0.088413 0.064400
0.923835 0.088413 0.064400
0.955020 0.088413 0.064400
0.986205 0.088413 0.064400
1.000000 0.088413 0.064400
1.000000 0.088413 0.064400
1.000000 0.088413 0.064400
0.105600 0.117865 0.064400
0.113025 0.117865 0.064400
0.144210 0.117865 0.064400
0.175395 0.117865 0.064400
0.206580 0.117865 0.064400
0.237765 0.117865 0.064400
0.268950 0.117865 0.064400
0.300135 0.117865 0.064400
0.331320 0.117865 0.064400
0.362505 0.117865 0.064400
0.393690 0.117865 0.064400
0.424875 0.117865 0.064400
0.456060 0.117865 0.064400
0.487245 0.117865 0.064400
0.518430 0.117865 0.064400
0.549615 0.117865 0.064400
0.580800 0.117865 0.064400
0.611985 0.117865 0.064400
0.643170 0.117865 0.064400
0.674355 0.117865 0.064400
0.705540 0.117865 0.064400
0.736725 0.117865 0.064400
0.767910 0.117865 0.064400
0.799095 0.117865 0.064400
0.830280 0.117865 0.064400
0.861465 0.117865 0.064400
0.892650 0.117865 0.064400
0.923835 0.117865 0.064400
0.955020 0.117865 0.064400
0.986205 0.117865 0.064400
1.000000 0.117865 0.064400
1.000000 0.117865 0.064400
1.000000 0.117865 0.064400
0.105600 0.147318 0.064400
0.113025 0.147318 0.064400
0.144210 0.147318 0.064400
0.175395 0.147318 0.064400
0.206580 0.147318 0.064400
0.237765 0.147318 0.064400
0.268950 0.147318 0.064400
0.300135 0.147318 0.064400
0.331320 0.147318 0.064400
0.362505 0.147318 0.064400
0.393690 0.147318 0.064400
0.424875 0.147318 0.064400
0.456060 0.147318 0.064400
0.487245 0.147318 0.064400
0.518430 0.147318 0.064400
0.549615 0.147318 0.064400
0.580800 0.147318 0.064400
0.611985 0.147318 0.064400
0.643170 0.147318 0.064400
0.674355 0.147318 0.064400
0.705540 0.147318 0.064400
0.736725 0.147318 0.064400
0.767910 0.147318 0.064400
0.799095 0.147318 0.064400
0.830280 0.147318 0.064400
0.861465 0.147318 0.064400
0.892650 0.147318 0.064400
0.923835 0.147318 0.064400
0.955020 0.147318 0.064400
0.986205 0.147318 0.064400
1.000000 0.147318 0.064400
1.000000 0.147318 0.064400
1.000000 0.147318 0.064400
0.105600 0.176770 0.064400
0.113025 0.176770 0.064400
0.144210 0.176770 0.064400
0.175395 0.176770 0.064400
0.206580 0.176770 0.064400
0.237765 0.176770 0.064400
0.268950 0.176770 0.064400
0.300135 0.176770 0.064400
0.331320 0.176770 0.064400
0.362505 0.176770 0.064400
0.393690 0.176770 0.064400
0.424875 0.176770 0.064400
0.456060 0.176770 0.064400
0.487245 0.176770 0.064400
0.518430 0.176770 0.064400
0.549615 0.176770 0.064400
0.580800 0.176770 0.064400
0.611985 0.176770 0.064400
0.643170 0.176770 0.064400
0.674355 0.176770 0.064400
0.705540 0.176770 0.064400
0.736725 0.176770 0.064400
0.767910 0.176770 0.064400
0.799095 0.176770 0.064400
0.830280 0.176770 0.064400
0.861465 0.176770 0.064400
0.892650 0.176770 0.064400
0.923835 0.176770 0.064400
0.955020 0.176770 0.064400
0.986205 0.176770 0.064400
1.000000 0.176770 0.064400
1.000000 0.176770 0.064400
1.000000 0.176770 0.064400
0.105600 0.206223 0.064400
0.113025 0.206223 0.064400
0.144210 0.206223 0.064400
0.175395 0.206223 0.064400
0.206580 0.206223 0.064400
0.237765 0.206223 0.064400
0.268950 0.206223 0.064400
0.300135 0.206223 0.064400
0.331320 0.206223 0.064400
0.362505 0.206223 0.064400
0.393690 0.206223 0.064400
0.424875 0.206223 0.064400
0.456060 0.206223 0.064400
0.487245 0.206223 0.064400
0.518430 0.206223 0.064400
0.549615 0.206223 0.064400
0.580800 0.206223 0.064400
0.611985 0.206223 0.064400
0.643170 0.206223 0.064400
0.674355 0.206223 0.064400
0.705540 0.206223 0.064400
0.736725 0.206223 0.064400
0.767910 0.206223 0.064400
0.799095 0.206223 0.064400
0.830280 0.206223 0.064400
0.861465 0.206223 0.064400
0.892650 0.206223 0.064400
0.923835 0.206223 0.064400
0.955020 0.206223 0.064400
0.986205 0.206223 0.064400
1.000000 0.206223 0.064400
1.000000 0.206223 0.064400
1.000000 0.206223 0.064400
0.105600 0.235675 0.064400
0.113025 0.235675 0.064400
0.144210 0.235675 0.064400
0.175395 0.235675 0.064400
0.206580 0.235675 0.064400
0.237765 0.235675 0.064400
0.268950 0.235675 0.064400
0.300135 0.235675 0.064400
0.331320 0.235675 0.064400
0.362505 0.235675 0.064400
0.393690 0.235675 0.064400
0.424875 0.235675 0.064400
0.456060 0.235675 0.064400
0.487245 0.235675 0.064400
0.518430 0.235675 0.064400
0.549615 0.235675 0.064400
0.580800 0.235675 0.064400
0.611985 0.235675 0.064400
0.643170 0.235675 0.064400
0.674355 0.235675 0.064400
0.705540 0.235675 0.064400
0.736725 0.235675 0.064400
0.767910 0.235675 0.064400
0.799095 0.235675 0.064400
0.830280 0.235675 0.064400
0.861465 0.235675 0.064400
0.892650 0.235675 0.064400
0.923835 0.235675 0.064400
0.955020 0.235675 0.064400
0.986205 0.235675 0.064400
1.000000 0.235675 0.064400
1.000000 0.235675 0.064400
1.000000 0.235675 0.064400
0.105600 0.265127 0.064400
0.113025 0.265127 0.064400
0.144210 0.265127 0.064400
0.175395 0.265127 0.064400
0.206580 0.265127 0.064400
0.237765 0.265127 0.064400
0.268950 0.265127 0.064400
0.300135 0.265127 0.064400
0.331320 0.265127 0.064400
0.362505 0.265127 0.064400
0.393690 0.265127 0.064400
0.424875 0.265127 0.064400
0.456060 0.265127 0.064400
0.487245 0.265127 0.064400
0.518430 0.265127 0.064400
0.549615 0.265127 0.064400
0.580800 0.265127 0.064400
0.611985 0.265127 0.064400
0.643170 0.265127 0.064400
0.674355 0.265127 0.064400
0.705540 0.265127 0.064400
0.736725 0.265127 0.064400
0.767910 0.265127 0.064400
0.799095 0.265127 0.064400
0.830280 0.265127 0.064400
0.861465 0.265127 0.064400
0.892650 0.265127 0.064400
0.923835 0.265127 0.064400
0.955020 0.265127 0.064400
0.986205 0.265127 0.064400
1.000000 0.265127 0.064400
1.000000 0.265127 0.064400
1.000000 0.265127 0.064400
0.105600 0.294580 0.064400
0.113025 0.294580 0.064400
0.144210 0.294580 0.064400
0.175395 0.294580 0.064400
0.206580 0.294580 0.064400
0.237765 0.294580 0.064400
0.268950 0.294580 0.064400
0.300135 0.294580 0.064400
0.331320 0.294580 0.064400
0.362505 0.294580 0.064400
0.393690 0.294580 0.064400
0.424875 0.294580 0.064400
0.456060 0.294580 0.064400
0.487245 0.294580 0.064400
0.518430 0.294580 0.064400
0.549615 0.294580 0.064400
0.580800 0.294580 0.064400
0.611985 0.294580 0.064400
0.643170 0.294580 0.064400
0.674355 0.294580 0.064400
0.705540 0.294580 0.064400
0.736725 0.294580 0.064400
0.767910 0.294580 0.064400
0.799095 0.294580 0.064400
0.830280 0.294580 0.064400
0.861465 0.294580 0.064400
0.892650 0.294580 0.064400
0.923835 0.294580 0.064400
0.955020 0.294580 0.064400
0.986205 0.294580 0.064400
1.000000 0.294580 0.064400
1.000000 0.294580 0.064400
1.000000 0.294580 0.064400
0.105600 0.324032 0.064400
0.113025 0.324032 0.064400
0.144210 0.324032 0.064400
0.175395 0.324032 0.064400
0.206580 0.324032 0.064400
0.237765 0.324032 0.064400
0.268950 0.324032 0.064400
0.300135 0.324032 0.064400
0.331320 0.324032 0.064400
0.362505 0.324032 0.064400
0.393690 0.324032 0.064400
0.424875 0.324032 0.064400
0.456060 0.324032 0.064400
0.487245 0.324032 0.064400
0.518430 0.324032 0.064400
0.549615 0.324032 0.064400
0.580800 0.324032 0.064400
0.611985 0.324032 0.064400
0.643170 0.324032 0.064400
0.674355 0.324032 0.064400
0.705540 0.324032 0.064400
0.736725 0.324032 0.064400
0.767910 0.324032 0.064400
0.799095 0.324032 0.064400
0.830280 0.324032 0.064400
0.861465 0.324032 0.064400
0.892650 0.324032 0.064400
0.923835 0.324032 0.064400
0.955020 0.324032 0.064400
0.986205 0.324032 0.064400
1.000000 0.324032 0.064400
1.000000 0.324032 0.064400
1.000000 0.324032 0.064400
0.105600 0.353485 0.064400
0.113025 0.353485 0.064400
0.144210 0.353485 0.064400
0.175395 0.353485 0.064400
0.206580 0.353485 0.064400
0.237765 0.353485 0.064400
0.268950 0.353485 0.064400
0.300135 0.353485 0.064400
0.331320 0.353485 0.064400
0.362505 0.353485 0.064400
0.393690 0.353485 0.064400
0.424875 0.353485 0.064400
0.456060 0.353485 0.064400
0.487245 0.353485 0.064400
0.518430 0.353485 0.064400
0.549615 0.353485 0.064400
0.580800 0.353485 0.064400
0.611985 0.353485 0.064400
0.643170 0.353485 0.064400
0.674355 0.353485 0.064400
0.705540 0.353485 0.064400
0.736725 0.353485 0.064400
0.767910 0.353485 0.064400
0.799095 0.353485 0.064400
0.830280 0.353485 0.064400
0.861465 0.353485 0.064400
0.892650 0.353485 0.064400
0.923835 0.353485 0.064400
0.955020 0.353485 0.064400
0.986205 0.353485 0.064400
1.000000 0.353485 0.064400
1.000000 0.353485 0.064400
1.000000 0.353485 0.064400
0.105600 0.382937 0.064400
0.113025 0.382937 0.064400
0.144210 0.382937 0.064400
0.175395 0.382937 0.064400
0.206580 0.382937 0.064400
0.237765 0.382937 0.064400
0.268950 0.382937 0.064400
0.300135 0.382937 0.064400
0.331320 0.382937 0.064400
0.362505 0.382937 0.064400
0.393690 0.382937 0.064400
0.424875 0.382937 0.064400
0.456060 0.382937 0.064400
0.487245 0.382937 0.064400
0.518430 0.382937 0.064400
0.549615 0.382937 0.064400
0.580800 0.382937 0.064400
0.611985 0.382937 0.064400
0.643170 0.382937 0.064400
0.674355 0.382937 0.064400
0.705540 0.382937 0.064400
0.736725 0.382937 0.064400
0.767910 0.382937 0.064400
0.799095 0.382937 0.064400
0.830280 0.382937 0.064400
0.861465 0.382937 0.064400
0.892650 0.382937 0.064400
0.923835 0.382937 0.064400
0.955020 0.382937 0.064400
0.986205 0.382937 0.064400
1.000000 0.382937 0.064400
1.000000 0.382937 0.064400
1.000000 0.382937 0.064400
0.105600 0.412390 0.064400
0.113025 0.412390 0.064400
0.144210 0.412390 0.064400
0.175395 0.412390 0.064400
0.206580 0.412390 0.064400
0.237765 0.412390 0.064400
0.268950 0.412390 0.064400
0.300135 0.412390 0.064400
0.331320 0.412390 0.064400
0.362505 0.412390 0.064400
0.393690 0.412390 0.064400
0.424875 0.412390 0.064400
0.456060 0.412390 0.064400
0.487245 0.412390 0.064400
0.518430 0.412390 0.064400
0.549615 0.412390 0.064400
0.580800 0.412390 0.064400
0.611985 0.412390 0.064400
0.643170 0.412390 0.064400
0.674355 0.412390 0.064400
0.705540 0.412390 0.064400
0.736725 0.412390 0.064400
0.767910 0.412390 0.064400
0.799095 0.412390 0.064400
0.830280 0.412390 0.064400
0.861465 0.412390 0.064400
0.892650 0.412390 0.064400
0.923835 0.412390 0.064400
0.955020 0.412390 0.064400
0.986205 0.412390 0.064400
1.000000 0.412390 0.064400
1.000000 0.412390 0.064400
1.000000 0.412390 0.064400
0.105600 0.441842 0.064400
0.113025 0.441842 0.064400
0.144210 0.441842 0.064400
0.175395 0.441842 0.064400
0.206580 0.441842 0.064400
0.237765 0.441842 0.064400
0.268950 0.441842 0.064400
0.300135 0.441842 0.064400
0.331320 0.441842 0.064400
0.362505 0.441842 0.064400
0.393690 0.441842 0.064400
0.424875 0.441842 0.064400
0.456060 0.441842 0.064400
0.487245 0.441842 0.064400
0.518430 0.441842 0.064400
0.549615 0.441842 0.064400
0.580800 0.441842 0.064400
0.611985 0.441842 0.064400
0.643170 0.441842 0.064400
0.674355 0.441842 0.064400
0.705540 0.441842 0.064400
0.736725 0.441842 0.064400
0.767910 0.441842 0.064400
0.799095 0.441842 0.064400
0.830280 0.441842 0.064400
0.861465 0.441842 0.064400
0.892650 0.441842 0.064400
0.923835 0.441842 0.064400
0.955020 0.441842 0.064400
0.986205 0.441842 0.064400
1.000000 0.441842 0.064400
1.000000 0.441842 0.064400
1.000000 0.441842 0.064400
0.105600 0.471295 0.064400
0.113025 0.471295 0.064400
0.144210 0.471295 0.064400
0.175395 0.471295 0.064400
0.206580 0.471295 0.064400
0.237765 0.471295 0.064400
0.268950 0.471295 0.064400
0.300135 0.471295 0.064400
0.331320 0.471295 0.064400
0.362505 0.471295 0.064400
0.393690 0.471295 0.064400
0.424875 0.471295 0.064400
0.456060 0.471295 0.064400
0.487245 0.471295 0.064400
0.518430 0.471295 0.064400
0.549615 0.471295 0.064400
0.580800 0.471295 0.064400
0.611985 0.471295 0.064400
0.643170 0.471295 0.064400
0.674355 0.471295 0.064400
0.705540 0.471295 0.064400
0.736725 0.471295 0.064400
0.767910 0.471295 0.064400
0.799095 0.471295 0.064400
0.830280 0.471295 0.064400
0.861465 0.471295 0.064400
0.892650 0.471295 0.064400
0.923835 0.471295 0.064400
0.955020 0.471295 0.064400
0.986205 0.471295 0.064400
1.000000 0.471295 0.064400
1.000000 0.471295 0.064400
1.000000 0.471295 0.064400
0.105600 0.500748 0.064400
0.113025 0.500748 0.064400
0.144210 0.500748 0.064400
0.175395 0.500748 0.064400
0.206580 0.500748 0.064400
0.237765 0.500748 0.064400
0.268950 0.500748 0.064400
0.300135 0.500748 0.064400
0.331320 0.500748 0.064400
0.362505 0.500748 0.064400
0.393690 0.500748 0.064400
0.424875 0.500748 0.064400
0.456060 0.500748 0.064400
0.487245 0.500748 0.064400
0.518430 0.500748 0.064400
0.549615 0.500748 0.064400
0.580800 0.500748 0.064400
0.611985 0.500748 0.064400
0.643170 0.500748 0.064400
0.674355 0.500748 0.064400
0.705540 0.500748 0.064400
0.736725 0.500748 0.064400
0.767910 0.500748 0.064400
0.799095 0.500748 0.064400
0.830280 0.500748 0.064400
0.861465 0.500748 0.064400
0.892650 0.500748 0.064400
0.923835 0.500748 0.064400
0.955020 0.500748 0.064400
0.986205 0.500748 0.064400
1.000000 0.500748 0.064400
1.000000 0.500748 0.064400
1.000000 0.500748 0.064400
0.105600 0.530200 0.064400
0.113025 0.530200 0.064400
0.144210 0.530200 0.064400
0.175395 0.530200 0.064400
0.206580 0.530200 0.064400
0.237765 0.530200 0.064400
0.268950 0.530200 0.064400
0.300135 0.530200 0.064400
0.331320 0.530200 0.064400
0.362505 0.530200 0.064400
0.393690 0.530200 0.064400
0.424875 0.530200 0.064400
0.456060 0.530200 0.064400
0.487245 0.530200 0.064400
0.518430 0.530200 0.064400
0.549615 0.530200 0.064400
0.580800 0.530200 0.064400
0.611985 0.530200 0.064400
0.643170 0.530200 0.064400
0.674355 0.530200 0.064400
0.705540 0.530200 0.064400
0.736725 0.530200 0.064400
0.767910 0.530200 0.064400
0.799095 0.530200 0.064400
0.830280 0.530200 0.064400
0.861465 0.530200 0.064400
0.892650 0.530200 0.064400
0.923835 0.530200 0.064400
0.955020 0.530200 0.064400
0.986205 0.530200 0.064400
1.000000 0.530200 0.064400
1.000000 0.530200 0.064400
1.000000 0.530200 0.064400
0.105600 0.559652 0.064400
0.113025 0.559652 0.064400
0.144210 0.559652 0.064400
0.175395 0.559652 0.064400
0.206580 0.559652 0.064400
0.237765 0.559652 0.064400
0.268950 0.559652 0.064400
0.300135 0.559652 0.064400
0.331320 0.559652 0.064400
0.362505 0.559652 0.064400
0.393690 0.559652 0.064400
0.424875 0.559652 0.064400
0.456060 0.559652 0.064400
0.487245 0.559652 0.064400
0.518430 0.559652 0.064400
0.549615 0.559652 0.064400
0.580800 0.559652 0.064400
0.611985 0.559652 0.064400
0.643170 0.559652 0.064400
0.674355 0.559652 0.064400
0.705540 0.559652 0.064400
0.736725 0.559652 0.064400
0.767910 0.559652 0.064400
0.799095 0.559652 0.064400
0.830280 0.559652 0.064400
0.861465 0.559652 0.064400
0.892650 0.559652 0.064400
0.923835 0.559652 0.064400
0.955020 0.559652 0.064400
0.986205 0.559652 0.064400
1.000000 0.559652 0.064400
1.000000 0.559652 0.064400
1.000000 0.559652 0.064400
0.105600 0.589105 0.064400
0.113025 0.589105 0.064400
0.144210 0.589105 0.064400
0.175395 0.589105 0.064400
0.206580 0.589105 0.064400
0.237765 0.589105 0.064400
0.268950 0.589105 0.064400
0.300135 0.589105 0.064400
0.331320 0.589105 0.064400
0.362505 0.589105 0.064400
0.393690 0.589105 0.064400
0.424875 0.589105 0.064400
0.456060 0.589105 0.064400
0.487245 0.589105 0.064400
0.518430 0.589105 0.064400
0.549615 0.589105 0.064400
0.580800 0.589105 0.064400
0.611985 0.589105 0.064400
0.643170 0.589105 0.064400
0.674355 0.589105 0.064400
0.705540 0.589105 0.064400
0.736725 0.589105 0.064400
0.767910 0.589105 0.064400
0.799095 0.589105 0.064400
0.830280 0.589105 0.064400
0.861465 0.589105 0.064400
0.892650 0.589105 0.064400
0.923835 0.589105 0.064400
0.955020 0.589105 0.064400
0.986205 0.589105 0.064400
1.000000 0.589105 0.064400
1.000000 0.589105 0.064400
1.000000 0.589105 0.064400
0.105600 0.618557 0.064400
0.113025 0.618557 0.064400
0.144210 0.618557 0.064400
0.175395 0.618557 0.064400
0.206580 0.618557 0.064400
0.237765 0.618557 0.064400
0.268950 0.618557 0.064400
0.300135 0.618557 0.064400
0.331320 0.618557 0.064400
0.362505 0.618557 0.064400
0.393690 0.618557 0.064400
0.424875 0.618557 0.064400
0.456060 0.618557 0.064400
0.487245 0.618557 0.064400
0.518430 0.618557 0.064400
0.549615 0.618557 0.064400
0.580800 0.618557 0.064400
0.611985 0.618557 0.064400
0.643170 0.618557 0.064400
0.674355 0.618557 0.064400
0.705540 0.618557 0.064400
0.736725 0.618557 0.064400
0.767910 0.618557 0.064400
0.799095 0.618557 0.064400
0.830280 0.618557 0.064400
0.861465 0.618557 0.064400
0.892650 0.618557 0.064400
0.923835 0.618557 0.064400
0.955020 0.618557 0.064400
0.986205 0.618557 0.064400
1.000000 0.618557 0.064400
1.000000 0.618557 0.064400
1.000000 0.618557 0.064400
0.105600 0.648010 0.064400
0.113025 0.648010 0.064400
0.144210 0.648010 0.064400
0.175395 0.648010 0.064400
0.206580 0.648010 0.064400
0.237765 0.648010 0.064400
0.268950 0.648010 0.064400
0.300135 0.648010 0.064400
0.331320 0.648010 0.064400
0.362505 0.648010 0.064400
0.393690 0.648010 0.064400
0.424875 0.648010 0.064400
0.456060 0.648010 0.064400
0.487245 0.648010 0.064400
0.518430 0.648010 0.064400
0.549615 0.648010 0.064400
0.580800 0.648010 0.064400
0.611985 0.648010 0.064400
0.643170 0.648010 0.064400
0.674355 0.648010 0.064400
0.705540 0.648010 0.064400
0.736725 0.648010 0.064400
0.767910 0.648010 0.064400
0.799095 0.648010 0.064400
0.830280 0.648010 0.064400
0.861465 0.648010 0.064400
0.892650 0.648010 0.064400
0.923835 0.648010 0.064400
0.955020 0.648010 0.064400
0.986205 0.648010 0.064400
1.000000 0.648010 0.064400
1.000000 0.648010 0.064400
1.000000 0.648010 0.064400
0.105600 0.677463 0.064400
0.113025 0.677463 0.064400
0.144210 0.677463 0.064400
0.175395 0.677463 0.064400
0.206580 0.677463 0.064400
0.237765 0.677463 0.064400
0.268950 0.677463 0.064400
0.300135 0.677463 0.064400
0.331320 0.677463 0.064400
0.362505 0.677463 0.064400
0.393690 0.677463 0.064400
0.424875 0.677463 0.064400
0.456060 0.677463 0.064400
0.487245 0.677463 0.064400
0.518430 0.677463 0.064400
0.549615 0.677463 0.064400
0.580800 0.677463 0.064400
0.611985 0.677463 0.064400
0.643170 0.677463 0.064400
0.674355 0.677463 0.064400
0.705540 0.677463 0.064400
0.736725 0.677463 0.064400
0.767910 0.677463 0.064400
0.799095 0.677463 0.064400
0.830280 0.677463 0.064400
0.861465 0.677463 0.064400
0.892650 0.677463 0.064400
0.923835 0.677463 0.064400
0.955020 0.677463 0.064400
0.986205 0.677463 0.064400
1.000000 0.677463 0.064400
1.000000 0.677463 0.064400
1.000000 0.677463 0.064400
0.105600 0.706915 0.064400
0.113025 0.706915 0.064400
0.144210 0.706915 0.064400
0.175395 0.706915 0.064400
0.206580 0.706915 0.064400
0.237765 0.706915 0.064400
0.268950 0.706915 0.064400
0.300135 0.706915 0.064400
0.331320 0.706915 0.064400
0.362505 0.706915 0.064400
0.393690 0.706915 0.064400
0.424875 0.706915 0.064400
0.456060 0.706915 0.064400
0.487245 0.706915 0.064400
0.518430 0.706915 0.064400
0.549615 0.706915 0.064400
0.580800 0.706915 0.064400
0.611985 0.706915 0.064400
0.643170 0.706915 0.064400
0.674355 0.706915 0.064400
0.705540 0.706915 0.064400
0.736725 0.706915 0.064400
0.767910 0.706915 0.064400
0.799095 0.706915 0.064400
0.830280 0.706915 0.064400
0.861465 0.706915 0.064400
0.892650 0.706915 0.064400
0.923835 0.706915 0.064400
0.955020 0.706915 0.064400
0.986205 0.706915 0.064400
1.000000 0.706915 0.064400
1.000000 0.706915 0.064400
1.000000 0.706915 0.064400
0.105600 0.736367 0.064400
0.113025 0.736367 0.064400
0.144210 0.736367 0.064400
0.175395 0.736367 0.064400
0.206580 0.736367 0.064400
0.237765 0.736367 0.064400
0.268950 0.736367 0.064400
0.300135 0.736367 0.064400
0.331320 0.736367 0.064400
0.362505 0.736367 0.064400
0.393690 0.736367 0.064400
0.424875 0.736367 0.064400
0.456060 0.736367 0.064400
0.487245 0.736367 0.064400
0.518430 0.736367 0.064400
0.549615 0.736367 0.064400
0.580800 0.736367 0.064400
0.611985 0.736367 0.064400
0.643170 0.736367 0.064400
0.674355 0.736367 0.064400
0.705540 0.736367 0.064400
0.736725 0.736367 0.064400
0.767910 0.736367 0.064400
0.799095 0.736367 0.064400
0.830280 0.736367 0.064400
0.861465 0.736367 0.064400
0.892650 0.736367 0.064400
0.923835 0.736367 0.064400
0.955020 0.736367 0.064400
0.986205 0.736367 0.064400
1.000000 0.736367 0.064400
1.000000 0.736367 0.064400
1.000000 0.736367 0.064400
0.105600 0.765820 0.064400
0.113025 0.765820 0.064400
0.144210 0.765820 0.064400
0.175395 0.765820 0.064400
0.206580 0.765820 0.064400
0.237765 0.765820 0.064400
0.268950 0.765820 0.064400
0.300135 0.765820 0.064400
0.331320 0.765820 0.064400
0.362505 0.765820 0.064400
0.393690 0.765820 0.064400
0.424875 0.765820 0.064400
0.456060 0.765820 0.064400
0.487245 0.765820 0.064400
0.518430 0.765820 0.064400
0.549615 0.765820 0.064400
0.580800 0.765820 0.064400
0.611985 0.765820 0.064400
0.643170 0.765820 0.064400
0.674355 0.765820 0.064400
0.705540 0.765820 0.064400
0.736725 0.765820 0.064400
0.767910 0.765820 0.064400
0.799095 0.765820 0.064400
0.830280 0.765820 0.064400
0.861465 0.765820 0.064400
0.892650 0.765820 0.064400
0.923835 0.765820 0.064400
0.955020 0.765820 0.064400
0.986205 0.765820 0.064400
1.000000 0.765820 0.064400
1.000000 0.765820 0.064400
1.000000 0.765820 0.064400
0.105600 0.795272 0.064400
0.113025 0.795272 0.064400
0.144210 0.795272 0.064400
0.175395 0.795272 0.064400
0.206580 0.795272 0.064400
0.237765 0.795272 0.064400
0.268950 0.795272 0.064400
0.300135 0.795272 0.064400
0.331320 0.795272 0.064400
0.362505 0.795272 0.064400
0.393690 0.795272 0.064400
0.424875 0.795272 0.064400
0.456060 0.795272 0.064400
0.487245 0.795272 0.064400
0.518430 0.795272 0.064400
0.549615 0.795272 0.064400
0.580800 0.795272 0.064400
0.611985 0.795272 0.064400
0.643170 0.795272 0.064400
0.674355 0.795272 0.064400
0.705540 0.795272 0.064400
0.736725 0.795272 0.064400
0.767910 0.795272 0.064400
0.799095 0.795272 0.064400
0.830280 0.795272 0.064400
0.861465 0.795272 0.064400
0.892650 0.795272 0.064400
0.923835 0.795272 0.064400
0.955020 0.795272 0.064400
0.986205 0.795272 0.064400
1.000000 0.795272 0.064400
1.000000 0.795272 0.064400
1.000000 0.795272 0.064400
0.105600 0.824725 0.064400
0.113025 0.824725 0.064400
0.144210 0.824725 0.064400
0.175395 0.824725 0.064400
0.206580 0.824725 0.064400
0.237765 0.824725 0.064400
0.268950 0.824725 0.064400
0.300135 0.824725 0.064400
0.331320 0.824725 0.064400
0.362505 0.824725 0.064400
0.393690 0.824725 0.064400
0.424875 0.824725 0.064400
0.456060 0.824725 0.064400
0.487245 0.824725 0.064400
0.518430 0.824725 0.064400
0.549615 0.824725 0.064400
0.580800 0.824725 0.064400
0.611985 0.824725 0.064400
0.643170 0.824725 0.064400
0.674355 0.824725 0.064400
0.705540 0.824725 0.064400
0.736725 0.824725 0.064400
0.767910 0.824725 0.064400
0.799095 0.824725 0.064400
0.830280 0.824725 0.064400
0.861465 0.824725 0.064400
0.892650 0.824725 0.064400
0.923835 0.824725 0.064400
0.955020 0.824725 0.064400
