shared/luts/nikon_landscape_approx.cube
TITLE "Nikon Landscape approx"
LUT_3D_SIZE 9
0.000000 0.000000 0.000000
0.075526 0.000000 0.000000
0.223972 0.000000 0.000000
0.372419 0.000000 0.000000
0.520866 0.000000 0.000000
0.669313 0.000000 0.000000
0.817760 0.000000 0.000000
0.966207 0.000000 0.000000
1.000000 0.000000 0.000000
0.000000 0.078601 0.000000
0.071460 0.077294 0.000000
0.219907 0.074725 0.000000
0.368354 0.072156 0.000000
0.516801 0.069587 0.000000
0.665248 0.067018 0.000000
0.813695 0.064449 0.000000
0.962141 0.061880 0.000000
1.000000 0.060572 0.000000
0.000000 0.233092 0.000000
0.063470 0.231785 0.000000
0.211917 0.229216 0.000000
0.360364 0.226647 0.000000
0.508811 0.224078 0.000000
0.657257 0.221509 0.000000
0.805704 0.218940 0.000000
0.954151 0.216371 0.000000
1.000000 0.215064 0.000000
0.000000 0.387584 0.000000
0.055480 0.386277 0.000000
0.203927 0.383708 0.000000
0.352374 0.381139 0.000000
0.500820 0.378570 0.000000
0.649267 0.376001 0.000000
0.797714 0.373432 0.000000
0.946161 0.370863 0.000000
1.000000 0.369556 0.000000
0.000000 0.542076 0.000000
0.047490 0.540768 0.000000
0.195937 0.538199 0.000000
0.344383 0.535630 0.000000
0.492830 0.533061 0.000000
0.641277 0.530492 0.000000
0.789724 0.527923 0.000000
0.938171 0.525354 0.000000
1.000000 0.524047 0.000000
0.000000 0.696567 0.000000
0.039500 0.695260 0.000000
0.187946 0.692691 0.000000
0.336393 0.690122 0.000000
0.484840 0.687553 0.000000
0.633287 0.684984 0.000000
0.781734 0.682415 0.000000
0.930181 0.679846 0.000000
1.000000 0.678539 0.000000
0.000000 0.851058 0.000000
0.031509 0.849751 0.000000
0.179956 0.847182 0.000000
0.328403 0.844613 0.000000
0.476850 0.842044 0.000000
0.625297 0.839475 0.000000
0.773744 0.836906 0.000000
0.922190 0.834337 0.000000
0.997716 0.833030 0.000000
0.000000 1.000000 0.000000
0.023519 1.000000 0.000000
0.171966 1.000000 0.000000
0.320413 0.999105 0.000000
0.468860 0.996536 0.000000
0.617306 0.993967 0.000000
0.765753 0.991398 0.000000
0.914200 0.988829 0.000000
0.989726 0.987522 0.000000
0.000000 1.000000 0.000000
0.019454 1.000000 0.000000
0.167901 1.000000 0.000000
0.316348 1.000000 0.000000
0.464794 1.000000 0.000000
0.613241 1.000000 0.000000
0.761688 1.000000 0.000000
0.910135 1.000000 0.000000
0.985661 1.000000 0.000000
0.000000 0.000000 0.084112
0.075115 0.000000 0.082780
0.223562 0.000000 0.080162
0.372009 0.000000 0.077545
0.520456 0.000000 0.074927
0.668903 0.000000 0.072310
0.817349 0.000000 0.069692
0.965796 0.000000 0.067075
1.000000 0.000000 0.065743
0.000000 0.078157 0.079632
0.071050 0.076850 0.078300
0.219497 0.074281 0.075682
0.367944 0.071712 0.073065
0.516391 0.069143 0.070447
0.664837 0.066574 0.067830
0.813284 0.064005 0.065212
0.961731 0.061436 0.062595
1.000000 0.060129 0.061263
0.000000 0.232649 0.070826
0.063060 0.231342 0.069494
0.211507 0.228772 0.066877
0.359953 0.226203 0.064259
0.508400 0.223634 0.061642
0.656847 0.221065 0.059024
0.805294 0.218496 0.056407
0.953741 0.215927 0.053789
1.000000 0.214620 0.052458
0.000000 0.387140 0.062021
0.055070 0.385833 0.060689
0.203516 0.383264 0.058071
0.351963 0.380695 0.055454
0.500410 0.378126 0.052836
0.648857 0.375557 0.050219
0.797304 0.372988 0.047601
0.945751 0.370419 0.044984
1.000000 0.369112 0.043652
0.000000 0.541632 0.053215
0.047079 0.540325 0.051883
0.195526 0.537755 0.049266
0.343973 0.535186 0.046648
0.492420 0.532617 0.044031
0.640867 0.530048 0.041413
0.789313 0.527479 0.038796
0.937760 0.524910 0.036178
1.000000 0.523603 0.034846
0.000000 0.696123 0.044410
0.039089 0.694816 0.043078
0.187536 0.692247 0.040460
0.335983 0.689678 0.037843
0.484430 0.687109 0.035225
0.632876 0.684540 0.032608
0.781323 0.681971 0.029990
0.929770 0.679402 0.027373
1.000000 0.678095 0.026041
0.000000 0.850615 0.035604
0.031099 0.849308 0.034272
0.179546 0.846739 0.031655
0.327993 0.844169 0.029037
0.476439 0.841600 0.026420
0.624886 0.839031 0.023802
0.773333 0.836462 0.021185
0.921780 0.833893 0.018567
0.997306 0.832586 0.017235
0.000000 1.000000 0.026798
0.023109 1.000000 0.025467
0.171556 1.000000 0.022849
0.320002 0.998661 0.020232
0.468449 0.996092 0.017614
0.616896 0.993523 0.014997
0.765343 0.990954 0.012379
0.913790 0.988385 0.009762
0.989315 0.987078 0.008430
0.000000 1.000000 0.022318
0.019043 1.000000 0.020987
0.167490 1.000000 0.018369
0.315937 1.000000 0.015752
0.464384 1.000000 0.013134
0.612831 1.000000 0.010517
0.761278 1.000000 0.007899
0.909725 1.000000 0.005281
0.985250 1.000000 0.003950
0.000000 0.000000 0.249435
0.074309 0.000000 0.248103
0.222755 0.000000 0.245486
0.371202 0.000000 0.242868
0.519649 0.000000 0.240250
0.668096 0.000000 0.237633
0.816543 0.000000 0.235015
0.964990 0.000000 0.232398
1.000000 0.000000 0.231066
0.000000 0.077285 0.244955
0.070243 0.075978 0.243623
0.218690 0.073408 0.241006
0.367137 0.070839 0.238388
0.515584 0.068270 0.235770
0.664031 0.065701 0.233153
0.812478 0.063132 0.230535
0.960924 0.060563 0.227918
1.000000 0.059256 0.226586
0.000000 0.231776 0.236149
0.062253 0.230469 0.234818
0.210700 0.227900 0.232200
0.359147 0.225331 0.229582
0.507594 0.222762 0.226965
0.656040 0.220193 0.224347
0.804487 0.217624 0.221730
0.952934 0.215055 0.219112
1.000000 0.213748 0.217781
0.000000 0.386268 0.227344
0.054263 0.384961 0.226012
0.202710 0.382392 0.223394
0.351157 0.379822 0.220777
0.499604 0.377253 0.218159
0.648050 0.374684 0.215542
0.796497 0.372115 0.212924
0.944944 0.369546 0.210307
1.000000 0.368239 0.208975
0.000000 0.540759 0.218538
0.046273 0.539452 0.217206
0.194720 0.536883 0.214589
0.343166 0.534314 0.211971
0.491613 0.531745 0.209354
0.640060 0.529176 0.206736
0.788507 0.526607 0.204119
0.936954 0.524038 0.201501
1.000000 0.522731 0.200170
0.000000 0.695251 0.209733
0.038283 0.693944 0.208401
0.186729 0.691375 0.205783
0.335176 0.688805 0.203166
0.483623 0.686236 0.200548
0.632070 0.683667 0.197931
0.780517 0.681098 0.195313
0.928964 0.678529 0.192696
1.000000 0.677222 0.191364
0.000000 0.849742 0.200927
0.030292 0.848435 0.199595
0.178739 0.845866 0.196978
0.327186 0.843297 0.194360
0.475633 0.840728 0.191743
0.624080 0.838159 0.189125
0.772526 0.835590 0.186508
0.920973 0.833021 0.183890
0.996499 0.831714 0.182558
0.000000 1.000000 0.192122
0.022302 1.000000 0.190790
0.170749 1.000000 0.188172
0.319196 0.997789 0.185555
0.467643 0.995219 0.182937
0.616089 0.992650 0.180320
0.764536 0.990081 0.177702
0.912983 0.987512 0.175085
0.988509 0.986205 0.173753
0.000000 1.000000 0.187642
0.018237 1.000000 0.186310
0.166684 1.000000 0.183692
0.315131 1.000000 0.181075
0.463577 1.000000 0.178457
0.612024 1.000000 0.175840
0.760471 1.000000 0.173222
0.908918 1.000000 0.170605
0.984443 1.000000 0.169273
0.000000 0.000000 0.414758
0.073502 0.000000 0.413426
0.221949 0.000000 0.410809
0.370396 0.000000 0.408191
0.518843 0.000000 0.405574
0.667289 0.000000 0.402956
0.815736 0.000000 0.400339
0.964183 0.000000 0.397721
1.000000 0.000000 0.396389
0.000000 0.076412 0.410278
0.069437 0.075105 0.408946
0.217884 0.072536 0.406329
0.366330 0.069967 0.403711
0.514777 0.067398 0.401094
0.663224 0.064829 0.398476
0.811671 0.062260 0.395859
0.960118 0.059691 0.393241
1.000000 0.058384 0.391909
0.000000 0.230904 0.401472
0.061447 0.229597 0.400141
0.209893 0.227028 0.397523
0.358340 0.224458 0.394906
0.506787 0.221889 0.392288
0.655234 0.219320 0.389671
0.803681 0.216751 0.387053
0.952128 0.214182 0.384435
1.000000 0.212875 0.383104
0.000000 0.385395 0.392667
0.053456 0.384088 0.391335
0.201903 0.381519 0.388718
0.350350 0.378950 0.386100
0.498797 0.376381 0.383482
0.647244 0.373812 0.380865
0.795690 0.371243 0.378247
0.944137 0.368674 0.375630
1.000000 0.367367 0.374298
0.000000 0.539887 0.383861
0.045466 0.538580 0.382530
0.193913 0.536011 0.379912
0.342360 0.533441 0.377294
0.490807 0.530872 0.374677
0.639253 0.528303 0.372059
0.787700 0.525734 0.369442
0.936147 0.523165 0.366824
1.000000 0.521858 0.365493
0.000000 0.694378 0.375056
0.037476 0.693071 0.373724
0.185923 0.690502 0.371106
0.334370 0.687933 0.368489
0.482816 0.685364 0.365871
0.631263 0.682795 0.363254
0.779710 0.680226 0.360636
0.928157 0.677657 0.358019
1.000000 0.676350 0.356687
0.000000 0.848870 0.366250
0.029486 0.847563 0.364918
0.177933 0.844994 0.362301
0.326379 0.842425 0.359683
0.474826 0.839855 0.357066
0.623273 0.837286 0.354448
0.771720 0.834717 0.351831
0.920167 0.832148 0.349213
0.995692 0.830841 0.347882
0.000000 1.000000 0.357445
0.021495 1.000000 0.356113
0.169942 0.999485 0.353495
0.318389 0.996916 0.350878
0.466836 0.994347 0.348260
0.615283 0.991778 0.345643
0.763730 0.989209 0.343025
0.912176 0.986640 0.340408
0.987702 0.985333 0.339076
0.000000 1.000000 0.352965
0.017430 1.000000 0.351633
0.165877 1.000000 0.349015
0.314324 1.000000 0.346398
0.462771 1.000000 0.343780
0.611218 1.000000 0.341163
0.759664 1.000000 0.338545
0.908111 1.000000 0.335928
0.983637 1.000000 0.334596
0.000000 0.000000 0.580081
0.072695 0.000000 0.578749
0.221142 0.000000 0.576132
0.369589 0.000000 0.573514
0.518036 0.000000 0.570897
0.666483 0.000000 0.568279
0.814930 0.000000 0.565662
0.963376 0.000000 0.563044
1.000000 0.000000 0.561712
0.000000 0.075540 0.575601
0.068630 0.074233 0.574269
0.217077 0.071664 0.571652
0.365524 0.069094 0.569034
0.513971 0.066525 0.566417
0.662418 0.063956 0.563799
0.810864 0.061387 0.561182
0.959311 0.058818 0.558564
1.000000 0.057511 0.557232
0.000000 0.230031 0.566795
0.060640 0.228724 0.565464
0.209087 0.226155 0.562846
0.357534 0.223586 0.560229
0.505980 0.221017 0.557611
0.654427 0.218448 0.554994
0.802874 0.215879 0.552376
0.951321 0.213310 0.549758
1.000000 0.212003 0.548427
0.000000 0.384523 0.557990
0.052650 0.383216 0.556658
0.201097 0.380647 0.554041
0.349543 0.378078 0.551423
0.497990 0.375508 0.548806
0.646437 0.372939 0.546188
0.794884 0.370370 0.543571
0.943331 0.367801 0.540953
1.000000 0.366494 0.539621
0.000000 0.539014 0.549184
0.044659 0.537707 0.547853
0.193106 0.535138 0.545235
0.341553 0.532569 0.542618
0.490000 0.530000 0.540000
0.638447 0.527431 0.537382
0.786894 0.524862 0.534765
0.935341 0.522293 0.532147
1.000000 0.520986 0.530816
0.000000 0.693506 0.540379
0.036669 0.692199 0.539047
0.185116 0.689630 0.536430
0.333563 0.687061 0.533812
0.482010 0.684491 0.531194
0.630457 0.681922 0.528577
0.778903 0.679353 0.525959
0.927350 0.676784 0.523342
1.000000 0.675477 0.522010
0.000000 0.847997 0.531573
0.028679 0.846690 0.530242
0.177126 0.844121 0.527624
0.325573 0.841552 0.525006
0.474020 0.838983 0.522389
0.622466 0.836414 0.519771
0.770913 0.833845 0.517154
0.919360 0.831276 0.514536
0.994886 0.829969 0.513205
0.000000 1.000000 0.522768
0.020689 1.000000 0.521436
0.169136 0.998613 0.518818
0.317583 0.996044 0.516201
0.466029 0.993475 0.513583
0.614476 0.990905 0.510966
0.762923 0.988336 0.508348
0.911370 0.985767 0.505731
0.986896 0.984460 0.504399
0.000000 1.000000 0.518288
0.016624 1.000000 0.516956
0.165070 1.000000 0.514338
0.313517 1.000000 0.511721
0.461964 1.000000 0.509103
0.610411 1.000000 0.506486
0.758858 1.000000 0.503868
0.907305 1.000000 0.501251
0.982830 1.000000 0.499919
0.000000 0.000000 0.745404
0.071889 0.000000 0.744072
0.220336 0.000000 0.741455
0.368782 0.000000 0.738837
0.517229 0.000000 0.736220
0.665676 0.000000 0.733602
0.814123 0.000000 0.730985
0.962570 0.000000 0.728367
1.000000 0.000000 0.727035
0.000000 0.074667 0.740924
0.067824 0.073360 0.739592
0.216270 0.070791 0.736975
0.364717 0.068222 0.734357
0.513164 0.065653 0.731740
0.661611 0.063084 0.729122
0.810058 0.060515 0.726505
0.958505 0.057946 0.723887
1.000000 0.056639 0.722555
0.000000 0.229159 0.732118
0.059833 0.227852 0.730787
0.208280 0.225283 0.728169
0.356727 0.222714 0.725552
0.505174 0.220144 0.722934
0.653621 0.217575 0.720317
0.802067 0.215006 0.717699
0.950514 0.212437 0.715082
1.000000 0.211130 0.713750
0.000000 0.383650 0.723313
0.051843 0.382343 0.721981
0.200290 0.379774 0.719364
0.348737 0.377205 0.716746
0.497184 0.374636 0.714129
0.645630 0.372067 0.711511
0.794077 0.369498 0.708894
0.942524 0.366929 0.706276
1.000000 0.365622 0.704944
0.000000 0.538142 0.714507
0.043853 0.536835 0.713176
0.192300 0.534266 0.710558
0.340747 0.531697 0.707941
0.489193 0.529127 0.705323
0.637640 0.526558 0.702706
0.786087 0.523989 0.700088
0.934534 0.521420 0.697470
1.000000 0.520113 0.696139
0.000000 0.692633 0.705702
0.035863 0.691326 0.704370
0.184310 0.688757 0.701753
0.332756 0.686188 0.699135
0.481203 0.683619 0.696518
0.629650 0.681050 0.693900
0.778097 0.678481 0.691282
0.926544 0.675912 0.688665
1.000000 0.674605 0.687333
0.000000 0.847125 0.696896
0.027872 0.845818 0.695565
0.176319 0.843249 0.692947
0.324766 0.840680 0.690329
0.473213 0.838111 0.687712
0.621660 0.835541 0.685094
0.770107 0.832972 0.682477
0.918554 0.830403 0.679859
0.994079 0.829096 0.678528
0.000000 1.000000 0.688091
0.019882 1.000000 0.686759
0.168329 0.997740 0.684142
0.316776 0.995171 0.681524
0.465223 0.992602 0.678906
0.613670 0.990033 0.676289
0.762116 0.987464 0.673671
0.910563 0.984895 0.671054
0.986089 0.983588 0.669722
0.000000 1.000000 0.683611
0.015817 1.000000 0.682279
0.164264 1.000000 0.679661
0.312711 1.000000 0.677044
0.461158 1.000000 0.674426
0.609604 1.000000 0.671809
0.758051 1.000000 0.669191
0.906498 1.000000 0.666574
0.982024 1.000000 0.665242
0.000000 0.000000 0.910727
0.071082 0.000000 0.909395
0.219529 0.000000 0.906778
0.367976 0.000000 0.904160
0.516423 0.000000 0.901543
0.664869 0.000000 0.898925
0.813316 0.000000 0.896308
0.961763 0.000000 0.893690
1.000000 0.000000 0.892358
0.000000 0.073795 0.906247
0.067017 0.072488 0.904915
0.215464 0.069919 0.902298
0.363911 0.067350 0.899680
0.512357 0.064780 0.897063
0.660804 0.062211 0.894445
0.809251 0.059642 0.891828
0.957698 0.057073 0.889210
1.000000 0.055766 0.887878
0.000000 0.228286 0.897442
0.059027 0.226979 0.896110
0.207474 0.224410 0.893492
0.355920 0.221841 0.890875
0.504367 0.219272 0.888257
0.652814 0.216703 0.885640
0.801261 0.214134 0.883022
0.949708 0.211565 0.880405
1.000000 0.210258 0.879073
0.000000 0.382778 0.888636
0.051036 0.381471 0.887304
0.199483 0.378902 0.884687
0.347930 0.376333 0.882069
0.496377 0.373764 0.879452
0.644824 0.371194 0.876834
0.793271 0.368625 0.874217
0.941718 0.366056 0.871599
1.000000 0.364749 0.870267
0.000000 0.537269 0.879830
0.043046 0.535962 0.878499
0.191493 0.533393 0.875881
0.339940 0.530824 0.873264
0.488387 0.528255 0.870646
0.636834 0.525686 0.868029
0.785280 0.523117 0.865411
0.933727 0.520548 0.862794
1.000000 0.519241 0.861462
0.000000 0.691761 0.871025
0.035056 0.690454 0.869693
0.183503 0.687885 0.867076
0.331950 0.685316 0.864458
0.480397 0.682747 0.861841
0.628843 0.680178 0.859223
0.777290 0.677608 0.856606
0.925737 0.675039 0.853988
1.000000 0.673732 0.852656
0.000000 0.846252 0.862219
0.027066 0.844945 0.860888
0.175513 0.842376 0.858270
0.323960 0.839807 0.855653
0.472406 0.837238 0.853035
0.620853 0.834669 0.850418
0.769300 0.832100 0.847800
0.917747 0.829531 0.845182
0.993272 0.828224 0.843851
0.000000 1.000000 0.853414
0.019076 0.999437 0.852082
0.167522 0.996868 0.849465
0.315969 0.994299 0.846847
0.464416 0.991730 0.844229
0.612863 0.989161 0.841612
0.761310 0.986591 0.838995
0.909757 0.984022 0.836377
0.985282 0.982715 0.835045
0.000000 1.000000 0.848934
0.015010 1.000000 0.847602
0.163457 1.000000 0.844985
0.311904 1.000000 0.842367
0.460351 1.000000 0.839750
0.608798 1.000000 0.837132
0.757245 1.000000 0.834514
0.905691 1.000000 0.831897
0.981217 1.000000 0.830565
0.000000 0.000000 1.000000
0.070275 0.000000 1.000000
0.218722 0.000000 1.000000
0.367169 0.000000 1.000000
0.515616 0.000000 1.000000
0.664063 0.000000 1.000000
0.812510 0.000000 1.000000
0.960957 0.000000 1.000000
1.000000 0.000000 1.000000
0.000000 0.072922 1.000000
0.066210 0.071615 1.000000
0.214657 0.069046 1.000000
0.363104 0.066477 1.000000
0.511551 0.063908 1.000000
0.659998 0.061339 1.000000
0.808444 0.058770 1.000000
0.956891 0.056201 1.000000
1.000000 0.054894 1.000000
0.000000 0.227414 1.000000
0.058220 0.226107 1.000000
0.206667 0.223538 1.000000
0.355114 0.220969 1.000000
0.503561 0.218400 1.000000
0.652007 0.215830 1.000000
0.800454 0.213261 1.000000
0.948901 0.210692 1.000000
1.000000 0.209385 1.000000
0.000000 0.381905 1.000000
0.050230 0.380598 1.000000
0.198677 0.378029 1.000000
0.347124 0.375460 1.000000
0.495570 0.372891 1.000000
0.644017 0.370322 1.000000
0.792464 0.367753 1.000000
0.940911 0.365184 1.000000
1.000000 0.363877 1.000000
0.000000 0.536397 1.000000
0.042240 0.535090 1.000000
0.190686 0.532521 1.000000
0.339133 0.529952 1.000000
0.487580 0.527383 1.000000
0.636027 0.524814 1.000000
0.784474 0.522244 1.000000
0.932921 0.519675 1.000000
1.000000 0.518368 1.000000
0.000000 0.690888 1.000000
0.034249 0.689581 1.000000
0.182696 0.687012 1.000000
0.331143 0.684443 1.000000
0.479590 0.681874 1.000000
0.628037 0.679305 1.000000
0.776484 0.676736 1.000000
0.924930 0.674167 1.000000
1.000000 0.672860 1.000000
0.000000 0.845380 1.000000
0.026259 0.844073 1.000000
0.174706 0.841504 1.000000
0.323153 0.838935 1.000000
0.471600 0.836366 1.000000
0.620047 0.833797 1.000000
0.768493 0.831227 1.000000
0.916940 0.828658 1.000000
0.992466 0.827351 1.000000
0.000000 0.999871 1.000000
0.018269 0.998564 1.000000
0.166716 0.995995 1.000000
0.315163 0.993426 1.000000
0.463609 0.990857 1.000000
0.612056 0.988288 1.000000
0.760503 0.985719 1.000000
0.908950 0.983150 1.000000
0.984476 0.981843 1.000000
0.000000 1.000000 1.000000
0.014204 1.000000 1.000000
0.162651 1.000000 1.000000
0.311098 1.000000 1.000000
0.459544 1.000000 1.000000
0.607991 1.000000 1.000000
0.756438 1.000000 0.999838
0.904885 1.000000 0.997220
0.980410 1.000000 0.995888
0.000000 0.000000 1.000000
0.069865 0.000000 1.000000
0.218312 0.000000 1.000000
0.366759 0.000000 1.000000
0.515206 0.000000 1.000000
0.663652 0.000000 1.000000
0.812099 0.000000 1.000000
0.960546 0.000000 1.000000
1.000000 0.000000 1.000000
0.000000 0.072478 1.000000
0.065800 0.071171 1.000000
0.214247 0.068602 1.000000
0.362694 0.066033 1.000000
0.511140 0.063464 1.000000
0.659587 0.060895 1.000000
0.808034 0.058326 1.000000
0.956481 0.055757 1.000000
1.000000 0.054450 1.000000
0.000000 0.226970 1.000000
0.057810 0.225663 1.000000
0.206257 0.223094 1.000000
0.354703 0.220525 1.000000
0.503150 0.217956 1.000000
0.651597 0.215387 1.000000
0.800044 0.212818 1.000000
0.948491 0.210248 1.000000
1.000000 0.208941 1.000000
0.000000 0.381461 1.000000
0.049819 0.380154 1.000000
0.198266 0.377585 1.000000
0.346713 0.375016 1.000000
0.495160 0.372447 1.000000
0.643607 0.369878 1.000000
0.792054 0.367309 1.000000
0.940500 0.364740 1.000000
1.000000 0.363433 1.000000
0.000000 0.535953 1.000000
0.041829 0.534646 1.000000
0.190276 0.532077 1.000000
0.338723 0.529508 1.000000
0.487170 0.526939 1.000000
0.635617 0.524370 1.000000
0.784063 0.521801 1.000000
0.932510 0.519231 1.000000
1.000000 0.517924 1.000000
0.000000 0.690444 1.000000
0.033839 0.689137 1.000000
0.182286 0.686568 1.000000
0.330733 0.683999 1.000000
0.479180 0.681430 1.000000
0.627626 0.678861 1.000000
0.776073 0.676292 1.000000
0.924520 0.673723 1.000000
1.000000 0.672416 1.000000
0.000000 0.844936 1.000000
0.025849 0.843629 1.000000
0.174296 0.841060 1.000000
0.322742 0.838491 1.000000
0.471189 0.835922 1.000000
0.619636 0.833353 1.000000
0.768083 0.830784 1.000000
0.916530 0.828214 1.000000
0.992055 0.826907 1.000000
0.000000 0.999427 1.000000
0.017859 0.998120 1.000000
0.166305 0.995551 1.000000
0.314752 0.992982 1.000000
0.463199 0.990413 1.000000
0.611646 0.987844 1.000000
0.760093 0.985275 1.000000
0.908540 0.982706 1.000000
0.984065 0.981399 1.000000
0.000000 1.000000 1.000000
0.013793 1.000000 1.000000
0.162240 1.000000 1.000000
0.310687 1.000000 1.000000
0.459134 1.000000 1.000000
0.607581 1.000000 1.000000
0.756028 1.000000 1.000000
0.904474 1.000000 1.000000
0.980000 1.000000 1.000000
