shared/luts/nikon_landscape_approx.cube
TITLE "Nikon Landscape approx"
LUT_3D_SIZE 5
0.000000 0.000000 0.000000
0.223972 0.000000 0.000000
0.520866 0.000000 0.000000
0.817760 0.000000 0.000000
1.000000 0.000000 0.000000
0.000000 0.233092 0.000000
0.211917 0.229216 0.000000
0.508811 0.224078 0.000000
0.805704 0.218940 0.000000
1.000000 0.215064 0.000000
0.000000 0.542076 0.000000
0.195937 0.538199 0.000000
0.492830 0.533061 0.000000
0.789724 0.527923 0.000000
1.000000 0.524047 0.000000
0.000000 0.851058 0.000000
0.179956 0.847182 0.000000
0.476850 0.842044 0.000000
0.773744 0.836906 0.000000
0.997716 0.833030 0.000000
0.000000 1.000000 0.000000
0.167901 1.000000 0.000000
0.464794 1.000000 0.000000
0.761688 1.000000 0.000000
0.985661 1.000000 0.000000
0.000000 0.000000 0.249435
0.222755 0.000000 0.245486
0.519649 0.000000 0.240250
0.816543 0.000000 0.235015
1.000000 0.000000 0.231066
0.000000 0.231776 0.236149
0.210700 0.227900 0.232200
0.507594 0.222762 0.226965
0.804487 0.217624 0.221730
1.000000 0.213748 0.217781
0.000000 0.540759 0.218538
0.194720 0.536883 0.214589
0.491613 0.531745 0.209354
0.788507 0.526607 0.204119
1.000000 0.522731 0.200170
0.000000 0.849742 0.200927
0.178739 0.845866 0.196978
0.475633 0.840728 0.191743
0.772526 0.835590 0.186508
0.996499 0.831714 0.182558
0.000000 1.000000 0.187642
0.166684 1.000000 0.183692
0.463577 1.000000 0.178457
0.760471 1.000000 0.173222
0.984443 1.000000 0.169273
0.000000 0.000000 0.580081
0.221142 0.000000 0.576132
0.518036 0.000000 0.570897
0.814930 0.000000 0.565662
1.000000 0.000000 0.561712
0.000000 0.230031 0.566795
0.209087 0.226155 0.562846
0.505980 0.221017 0.557611
0.802874 0.215879 0.552376
1.000000 0.212003 0.548427
0.000000 0.539014 0.549184
0.193106 0.535138 0.545235
0.490000 0.530000 0.540000
0.786894 0.524862 0.534765
1.000000 0.520986 0.530816
0.000000 0.847997 0.531573
0.177126 0.844121 0.527624
0.474020 0.838983 0.522389
0.770913 0.833845 0.517154
0.994886 0.829969 0.513205
0.000000 1.000000 0.518288
0.165070 1.000000 0.514338
0.461964 1.000000 0.509103
0.758858 1.000000 0.503868
0.982830 1.000000 0.499919
0.000000 0.000000 0.910727
0.219529 0.000000 0.906778
0.516423 0.000000 0.901543
0.813316 0.000000 0.896308
1.000000 0.000000 0.892358
0.000000 0.228286 0.897442
0.207474 0.224410 0.893492
0.504367 0.219272 0.888257
0.801261 0.214134 0.883022
1.000000 0.210258 0.879073
0.000000 0.537269 0.879830
0.191493 0.533393 0.875881
0.488387 0.528255 0.870646
0.785280 0.523117 0.865411
1.000000 0.519241 0.861462
0.000000 0.846252 0.862219
0.175513 0.842376 0.858270
0.472406 0.837238 0.853035
0.769300 0.832100 0.847800
0.993272 0.828224 0.843851
0.000000 1.000000 0.848934
0.163457 1.000000 0.844985
0.460351 1.000000 0.839750
0.757245 1.000000 0.834514
0.981217 1.000000 0.830565
0.000000 0.000000 1.000000
0.218312 0.000000 1.000000
0.515206 0.000000 1.000000
0.812099 0.000000 1.000000
1.000000 0.000000 1.000000
0.000000 0.226970 1.000000
0.206257 0.223094 1.000000
0.503150 0.217956 1.000000
0.800044 0.212818 1.000000
1.000000 0.208941 1.000000
0.000000 0.535953 1.000000
0.190276 0.532077 1.000000
0.487170 0.526939 1.000000
0.784063 0.521801 1.000000
1.000000 0.517924 1.000000
0.000000 0.844936 1.000000
0.174296 0.841060 1.000000
0.471189 0.835922 1.000000
0.768083 0.830784 1.000000
0.992055 0.826907 1.000000
0.000000 1.000000 1.000000
0.162240 1.000000 1.000000
0.459134 1.000000 1.000000
0.756028 1.000000 1.000000
0.980000 1.000000 1.000000
