shared/luts/nikon_landscape_approx.cube
TITLE "Nikon Landscape approx"
LUT_3D_SIZE 33
0.000000 0.000000 0.000000
0.000000 0.000000 0.000000
0.001302 0.000000 0.000000
0.038414 0.000000 0.000000
0.075526 0.000000 0.000000
0.112637 0.000000 0.000000
0.149749 0.000000 0.000000
0.186861 0.000000 0.000000
0.223972 0.000000 0.000000
0.261084 0.000000 0.000000
0.298196 0.000000 0.000000
0.335308 0.000000 0.000000
0.372419 0.000000 0.000000
0.409531 0.000000 0.000000
0.446643 0.000000 0.000000
0.483754 0.000000 0.000000
0.520866 0.000000 0.000000
0.557978 0.000000 0.000000
0.595090 0.000000 0.000000
0.632201 0.000000 0.000000
0.669313 0.000000 0.000000
0.706425 0.000000 0.000000
0.743536 0.000000 0.000000
0.780648 0.000000 0.000000
0.817760 0.000000 0.000000
0.854872 0.000000 0.000000
0.891983 0.000000 0.000000
0.929095 0.000000 0.000000
0.966207 0.000000 0.000000
1.000000 0.000000 0.000000
1.000000 0.000000 0.000000
1.000000 0.000000 0.000000
1.000000 0.000000 0.000000
0.000000 0.000000 0.000000
0.000000 0.000000 0.000000
0.001302 0.000000 0.000000
0.038414 0.000000 0.000000
0.075526 0.000000 0.000000
0.112637 0.000000 0.000000
0.149749 0.000000 0.000000
0.186861 0.000000 0.000000
0.223972 0.000000 0.000000
0.261084 0.000000 0.000000
0.298196 0.000000 0.000000
0.335308 0.000000 0.000000
0.372419 0.000000 0.000000
0.409531 0.000000 0.000000
0.446643 0.000000 0.000000
0.483754 0.000000 0.000000
0.520866 0.000000 0.000000
0.557978 0.000000 0.000000
0.595090 0.000000 0.000000
0.632201 0.000000 0.000000
0.669313 0.000000 0.000000
0.706425 0.000000 0.000000
0.743536 0.000000 0.000000
0.780648 0.000000 0.000000
0.817760 0.000000 0.000000
0.854872 0.000000 0.000000
0.891983 0.000000 0.000000
0.929095 0.000000 0.000000
0.966207 0.000000 0.000000
1.000000 0.000000 0.000000
1.000000 0.000000 0.000000
1.000000 0.000000 0.000000
1.000000 0.000000 0.000000
0.000000 0.001355 0.000000
0.000000 0.001355 0.000000
0.001232 0.001333 0.000000
0.038344 0.000690 0.000000
0.075455 0.000048 0.000000
0.112567 0.000000 0.000000
0.149679 0.000000 0.000000
0.186791 0.000000 0.000000
0.223902 0.000000 0.000000
0.261014 0.000000 0.000000
0.298126 0.000000 0.000000
0.335237 0.000000 0.000000
0.372349 0.000000 0.000000
0.409461 0.000000 0.000000
0.446573 0.000000 0.000000
0.483684 0.000000 0.000000
0.520796 0.000000 0.000000
0.557908 0.000000 0.000000
0.595019 0.000000 0.000000
0.632131 0.000000 0.000000
0.669243 0.000000 0.000000
0.706355 0.000000 0.000000
0.743466 0.000000 0.000000
0.780578 0.000000 0.000000
0.817690 0.000000 0.000000
0.854801 0.000000 0.000000
0.891913 0.000000 0.000000
0.929025 0.000000 0.000000
0.966137 0.000000 0.000000
1.000000 0.000000 0.000000
1.000000 0.000000 0.000000
1.000000 0.000000 0.000000
1.000000 0.000000 0.000000
0.000000 0.039978 0.000000
0.000000 0.039978 0.000000
0.000000 0.039956 0.000000
0.036346 0.039313 0.000000
0.073458 0.038671 0.000000
0.110570 0.038029 0.000000
0.147681 0.037386 0.000000
0.184793 0.036744 0.000000
0.221905 0.036102 0.000000
0.259017 0.035460 0.000000
0.296128 0.034817 0.000000
0.333240 0.034175 0.000000
0.370352 0.033533 0.000000
0.407463 0.032891 0.000000
0.444575 0.032248 0.000000
0.481687 0.031606 0.000000
0.518798 0.030964 0.000000
0.555910 0.030322 0.000000
0.593022 0.029679 0.000000
0.630134 0.029037 0.000000
0.667245 0.028395 0.000000
0.704357 0.027753 0.000000
0.741469 0.027110 0.000000
0.778580 0.026468 0.000000
0.815692 0.025826 0.000000
0.852804 0.025183 0.000000
0.889916 0.024541 0.000000
0.927027 0.023899 0.000000
0.964139 0.023257 0.000000
1.000000 0.022614 0.000000
1.000000 0.021972 0.000000
1.000000 0.021950 0.000000
1.000000 0.021950 0.000000
0.000000 0.078601 0.000000
0.000000 0.078601 0.000000
0.000000 0.078578 0.000000
0.034349 0.077936 0.000000
0.071460 0.077294 0.000000
0.108572 0.076652 0.000000
0.145684 0.076009 0.000000
0.182796 0.075367 0.000000
0.219907 0.074725 0.000000
0.257019 0.074083 0.000000
0.294131 0.073440 0.000000
0.331242 0.072798 0.000000
0.368354 0.072156 0.000000
0.405466 0.071513 0.000000
0.442577 0.070871 0.000000
0.479689 0.070229 0.000000
0.516801 0.069587 0.000000
0.553913 0.068944 0.000000
0.591024 0.068302 0.000000
0.628136 0.067660 0.000000
0.665248 0.067018 0.000000
0.702359 0.066375 0.000000
0.739471 0.065733 0.000000
0.776583 0.065091 0.000000
0.813695 0.064449 0.000000
0.850806 0.063806 0.000000
0.887918 0.063164 0.000000
0.925030 0.062522 0.000000
0.962141 0.061880 0.000000
0.999253 0.061237 0.000000
1.000000 0.060595 0.000000
1.000000 0.060572 0.000000
1.000000 0.060572 0.000000
0.000000 0.117224 0.000000
0.000000 0.117224 0.000000
0.000000 0.117201 0.000000
0.032351 0.116559 0.000000
0.069463 0.115917 0.000000
0.106575 0.115274 0.000000
0.143686 0.114632 0.000000
0.180798 0.113990 0.000000
0.217910 0.113348 0.000000
0.255021 0.112705 0.000000
0.292133 0.112063 0.000000
0.329245 0.111421 0.000000
0.366357 0.110779 0.000000
0.403468 0.110136 0.000000
0.440580 0.109494 0.000000
0.477692 0.108852 0.000000
0.514803 0.108210 0.000000
0.551915 0.107567 0.000000
0.589027 0.106925 0.000000
0.626139 0.106283 0.000000
0.663250 0.105641 0.000000
0.700362 0.104998 0.000000
0.737474 0.104356 0.000000
0.774585 0.103714 0.000000
0.811697 0.103071 0.000000
0.848809 0.102429 0.000000
0.885920 0.101787 0.000000
0.923032 0.101145 0.000000
0.960144 0.100502 0.000000
0.997256 0.099860 0.000000
1.000000 0.099218 0.000000
1.000000 0.099195 0.000000
1.000000 0.099195 0.000000
0.000000 0.155847 0.000000
0.000000 0.155847 0.000000
0.000000 0.155824 0.000000
0.030354 0.155182 0.000000
0.067465 0.154540 0.000000
0.104577 0.153897 0.000000
0.141689 0.153255 0.000000
0.178800 0.152613 0.000000
0.215912 0.151971 0.000000
0.253024 0.151328 0.000000
0.290136 0.150686 0.000000
0.327247 0.150044 0.000000
0.364359 0.149402 0.000000
0.401471 0.148759 0.000000
0.438582 0.148117 0.000000
0.475694 0.147475 0.000000
0.512806 0.146832 0.000000
0.549918 0.146190 0.000000
0.587029 0.145548 0.000000
0.624141 0.144906 0.000000
0.661253 0.144263 0.000000
0.698364 0.143621 0.000000
0.735476 0.142979 0.000000
0.772588 0.142337 0.000000
0.809699 0.141694 0.000000
0.846811 0.141052 0.000000
0.883923 0.140410 0.000000
0.921035 0.139768 0.000000
0.958146 0.139125 0.000000
0.995258 0.138483 0.000000
1.000000 0.137841 0.000000
1.000000 0.137818 0.000000
1.000000 0.137818 0.000000
0.000000 0.194470 0.000000
0.000000 0.194470 0.000000
0.000000 0.194447 0.000000
0.028356 0.193805 0.000000
0.065468 0.193163 0.000000
0.102579 0.192520 0.000000
0.139691 0.191878 0.000000
0.176803 0.191236 0.000000
0.213915 0.190593 0.000000
0.251026 0.189951 0.000000
0.288138 0.189309 0.000000
0.325250 0.188667 0.000000
0.362361 0.188024 0.000000
0.399473 0.187382 0.000000
0.436585 0.186740 0.000000
0.473697 0.186098 0.000000
0.510808 0.185455 0.000000
0.547920 0.184813 0.000000
0.585032 0.184171 0.000000
0.622143 0.183529 0.000000
0.659255 0.182886 0.000000
0.696367 0.182244 0.000000
0.733478 0.181602 0.000000
0.770590 0.180959 0.000000
0.807702 0.180317 0.000000
0.844814 0.179675 0.000000
0.881925 0.179033 0.000000
0.919037 0.178390 0.000000
0.956149 0.177748 0.000000
0.993261 0.177106 0.000000
1.000000 0.176464 0.000000
1.000000 0.176441 0.000000
1.000000 0.176441 0.000000
0.000000 0.233092 0.000000
0.000000 0.233092 0.000000
0.000000 0.233070 0.000000
0.026358 0.232428 0.000000
0.063470 0.231785 0.000000
0.100582 0.231143 0.000000
0.137694 0.230501 0.000000
0.174805 0.229859 0.000000
0.211917 0.229216 0.000000
0.249029 0.228574 0.000000
0.286140 0.227932 0.000000
0.323252 0.227290 0.000000
0.360364 0.226647 0.000000
0.397476 0.226005 0.000000
0.434587 0.225363 0.000000
0.471699 0.224720 0.000000
0.508811 0.224078 0.000000
0.545922 0.223436 0.000000
0.583034 0.222794 0.000000
0.620146 0.222151 0.000000
0.657257 0.221509 0.000000
0.694369 0.220867 0.000000
0.731481 0.220225 0.000000
0.768593 0.219582 0.000000
0.805704 0.218940 0.000000
0.842816 0.218298 0.000000
0.879928 0.217656 0.000000
0.917040 0.217013 0.000000
0.954151 0.216371 0.000000
0.991263 0.215729 0.000000
1.000000 0.215087 0.000000
1.000000 0.215064 0.000000
1.000000 0.215064 0.000000
0.000000 0.271715 0.000000
0.000000 0.271715 0.000000
0.000000 0.271693 0.000000
0.024361 0.271051 0.000000
0.061473 0.270408 0.000000
0.098584 0.269766 0.000000
0.135696 0.269124 0.000000
0.172808 0.268481 0.000000
0.209919 0.267839 0.000000
0.247031 0.267197 0.000000
0.284143 0.266555 0.000000
0.321255 0.265912 0.000000
0.358366 0.265270 0.000000
0.395478 0.264628 0.000000
0.432590 0.263986 0.000000
0.469701 0.263343 0.000000
0.506813 0.262701 0.000000
0.543925 0.262059 0.000000
0.581037 0.261417 0.000000
0.618148 0.260774 0.000000
0.655260 0.260132 0.000000
0.692372 0.259490 0.000000
0.729483 0.258848 0.000000
0.766595 0.258205 0.000000
0.803707 0.257563 0.000000
0.840819 0.256921 0.000000
0.877930 0.256278 0.000000
0.915042 0.255636 0.000000
0.952154 0.254994 0.000000
0.989265 0.254352 0.000000
1.000000 0.253709 0.000000
1.000000 0.253687 0.000000
1.000000 0.253687 0.000000
0.000000 0.310338 0.000000
0.000000 0.310338 0.000000
0.000000 0.310316 0.000000
0.022363 0.309673 0.000000
0.059475 0.309031 0.000000
0.096587 0.308389 0.000000
0.133698 0.307747 0.000000
0.170810 0.307104 0.000000
0.207922 0.306462 0.000000
0.245034 0.305820 0.000000
0.282145 0.305178 0.000000
0.319257 0.304535 0.000000
0.356369 0.303893 0.000000
0.393480 0.303251 0.000000
0.430592 0.302608 0.000000
0.467704 0.301966 0.000000
0.504816 0.301324 0.000000
0.541927 0.300682 0.000000
0.579039 0.300039 0.000000
0.616151 0.299397 0.000000
0.653262 0.298755 0.000000
0.690374 0.298113 0.000000
0.727486 0.297470 0.000000
0.764598 0.296828 0.000000
0.801709 0.296186 0.000000
0.838821 0.295544 0.000000
0.875933 0.294901 0.000000
0.913044 0.294259 0.000000
0.950156 0.293617 0.000000
0.987268 0.292975 0.000000
1.000000 0.292332 0.000000
1.000000 0.292310 0.000000
1.000000 0.292310 0.000000
0.000000 0.348961 0.000000
0.000000 0.348961 0.000000
0.000000 0.348939 0.000000
0.020366 0.348296 0.000000
0.057478 0.347654 0.000000
0.094589 0.347012 0.000000
0.131701 0.346370 0.000000
0.168813 0.345727 0.000000
0.205924 0.345085 0.000000
0.243036 0.344443 0.000000
0.280148 0.343800 0.000000
0.317259 0.343158 0.000000
0.354371 0.342516 0.000000
0.391483 0.341874 0.000000
0.428595 0.341231 0.000000
0.465706 0.340589 0.000000
0.502818 0.339947 0.000000
0.539930 0.339305 0.000000
0.577042 0.338662 0.000000
0.614153 0.338020 0.000000
0.651265 0.337378 0.000000
0.688377 0.336736 0.000000
0.725488 0.336093 0.000000
0.762600 0.335451 0.000000
0.799712 0.334809 0.000000
0.836823 0.334166 0.000000
0.873935 0.333524 0.000000
0.911047 0.332882 0.000000
0.948159 0.332240 0.000000
0.985270 0.331597 0.000000
1.000000 0.330955 0.000000
1.000000 0.330933 0.000000
1.000000 0.330933 0.000000
0.000000 0.387584 0.000000
0.000000 0.387584 0.000000
0.000000 0.387561 0.000000
0.018368 0.386919 0.000000
0.055480 0.386277 0.000000
0.092592 0.385635 0.000000
0.129703 0.384992 0.000000
0.166815 0.384350 0.000000
0.203927 0.383708 0.000000
0.241039 0.383066 0.000000
0.278150 0.382423 0.000000
0.315262 0.381781 0.000000
0.352374 0.381139 0.000000
0.389485 0.380497 0.000000
0.426597 0.379854 0.000000
0.463709 0.379212 0.000000
0.500820 0.378570 0.000000
0.537932 0.377927 0.000000
0.575044 0.377285 0.000000
0.612156 0.376643 0.000000
0.649267 0.376001 0.000000
0.686379 0.375358 0.000000
0.723491 0.374716 0.000000
0.760602 0.374074 0.000000
0.797714 0.373432 0.000000
0.834826 0.372789 0.000000
0.871938 0.372147 0.000000
0.909049 0.371505 0.000000
0.946161 0.370863 0.000000
0.983273 0.370220 0.000000
1.000000 0.369578 0.000000
1.000000 0.369556 0.000000
1.000000 0.369556 0.000000
0.000000 0.426207 0.000000
0.000000 0.426207 0.000000
0.000000 0.426184 0.000000
0.016371 0.425542 0.000000
0.053482 0.424900 0.000000
0.090594 0.424258 0.000000
0.127706 0.423615 0.000000
0.164818 0.422973 0.000000
0.201929 0.422331 0.000000
0.239041 0.421688 0.000000
0.276153 0.421046 0.000000
0.313264 0.420404 0.000000
0.350376 0.419762 0.000000
0.387488 0.419119 0.000000
0.424599 0.418477 0.000000
0.461711 0.417835 0.000000
0.498823 0.417193 0.000000
0.535935 0.416550 0.000000
0.573046 0.415908 0.000000
0.610158 0.415266 0.000000
0.647270 0.414624 0.000000
0.684381 0.413981 0.000000
0.721493 0.413339 0.000000
0.758605 0.412697 0.000000
0.795717 0.412054 0.000000
0.832828 0.411412 0.000000
0.869940 0.410770 0.000000
0.907052 0.410128 0.000000
0.944163 0.409485 0.000000
0.981275 0.408843 0.000000
1.000000 0.408201 0.000000
1.000000 0.408178 0.000000
1.000000 0.408178 0.000000
0.000000 0.464830 0.000000
0.000000 0.464830 0.000000
0.000000 0.464807 0.000000
0.014373 0.464165 0.000000
0.051485 0.463523 0.000000
0.088597 0.462880 0.000000
0.125708 0.462238 0.000000
0.162820 0.461596 0.000000
0.199932 0.460954 0.000000
0.237043 0.460311 0.000000
0.274155 0.459669 0.000000
0.311267 0.459027 0.000000
0.348379 0.458385 0.000000
0.385490 0.457742 0.000000
0.422602 0.457100 0.000000
0.459714 0.456458 0.000000
0.496825 0.455815 0.000000
0.533937 0.455173 0.000000
0.571049 0.454531 0.000000
0.608160 0.453889 0.000000
0.645272 0.453246 0.000000
0.682384 0.452604 0.000000
0.719496 0.451962 0.000000
0.756607 0.451320 0.000000
0.793719 0.450677 0.000000
0.830831 0.450035 0.000000
0.867942 0.449393 0.000000
0.905054 0.448751 0.000000
0.942166 0.448108 0.000000
0.979278 0.447466 0.000000
1.000000 0.446824 0.000000
1.000000 0.446801 0.000000
1.000000 0.446801 0.000000
0.000000 0.503453 0.000000
0.000000 0.503453 0.000000
0.000000 0.503430 0.000000
0.012376 0.502788 0.000000
0.049487 0.502146 0.000000
0.086599 0.501503 0.000000
0.123711 0.500861 0.000000
0.160822 0.500219 0.000000
0.197934 0.499577 0.000000
0.235046 0.498934 0.000000
0.272158 0.498292 0.000000
0.309269 0.497650 0.000000
0.346381 0.497007 0.000000
0.383493 0.496365 0.000000
0.420604 0.495723 0.000000
0.457716 0.495081 0.000000
0.494828 0.494438 0.000000
0.531940 0.493796 0.000000
0.569051 0.493154 0.000000
0.606163 0.492512 0.000000
0.643275 0.491869 0.000000
0.680386 0.491227 0.000000
0.717498 0.490585 0.000000
0.754610 0.489943 0.000000
0.791721 0.489300 0.000000
0.828833 0.488658 0.000000
0.865945 0.488016 0.000000
0.903057 0.487373 0.000000
0.940168 0.486731 0.000000
0.977280 0.486089 0.000000
1.000000 0.485447 0.000000
1.000000 0.485424 0.000000
1.000000 0.485424 0.000000
0.000000 0.542076 0.000000
0.000000 0.542076 0.000000
0.000000 0.542053 0.000000
0.010378 0.541411 0.000000
0.047490 0.540768 0.000000
0.084601 0.540126 0.000000
0.121713 0.539484 0.000000
0.158825 0.538842 0.000000
0.195937 0.538199 0.000000
0.233048 0.537557 0.000000
0.270160 0.536915 0.000000
0.307272 0.536273 0.000000
0.344383 0.535630 0.000000
0.381495 0.534988 0.000000
0.418607 0.534346 0.000000
0.455719 0.533704 0.000000
0.492830 0.533061 0.000000
0.529942 0.532419 0.000000
0.567054 0.531777 0.000000
0.604165 0.531134 0.000000
0.641277 0.530492 0.000000
0.678389 0.529850 0.000000
0.715500 0.529208 0.000000
0.752612 0.528565 0.000000
0.789724 0.527923 0.000000
0.826836 0.527281 0.000000
0.863947 0.526639 0.000000
0.901059 0.525996 0.000000
0.938171 0.525354 0.000000
0.975282 0.524712 0.000000
1.000000 0.524070 0.000000
1.000000 0.524047 0.000000
1.000000 0.524047 0.000000
0.000000 0.580698 0.000000
0.000000 0.580698 0.000000
0.000000 0.580676 0.000000
0.008380 0.580034 0.000000
0.045492 0.579391 0.000000
0.082604 0.578749 0.000000
0.119716 0.578107 0.000000
0.156827 0.577465 0.000000
0.193939 0.576822 0.000000
0.231051 0.576180 0.000000
0.268162 0.575538 0.000000
0.305274 0.574895 0.000000
0.342386 0.574253 0.000000
0.379498 0.573611 0.000000
0.416609 0.572969 0.000000
0.453721 0.572326 0.000000
0.490833 0.571684 0.000000
0.527944 0.571042 0.000000
0.565056 0.570400 0.000000
0.602168 0.569757 0.000000
0.639280 0.569115 0.000000
0.676391 0.568473 0.000000
0.713503 0.567831 0.000000
0.750615 0.567188 0.000000
0.787726 0.566546 0.000000
0.824838 0.565904 0.000000
0.861950 0.565261 0.000000
0.899062 0.564619 0.000000
0.936173 0.563977 0.000000
0.973285 0.563335 0.000000
1.000000 0.562692 0.000000
1.000000 0.562670 0.000000
1.000000 0.562670 0.000000
0.000000 0.619321 0.000000
0.000000 0.619321 0.000000
0.000000 0.619299 0.000000
0.006383 0.618656 0.000000
0.043495 0.618014 0.000000
0.080606 0.617372 0.000000
0.117718 0.616730 0.000000
0.154830 0.616087 0.000000
0.191941 0.615445 0.000000
0.229053 0.614803 0.000000
0.266165 0.614161 0.000000
0.303277 0.613518 0.000000
0.340388 0.612876 0.000000
0.377500 0.612234 0.000000
0.414612 0.611592 0.000000
0.451723 0.610949 0.000000
0.488835 0.610307 0.000000
0.525947 0.609665 0.000000
0.563059 0.609022 0.000000
0.600170 0.608380 0.000000
0.637282 0.607738 0.000000
0.674394 0.607096 0.000000
0.711505 0.606453 0.000000
0.748617 0.605811 0.000000
0.785729 0.605169 0.000000
0.822841 0.604527 0.000000
0.859952 0.603884 0.000000
0.897064 0.603242 0.000000
0.934176 0.602600 0.000000
0.971287 0.601958 0.000000
1.000000 0.601315 0.000000
1.000000 0.601293 0.000000
1.000000 0.601293 0.000000
0.000000 0.657944 0.000000
0.000000 0.657944 0.000000
0.000000 0.657922 0.000000
0.004385 0.657279 0.000000
0.041497 0.656637 0.000000
0.078609 0.655995 0.000000
0.115720 0.655353 0.000000
0.152832 0.654710 0.000000
0.189944 0.654068 0.000000
0.227056 0.653426 0.000000
0.264167 0.652784 0.000000
0.301279 0.652141 0.000000
0.338391 0.651499 0.000000
0.375502 0.650857 0.000000
0.412614 0.650214 0.000000
0.449726 0.649572 0.000000
0.486838 0.648930 0.000000
0.523949 0.648288 0.000000
0.561061 0.647645 0.000000
0.598173 0.647003 0.000000
0.635284 0.646361 0.000000
0.672396 0.645719 0.000000
0.709508 0.645076 0.000000
0.746620 0.644434 0.000000
0.783731 0.643792 0.000000
0.820843 0.643149 0.000000
0.857955 0.642507 0.000000
0.895066 0.641865 0.000000
0.932178 0.641223 0.000000
0.969290 0.640580 0.000000
1.000000 0.639938 0.000000
1.000000 0.639916 0.000000
1.000000 0.639916 0.000000
0.000000 0.696567 0.000000
0.000000 0.696567 0.000000
0.000000 0.696544 0.000000
0.002388 0.695902 0.000000
0.039500 0.695260 0.000000
0.076611 0.694618 0.000000
0.113723 0.693975 0.000000
0.150835 0.693333 0.000000
0.187946 0.692691 0.000000
0.225058 0.692049 0.000000
0.262170 0.691406 0.000000
0.299282 0.690764 0.000000
0.336393 0.690122 0.000000
0.373505 0.689480 0.000000
0.410617 0.688837 0.000000
0.447728 0.688195 0.000000
0.484840 0.687553 0.000000
0.521952 0.686911 0.000000
0.559063 0.686268 0.000000
0.596175 0.685626 0.000000
0.633287 0.684984 0.000000
0.670399 0.684341 0.000000
0.707510 0.683699 0.000000
0.744622 0.683057 0.000000
0.781734 0.682415 0.000000
0.818845 0.681772 0.000000
0.855957 0.681130 0.000000
0.893069 0.680488 0.000000
0.930181 0.679846 0.000000
0.967292 0.679203 0.000000
1.000000 0.678561 0.000000
1.000000 0.678539 0.000000
1.000000 0.678539 0.000000
0.000000 0.735190 0.000000
0.000000 0.735190 0.000000
0.000000 0.735167 0.000000
0.000390 0.734525 0.000000
0.037502 0.733883 0.000000
0.074614 0.733241 0.000000
0.111725 0.732598 0.000000
0.148837 0.731956 0.000000
0.185949 0.731314 0.000000
0.223061 0.730672 0.000000
0.260172 0.730029 0.000000
0.297284 0.729387 0.000000
0.334396 0.728745 0.000000
0.371507 0.728103 0.000000
0.408619 0.727460 0.000000
0.445731 0.726818 0.000000
0.482842 0.726176 0.000000
0.519954 0.725533 0.000000
0.557066 0.724891 0.000000
0.594178 0.724249 0.000000
0.631289 0.723607 0.000000
0.668401 0.722964 0.000000
0.705513 0.722322 0.000000
0.742624 0.721680 0.000000
0.779736 0.721038 0.000000
0.816848 0.720395 0.000000
0.853960 0.719753 0.000000
0.891071 0.719111 0.000000
0.928183 0.718469 0.000000
0.965295 0.717826 0.000000
1.000000 0.717184 0.000000
1.000000 0.717161 0.000000
1.000000 0.717161 0.000000
0.000000 0.773813 0.000000
0.000000 0.773813 0.000000
0.000000 0.773790 0.000000
0.000000 0.773148 0.000000
0.035504 0.772506 0.000000
0.072616 0.771863 0.000000
0.109728 0.771221 0.000000
0.146840 0.770579 0.000000
0.183951 0.769937 0.000000
0.221063 0.769294 0.000000
0.258175 0.768652 0.000000
0.295286 0.768010 0.000000
0.332398 0.767368 0.000000
0.369510 0.766725 0.000000
0.406622 0.766083 0.000000
0.443733 0.765441 0.000000
0.480845 0.764799 0.000000
0.517957 0.764156 0.000000
0.555068 0.763514 0.000000
0.592180 0.762872 0.000000
0.629292 0.762229 0.000000
0.666403 0.761587 0.000000
0.703515 0.760945 0.000000
0.740627 0.760303 0.000000
0.777739 0.759660 0.000000
0.814850 0.759018 0.000000
0.851962 0.758376 0.000000
0.889074 0.757734 0.000000
0.926185 0.757091 0.000000
0.963297 0.756449 0.000000
1.000000 0.755807 0.000000
1.000000 0.755784 0.000000
1.000000 0.755784 0.000000
0.000000 0.812436 0.000000
0.000000 0.812436 0.000000
0.000000 0.812413 0.000000
0.000000 0.811771 0.000000
0.033507 0.811129 0.000000
0.070619 0.810486 0.000000
0.107730 0.809844 0.000000
0.144842 0.809202 0.000000
0.181954 0.808560 0.000000
0.219065 0.807917 0.000000
0.256177 0.807275 0.000000
0.293289 0.806633 0.000000
0.330401 0.805990 0.000000
0.367512 0.805348 0.000000
0.404624 0.804706 0.000000
0.441736 0.804064 0.000000
0.478847 0.803421 0.000000
0.515959 0.802779 0.000000
0.553071 0.802137 0.000000
0.590182 0.801495 0.000000
0.627294 0.800852 0.000000
0.664406 0.800210 0.000000
0.701518 0.799568 0.000000
0.738629 0.798926 0.000000
0.775741 0.798283 0.000000
0.812853 0.797641 0.000000
0.849964 0.796999 0.000000
0.887076 0.796356 0.000000
0.924188 0.795714 0.000000
0.961300 0.795072 0.000000
0.998411 0.794430 0.000000
0.999713 0.794407 0.000000
0.999713 0.794407 0.000000
0.000000 0.851058 0.000000
0.000000 0.851058 0.000000
0.000000 0.851036 0.000000
0.000000 0.850394 0.000000
0.031509 0.849751 0.000000
0.068621 0.849109 0.000000
0.105733 0.848467 0.000000
0.142844 0.847825 0.000000
0.179956 0.847182 0.000000
0.217068 0.846540 0.000000
0.254180 0.845898 0.000000
0.291291 0.845256 0.000000
0.328403 0.844613 0.000000
0.365515 0.843971 0.000000
0.402626 0.843329 0.000000
0.439738 0.842687 0.000000
0.476850 0.842044 0.000000
0.513962 0.841402 0.000000
0.551073 0.840760 0.000000
0.588185 0.840117 0.000000
0.625297 0.839475 0.000000
0.662408 0.838833 0.000000
0.699520 0.838191 0.000000
0.736632 0.837548 0.000000
0.773744 0.836906 0.000000
0.810855 0.836264 0.000000
0.847967 0.835622 0.000000
0.885079 0.834979 0.000000
0.922190 0.834337 0.000000
0.959302 0.833695 0.000000
0.996414 0.833053 0.000000
0.997716 0.833030 0.000000
0.997716 0.833030 0.000000
0.000000 0.889681 0.000000
0.000000 0.889681 0.000000
0.000000 0.889659 0.000000
0.000000 0.889017 0.000000
0.029512 0.888374 0.000000
0.066623 0.887732 0.000000
0.103735 0.887090 0.000000
0.140847 0.886448 0.000000
0.177959 0.885805 0.000000
0.215070 0.885163 0.000000
0.252182 0.884521 0.000000
0.289294 0.883879 0.000000
0.326405 0.883236 0.000000
0.363517 0.882594 0.000000
0.400629 0.881952 0.000000
0.437741 0.881309 0.000000
0.474852 0.880667 0.000000
0.511964 0.880025 0.000000
0.549076 0.879383 0.000000
0.586187 0.878740 0.000000
0.623299 0.878098 0.000000
0.660411 0.877456 0.000000
0.697523 0.876814 0.000000
0.734634 0.876171 0.000000
0.771746 0.875529 0.000000
0.808858 0.874887 0.000000
0.845969 0.874245 0.000000
0.883081 0.873602 0.000000
0.920193 0.872960 0.000000
0.957304 0.872318 0.000000
0.994416 0.871675 0.000000
0.995718 0.871653 0.000000
0.995718 0.871653 0.000000
0.000000 0.928304 0.000000
0.000000 0.928304 0.000000
0.000000 0.928282 0.000000
0.000000 0.927639 0.000000
0.027514 0.926997 0.000000
0.064626 0.926355 0.000000
0.101738 0.925713 0.000000
0.138849 0.925070 0.000000
0.175961 0.924428 0.000000
0.213073 0.923786 0.000000
0.250184 0.923144 0.000000
0.287296 0.922501 0.000000
0.324408 0.921859 0.000000
0.361520 0.921217 0.000000
0.398631 0.920575 0.000000
0.435743 0.919932 0.000000
0.472855 0.919290 0.000000
0.509966 0.918648 0.000000
0.547078 0.918006 0.000000
0.584190 0.917363 0.000000
0.621301 0.916721 0.000000
0.658413 0.916079 0.000000
0.695525 0.915436 0.000000
0.732637 0.914794 0.000000
0.769748 0.914152 0.000000
0.806860 0.913510 0.000000
0.843972 0.912867 0.000000
0.881084 0.912225 0.000000
0.918195 0.911583 0.000000
