shared/luts/sony_fl_approx.cube
TITLE "Sony FL approx"
LUT_3D_SIZE 9
0.056752 0.063702 0.064665
0.105278 0.063708 0.063095
0.230162 0.063722 0.059055
0.355627 0.063736 0.054997
0.481674 0.063750 0.050921
0.608302 0.063765 0.046827
0.735512 0.063779 0.042714
0.863303 0.063793 0.038584
0.913277 0.063799 0.036969
0.057442 0.117593 0.064427
0.106117 0.117605 0.062852
0.231382 0.117634 0.058800
0.357229 0.117663 0.054730
0.483657 0.117693 0.050642
0.610667 0.117722 0.046536
0.738258 0.117752 0.042412
0.866431 0.117781 0.038271
0.916554 0.117793 0.036651
0.059215 0.256017 0.063815
0.108272 0.256044 0.062229
0.234515 0.256112 0.058146
0.361340 0.256180 0.054046
0.488747 0.256249 0.049928
0.616735 0.256317 0.045792
0.745305 0.256386 0.041638
0.874456 0.256454 0.037465
0.924960 0.256481 0.035834
0.060991 0.394703 0.063203
0.110429 0.394745 0.061605
0.237651 0.394852 0.057492
0.365454 0.394960 0.053362
0.493839 0.395067 0.049214
0.622806 0.395174 0.045047
0.752354 0.395282 0.040863
0.882483 0.395389 0.036660
0.933369 0.395431 0.035017
0.062769 0.533651 0.062591
0.112588 0.533708 0.060981
0.240789 0.533855 0.056839
0.369571 0.534001 0.052678
0.498934 0.534147 0.048499
0.628879 0.534294 0.044303
0.759406 0.534440 0.040088
0.890513 0.534586 0.035855
0.941781 0.534643 0.034200
0.064550 0.672862 0.061980
0.114750 0.672934 0.060358
0.243929 0.673119 0.056185
0.373690 0.673305 0.051994
0.504032 0.673490 0.047785
0.634955 0.673675 0.043558
0.766460 0.673860 0.039313
0.898546 0.674046 0.035050
0.950195 0.674118 0.033383
0.066333 0.812334 0.061368
0.116915 0.812422 0.059734
0.247072 0.812646 0.055531
0.377811 0.812870 0.051310
0.509132 0.813094 0.047071
0.641033 0.813319 0.042813
0.773517 0.813543 0.038538
0.906581 0.813767 0.034245
0.958611 0.813855 0.032567
0.068119 0.952069 0.060756
0.119082 0.952172 0.059111
0.250218 0.952435 0.054877
0.381935 0.952698 0.050626
0.514234 0.952961 0.046356
0.647114 0.953224 0.042069
0.780576 0.953488 0.037763
0.914619 0.953751 0.033440
0.967031 0.953854 0.031750
0.068816 1.000000 0.060517
0.119928 1.000000 0.058867
0.251445 1.000000 0.054622
0.383544 1.000000 0.050359
0.516224 1.000000 0.046078
0.649485 1.000000 0.041778
0.783328 1.000000 0.037461
0.917753 1.000000 0.033126
0.970313 1.000000 0.031431
0.056769 0.064795 0.121893
0.105310 0.064799 0.120262
0.230233 0.064810 0.116068
0.355736 0.064822 0.111855
0.481822 0.064833 0.107624
0.608488 0.064844 0.103376
0.735737 0.064856 0.099109
0.863566 0.064867 0.094824
0.913556 0.064871 0.093149
0.057460 0.118684 0.121453
0.106149 0.118694 0.119818
0.231453 0.118720 0.115612
0.357338 0.118747 0.111387
0.483805 0.118773 0.107145
0.610853 0.118800 0.102884
0.738483 0.118826 0.098606
0.866694 0.118853 0.094309
0.916832 0.118863 0.092629
0.059233 0.257103 0.120325
0.108304 0.257128 0.118679
0.234586 0.257194 0.114442
0.361450 0.257259 0.110187
0.488895 0.257325 0.105914
0.616922 0.257390 0.101624
0.745530 0.257456 0.097315
0.874719 0.257521 0.092988
0.925239 0.257547 0.091297
0.061009 0.395784 0.119198
0.110461 0.395825 0.117539
0.237722 0.395930 0.113272
0.365564 0.396034 0.108987
0.493987 0.396138 0.104684
0.622992 0.396243 0.100363
0.752579 0.396347 0.096024
0.882747 0.396452 0.091667
0.933648 0.396492 0.089964
0.062787 0.534728 0.118070
0.112621 0.534784 0.116400
0.240860 0.534927 0.112102
0.369680 0.535071 0.107787
0.499082 0.535214 0.103454
0.629066 0.535357 0.099103
0.759631 0.535501 0.094733
0.890777 0.535644 0.090346
0.942059 0.535700 0.088631
0.064568 0.673934 0.116942
0.114783 0.674005 0.115260
0.244001 0.674187 0.110933
0.373799 0.674369 0.106587
0.504180 0.674552 0.102224
0.635142 0.674734 0.097842
0.766685 0.674917 0.093443
0.898810 0.675099 0.089025
0.950473 0.675170 0.087298
0.066351 0.813402 0.115815
0.116948 0.813488 0.114121
0.247144 0.813709 0.109763
0.377921 0.813930 0.105387
0.509280 0.814152 0.100993
0.641220 0.814373 0.096582
0.773742 0.814594 0.092152
0.906845 0.814816 0.087704
0.958890 0.814902 0.085966
0.068137 0.953132 0.114687
0.119115 0.953233 0.112981
0.250289 0.953493 0.108593
0.382045 0.953754 0.104187
0.514382 0.954014 0.099763
0.647301 0.954274 0.095321
0.780801 0.954535 0.090861
0.914883 0.954795 0.086383
0.967309 0.954896 0.084633
0.068834 1.000000 0.114247
0.119961 1.000000 0.112537
0.251516 1.000000 0.108137
0.383653 1.000000 0.103719
0.516372 1.000000 0.099284
0.649672 1.000000 0.094830
0.783554 1.000000 0.090358
0.918017 1.000000 0.085868
0.970592 1.000000 0.084113
0.056814 0.067593 0.268508
0.105393 0.067595 0.266723
0.230414 0.067599 0.262132
0.356017 0.067602 0.257522
0.482201 0.067606 0.252895
0.608966 0.067610 0.248250
0.736313 0.067614 0.243587
0.864242 0.067618 0.238906
0.914270 0.067619 0.237076
0.057504 0.121478 0.267552
0.106233 0.121485 0.265763
0.231635 0.121504 0.261160
0.357619 0.121523 0.256539
0.484185 0.121542 0.251900
0.611331 0.121561 0.247243
0.739060 0.121580 0.242568
0.867370 0.121599 0.237875
0.917546 0.121606 0.236041
0.059278 0.259885 0.265101
0.108387 0.259908 0.263300
0.234768 0.259966 0.258666
0.361731 0.260024 0.254015
0.489275 0.260081 0.249346
0.617400 0.260139 0.244659
0.746107 0.260197 0.239954
0.875395 0.260255 0.235231
0.925953 0.260278 0.233385
0.061054 0.398554 0.262650
0.110545 0.398592 0.260837
0.237904 0.398689 0.256173
0.365845 0.398786 0.251492
0.494367 0.398883 0.246792
0.623471 0.398980 0.242075
0.753156 0.399077 0.237340
0.883423 0.399174 0.232586
0.934362 0.399212 0.230728
0.062832 0.537486 0.260199
0.112704 0.537539 0.258374
0.241042 0.537675 0.253680
0.369961 0.537811 0.248969
0.499462 0.537947 0.244239
0.629544 0.538083 0.239491
0.760208 0.538219 0.234726
0.891453 0.538354 0.229942
0.942774 0.538407 0.228072
0.064613 0.676680 0.257748
0.114867 0.676748 0.255911
0.244183 0.676923 0.251187
0.374081 0.677098 0.246445
0.504560 0.677272 0.241685
0.635620 0.677447 0.236907
0.767262 0.677622 0.232111
0.899486 0.677797 0.227298
0.951188 0.677865 0.225416
0.066396 0.816136 0.255297
0.117032 0.816219 0.253448
0.247326 0.816433 0.248694
0.378202 0.816647 0.243922
0.509660 0.816860 0.239132
0.641699 0.817074 0.234323
0.774319 0.817288 0.229497
0.907521 0.817502 0.224653
0.959605 0.817585 0.222760
0.068182 0.955854 0.252846
0.119199 0.955952 0.250985
0.250472 0.956205 0.246201
0.382327 0.956458 0.241398
0.514762 0.956711 0.236578
0.647780 0.956963 0.231740
0.781379 0.957216 0.226883
0.915559 0.957469 0.222009
0.968024 0.957568 0.220104
0.068879 1.000000 0.251890
0.120045 1.000000 0.250025
0.251699 1.000000 0.245229
0.383935 1.000000 0.240415
0.516752 1.000000 0.235582
0.650151 1.000000 0.230732
0.784131 1.000000 0.225864
0.918693 1.000000 0.220978
0.971307 1.000000 0.219068
0.056859 0.070387 0.414855
0.105477 0.070385 0.412916
0.230596 0.070382 0.407928
0.356298 0.070378 0.402923
0.482580 0.070374 0.397899
0.609445 0.070371 0.392857
0.736890 0.070367 0.387798
0.864917 0.070363 0.382720
0.914984 0.070362 0.380736
0.057549 0.124267 0.413384
0.106316 0.124271 0.411440
0.231817 0.124283 0.406440
0.357900 0.124294 0.401423
0.484564 0.124306 0.396388
0.611810 0.124317 0.391334
0.739637 0.124329 0.386263
0.868045 0.124340 0.381174
0.918260 0.124345 0.379185
0.059323 0.262662 0.409609
0.108471 0.262682 0.407654
0.234950 0.262732 0.402624
0.362012 0.262783 0.397576
0.489654 0.262833 0.392511
0.617878 0.262883 0.387427
0.746684 0.262934 0.382325
0.876071 0.262984 0.377206
0.926667 0.263004 0.375205
0.061099 0.401319 0.405835
0.110628 0.401354 0.403867
0.238086 0.401444 0.398807
0.366126 0.401533 0.393730
0.494747 0.401623 0.388634
0.623949 0.401712 0.383520
0.753733 0.401801 0.378388
0.884099 0.401891 0.373238
0.935076 0.401926 0.371226
0.062877 0.540239 0.402060
0.112788 0.540289 0.400081
0.241225 0.540417 0.394991
0.370243 0.540546 0.389883
0.499842 0.540674 0.384757
0.630023 0.540803 0.379613
0.760785 0.540931 0.374450
0.892129 0.541059 0.369270
0.943488 0.541110 0.367246
0.064658 0.679421 0.398286
0.114951 0.679486 0.396295
0.244365 0.679653 0.391174
0.374362 0.679821 0.386036
0.504940 0.679988 0.380880
0.636099 0.680156 0.375705
0.767840 0.680323 0.370513
0.900162 0.680490 0.365303
0.951903 0.680555 0.363267
0.066442 0.818865 0.394512
0.117115 0.818945 0.392509
0.247509 0.819152 0.387358
0.378484 0.819358 0.382189
0.510040 0.819564 0.377003
0.642178 0.819771 0.371798
0.774897 0.819977 0.366575
0.908197 0.820183 0.361335
0.960320 0.820264 0.359287
0.068228 0.958571 0.390737
0.119283 0.958667 0.388722
0.250655 0.958912 0.383541
0.382608 0.959157 0.378342
0.515143 0.959402 0.373126
0.648259 0.959648 0.367891
0.781956 0.959893 0.362638
0.916235 0.960138 0.357367
0.968739 0.960234 0.355308
0.068925 1.000000 0.389266
0.120129 1.000000 0.387246
0.251882 1.000000 0.382054
0.384216 1.000000 0.376843
0.517133 1.000000 0.371614
0.650630 1.000000 0.366368
0.784709 1.000000 0.361103
0.919370 1.000000 0.355820
0.972022 1.000000 0.353756
0.056903 0.073175 0.560936
0.105560 0.073171 0.558842
0.230778 0.073160 0.553458
0.356578 0.073149 0.548056
0.482960 0.073137 0.542636
0.609923 0.073126 0.537198
0.737467 0.073115 0.531742
0.865593 0.073104 0.526268
0.915698 0.073100 0.524129
0.057594 0.127050 0.558948
0.106399 0.127052 0.556850
0.231999 0.127056 0.551454
0.358181 0.127060 0.546040
0.484943 0.127064 0.540608
0.612288 0.127068 0.535159
0.740214 0.127072 0.529691
0.868721 0.127076 0.524205
0.918975 0.127078 0.522062
0.059368 0.265434 0.553851
0.108554 0.265451 0.551740
0.235133 0.265494 0.546314
0.362292 0.265536 0.540870
0.490034 0.265579 0.535408
0.618356 0.265622 0.529928
0.747261 0.265665 0.524430
0.876746 0.265708 0.518914
0.927381 0.265725 0.516759
0.061144 0.404079 0.548753
0.110712 0.404111 0.546631
0.238268 0.404193 0.541174
0.366407 0.404275 0.535700
0.495126 0.404357 0.530208
0.624428 0.404439 0.524697
0.754310 0.404521 0.519169
0.884774 0.404603 0.513623
0.935791 0.404635 0.511456
0.062922 0.542987 0.543655
0.112872 0.543034 0.541521
0.241407 0.543155 0.536034
0.370524 0.543276 0.530530
0.500222 0.543397 0.525007
0.630501 0.543518 0.519467
0.761362 0.543639 0.513908
0.892805 0.543760 0.508332
0.944203 0.543807 0.506153
0.064703 0.682157 0.538557
0.115034 0.682219 0.536411
0.244548 0.682379 0.530894
0.374643 0.682539 0.525360
0.505320 0.682699 0.519807
0.636578 0.682859 0.514236
0.768417 0.683018 0.508647
0.900838 0.683178 0.503041
0.952617 0.683241 0.500850
0.066487 0.821589 0.533459
0.117199 0.821666 0.531302
0.247691 0.821865 0.525755
0.378765 0.822064 0.520189
0.510420 0.822263 0.514606
0.642656 0.822462 0.509005
0.775474 0.822660 0.503386
0.908874 0.822859 0.497749
0.961034 0.822937 0.495547
0.068273 0.961283 0.528361
0.119367 0.961376 0.526192
0.250837 0.961613 0.520615
0.382889 0.961851 0.515019
0.515523 0.962089 0.509406
0.648738 0.962327 0.503775
0.782534 0.962565 0.498125
0.916912 0.962802 0.492458
0.969454 0.962895 0.490244
0.068970 1.000000 0.526374
0.120213 1.000000 0.524200
0.252065 1.000000 0.518611
0.384498 1.000000 0.513004
0.517513 1.000000 0.507379
0.651109 1.000000 0.501736
0.785287 1.000000 0.496075
0.920046 1.000000 0.490396
0.972737 1.000000 0.488177
0.056948 0.075959 0.706749
0.105643 0.075951 0.704501
0.230960 0.075933 0.698720
0.356859 0.075914 0.692922
0.483339 0.075895 0.687105
0.610401 0.075877 0.681271
0.738044 0.075858 0.675418
0.866269 0.075839 0.669548
0.916412 0.075832 0.667255
0.057639 0.129829 0.704246
0.106482 0.129828 0.701993
0.232181 0.129824 0.696200
0.358461 0.129821 0.690390
0.485323 0.129817 0.684562
0.612766 0.129814 0.678716
0.740790 0.129810 0.672852
0.869397 0.129807 0.666969
0.919689 0.129806 0.664671
0.059412 0.268201 0.697825
0.108637 0.268214 0.695560
0.235315 0.268250 0.689737
0.362573 0.268285 0.683897
0.490413 0.268321 0.678038
0.618835 0.268356 0.672162
0.747838 0.268392 0.666267
0.877422 0.268427 0.660355
0.928096 0.268441 0.658045
0.061189 0.406834 0.691403
0.110795 0.406863 0.689127
0.238451 0.406938 0.683274
0.366688 0.407012 0.677403
0.495506 0.407086 0.671514
0.624906 0.407161 0.665608
0.754887 0.407235 0.659683
0.885450 0.407310 0.653740
0.936505 0.407339 0.651419
0.062967 0.545730 0.684982
0.112955 0.545774 0.682694
0.241589 0.545887 0.676811
0.370805 0.546001 0.670910
0.500602 0.546114 0.664991
0.630980 0.546228 0.659054
0.761940 0.546341 0.653099
0.893481 0.546454 0.647126
0.944917 0.546499 0.644792
0.064749 0.684888 0.678561
0.115118 0.684947 0.676261
0.244730 0.685099 0.670347
0.374924 0.685252 0.664416
0.505700 0.685404 0.658467
0.637056 0.685556 0.652500
0.768995 0.685709 0.646514
0.901514 0.685861 0.640511
0.953332 0.685921 0.638166
0.066532 0.824308 0.672140
0.117283 0.824382 0.669828
0.247874 0.824573 0.663884
0.379046 0.824765 0.657923
0.510800 0.824956 0.651943
0.643135 0.825147 0.645946
0.776052 0.825339 0.639930
0.909550 0.825530 0.633897
0.961749 0.825605 0.631540
0.068319 0.963990 0.665718
0.119451 0.964080 0.663395
0.251020 0.964310 0.657421
0.383171 0.964540 0.651429
0.515903 0.964771 0.645419
0.649217 0.965001 0.639392
0.783112 0.965231 0.633346
0.917588 0.965461 0.627282
0.970169 0.965551 0.624913
0.069016 1.000000 0.663215
0.120297 1.000000 0.660887
0.252247 1.000000 0.654901
0.384779 1.000000 0.648898
0.517893 1.000000 0.642876
0.651588 1.000000 0.636837
0.785864 1.000000 0.630779
0.920723 1.000000 0.624704
0.973452 1.000000 0.622330
0.056993 0.078737 0.852295
0.105726 0.078727 0.849892
0.231142 0.078701 0.843715
0.357140 0.078675 0.837520
0.483718 0.078648 0.831307
0.610879 0.078622 0.825076
0.738621 0.078596 0.818828
0.866944 0.078570 0.812561
0.917126 0.078560 0.810113
0.057683 0.132603 0.849276
0.106566 0.132599 0.846868
0.232363 0.132588 0.840680
0.358742 0.132577 0.834473
0.485702 0.132566 0.828248
0.613244 0.132555 0.822006
0.741367 0.132544 0.815745
0.870072 0.132533 0.809466
0.920403 0.132528 0.807014
0.059457 0.270962 0.841531
0.108721 0.270973 0.839112
0.235497 0.271001 0.832893
0.362854 0.271029 0.826656
0.490793 0.271057 0.820401
0.619313 0.271085 0.814128
0.748415 0.271113 0.807837
0.878098 0.271141 0.801528
0.928810 0.271152 0.799064
0.061234 0.409584 0.833787
0.110879 0.409610 0.831356
0.238633 0.409677 0.825106
0.366969 0.409744 0.818839
0.495886 0.409811 0.812554
0.625385 0.409878 0.806251
0.755465 0.409945 0.799930
0.886126 0.410012 0.793590
0.937220 0.410038 0.791114
0.063012 0.548468 0.826042
0.113039 0.548509 0.823599
0.241772 0.548615 0.817320
0.371086 0.548721 0.811022
0.500981 0.548827 0.804707
0.631458 0.548932 0.798373
0.762517 0.549038 0.792022
0.894157 0.549144 0.785653
0.945632 0.549186 0.783165
0.064794 0.687613 0.818298
0.115202 0.687670 0.815843
0.244913 0.687815 0.809533
0.375205 0.687960 0.803205
0.506079 0.688104 0.796860
0.637535 0.688249 0.790496
0.769572 0.688394 0.784114
0.902190 0.688539 0.777715
0.954047 0.688596 0.775215
0.066578 0.827021 0.810553
0.117367 0.827093 0.808086
0.248057 0.827277 0.801746
0.379328 0.827461 0.795388
0.511180 0.827645 0.789012
0.643614 0.827828 0.782619
0.776629 0.828012 0.776207
0.910226 0.828196 0.769777
0.962464 0.828268 0.767265
0.068364 0.966692 0.802808
0.119535 0.966778 0.800330
0.251203 0.967001 0.793960
0.383452 0.967224 0.787571
0.516283 0.967447 0.781165
0.649696 0.967670 0.774741
0.783689 0.967892 0.768299
0.918265 0.968115 0.761839
0.970884 0.968202 0.759316
0.069061 1.000000 0.799789
0.120381 1.000000 0.797306
0.252430 1.000000 0.790924
0.385061 1.000000 0.784524
0.518273 1.000000 0.778106
0.652067 1.000000 0.771670
0.786442 1.000000 0.765216
0.921399 1.000000 0.758744
0.974167 1.000000 0.756217
0.057037 0.081510 0.997574
0.105809 0.081497 0.995016
0.231324 0.081464 0.988443
0.357420 0.081430 0.981852
0.484098 0.081396 0.975242
0.611357 0.081363 0.968615
0.739198 0.081329 0.961970
0.867620 0.081295 0.955306
0.917840 0.081282 0.952704
0.057728 0.135371 0.994039
0.106649 0.135364 0.991477
0.232545 0.135346 0.984892
0.359023 0.135327 0.978289
0.486082 0.135309 0.971667
0.613722 0.135290 0.965028
0.741944 0.135272 0.958371
0.870748 0.135253 0.951696
0.921117 0.135246 0.949089
0.059502 0.273719 0.984971
0.108804 0.273727 0.982397
0.235679 0.273747 0.975782
0.363135 0.273768 0.969148
0.491172 0.273788 0.962497
0.619791 0.273809 0.955827
0.748992 0.273829 0.949140
0.878774 0.273850 0.942435
0.929524 0.273858 0.939816
0.061279 0.412328 0.975903
0.110962 0.412352 0.973317
0.238815 0.412411 0.966672
0.367250 0.412470 0.960008
0.496266 0.412530 0.953326
0.625863 0.412589 0.946627
0.756042 0.412649 0.939909
0.886802 0.412708 0.933173
0.937934 0.412732 0.930543
0.063058 0.551200 0.966835
0.113123 0.551238 0.964238
0.241954 0.551337 0.957561
0.371367 0.551435 0.950868
0.501361 0.551534 0.944156
0.631937 0.551632 0.937426
0.763094 0.551731 0.930678
0.894833 0.551829 0.923912
0.946346 0.551867 0.921270
0.064839 0.690334 0.957767
0.115285 0.690388 0.955158
0.245095 0.690525 0.948452
0.375487 0.690662 0.941727
0.506459 0.690800 0.934985
0.638014 0.690937 0.928225
0.770149 0.691074 0.921447
0.902866 0.691212 0.914651
0.954761 0.691265 0.911997
0.066623 0.829730 0.948699
0.117451 0.829799 0.946078
0.248239 0.829975 0.939341
0.379609 0.830151 0.932587
0.511560 0.830328 0.925815
0.644093 0.830504 0.919024
0.777207 0.830680 0.912216
0.910903 0.830857 0.905390
0.963179 0.830926 0.902724
0.068410 0.969388 0.939631
0.119619 0.969472 0.936998
0.251386 0.969687 0.930231
0.383734 0.969903 0.923447
0.516663 0.970118 0.916644
0.650174 0.970334 0.909824
0.784267 0.970549 0.902985
0.918941 0.970764 0.896128
0.971599 0.970848 0.893451
0.069107 1.000000 0.936096
0.120465 1.000000 0.933459
0.252613 1.000000 0.926680
0.385342 1.000000 0.919884
0.518653 1.000000 0.913069
0.652546 1.000000 0.906237
0.787020 1.000000 0.899386
0.922075 1.000000 0.892518
0.974882 1.000000 0.889836
0.057055 0.082590 1.000000
0.105842 0.082576 1.000000
0.231395 0.082539 1.000000
0.357530 0.082503 1.000000
0.484246 0.082466 1.000000
0.611543 0.082429 1.000000
0.739423 0.082393 1.000000
0.867883 0.082356 1.000000
0.918118 0.082342 1.000000
0.057746 0.136449 1.000000
0.106681 0.136441 1.000000
0.232616 0.136420 1.000000
0.359132 0.136398 1.000000
0.486230 0.136377 1.000000
0.613909 0.136355 1.000000
0.742169 0.136334 1.000000
0.871011 0.136313 1.000000
0.921395 0.136304 1.000000
0.059520 0.274792 1.000000
0.108837 0.274799 1.000000
0.235750 0.274816 1.000000
0.363244 0.274834 1.000000
0.491320 0.274852 1.000000
0.619978 0.274869 1.000000
0.749217 0.274887 1.000000
0.879037 0.274904 0.997292
0.929803 0.274911 0.994613
0.061296 0.413397 1.000000
0.110995 0.413419 1.000000
0.238886 0.413476 1.000000
0.367359 0.413532 1.000000
0.496414 0.413589 1.000000
0.626049 0.413645 1.000000
0.756267 0.413702 0.994405
0.887066 0.413758 0.987515
0.938212 0.413780 0.984824
0.063075 0.552264 1.000000
0.113155 0.552301 1.000000
0.242025 0.552397 1.000000
0.371476 0.552492 1.000000
0.501509 0.552588 0.998445
0.632124 0.552683 0.991561
0.763319 0.552779 0.984658
0.895097 0.552874 0.977738
0.946625 0.552912 0.975035
0.064857 0.691393 1.000000
0.115318 0.691446 1.000000
0.245166 0.691580 1.000000
0.375596 0.691715 0.995655
0.506608 0.691849 0.988758
0.638200 0.691984 0.981844
0.770374 0.692118 0.974911
0.903130 0.692252 0.967961
0.955040 0.692305 0.965246
0.066641 0.830785 1.000000
0.117484 0.830852 0.999799
0.248310 0.831026 0.992908
0.379719 0.831199 0.985999
0.511708 0.831372 0.979072
0.644279 0.831546 0.972127
0.777432 0.831719 0.965164
0.911166 0.831893 0.958183
0.963457 0.831960 0.955457
0.068428 0.970438 0.992896
0.119652 0.970521 0.990203
0.251457 0.970733 0.983282
0.383843 0.970946 0.976343
0.516812 0.971158 0.969386
0.650361 0.971371 0.962411
0.784492 0.971583 0.955417
0.919205 0.971795 0.948406
0.971877 0.971878 0.945668
0.069125 1.000000 0.989160
0.120498 1.000000 0.986462
0.252684 1.000000 0.979530
0.385452 1.000000 0.972579
0.518802 1.000000 0.965610
0.652733 1.000000 0.958623
0.787245 1.000000 0.951618
0.922339 1.000000 0.944595
0.975160 1.000000 0.941852
