shared/luts/sony_fl_approx.cube
TITLE "Sony FL approx"
LUT_3D_SIZE 5
0.056752 0.063702 0.064665
0.230162 0.063722 0.059055
0.481674 0.063750 0.050921
0.735512 0.063779 0.042714
0.913277 0.063799 0.036969
0.059215 0.256017 0.063815
0.234515 0.256112 0.058146
0.488747 0.256249 0.049928
0.745305 0.256386 0.041638
0.924960 0.256481 0.035834
0.062769 0.533651 0.062591
0.240789 0.533855 0.056839
0.498934 0.534147 0.048499
0.759406 0.534440 0.040088
0.941781 0.534643 0.034200
0.066333 0.812334 0.061368
0.247072 0.812646 0.055531
0.509132 0.813094 0.047071
0.773517 0.813543 0.038538
0.958611 0.813855 0.032567
0.068816 1.000000 0.060517
0.251445 1.000000 0.054622
0.516224 1.000000 0.046078
0.783328 1.000000 0.037461
0.970313 1.000000 0.031431
0.056814 0.067593 0.268508
0.230414 0.067599 0.262132
0.482201 0.067606 0.252895
0.736313 0.067614 0.243587
0.914270 0.067619 0.237076
0.059278 0.259885 0.265101
0.234768 0.259966 0.258666
0.489275 0.260081 0.249346
0.746107 0.260197 0.239954
0.925953 0.260278 0.233385
0.062832 0.537486 0.260199
0.241042 0.537675 0.253680
0.499462 0.537947 0.244239
0.760208 0.538219 0.234726
0.942774 0.538407 0.228072
0.066396 0.816136 0.255297
0.247326 0.816433 0.248694
0.509660 0.816860 0.239132
0.774319 0.817288 0.229497
0.959605 0.817585 0.222760
0.068879 1.000000 0.251890
0.251699 1.000000 0.245229
0.516752 1.000000 0.235582
0.784131 1.000000 0.225864
0.971307 1.000000 0.219068
0.056903 0.073175 0.560936
0.230778 0.073160 0.553458
0.482960 0.073137 0.542636
0.737467 0.073115 0.531742
0.915698 0.073100 0.524129
0.059368 0.265434 0.553851
0.235133 0.265494 0.546314
0.490034 0.265579 0.535408
0.747261 0.265665 0.524430
0.927381 0.265725 0.516759
0.062922 0.542987 0.543655
0.241407 0.543155 0.536034
0.500222 0.543397 0.525007
0.761362 0.543639 0.513908
0.944203 0.543807 0.506153
0.066487 0.821589 0.533459
0.247691 0.821865 0.525755
0.510420 0.822263 0.514606
0.775474 0.822660 0.503386
0.961034 0.822937 0.495547
0.068970 1.000000 0.526374
0.252065 1.000000 0.518611
0.517513 1.000000 0.507379
0.785287 1.000000 0.496075
0.972737 1.000000 0.488177
0.056993 0.078737 0.852295
0.231142 0.078701 0.843715
0.483718 0.078648 0.831307
0.738621 0.078596 0.818828
0.917126 0.078560 0.810113
0.059457 0.270962 0.841531
0.235497 0.271001 0.832893
0.490793 0.271057 0.820401
0.748415 0.271113 0.807837
0.928810 0.271152 0.799064
0.063012 0.548468 0.826042
0.241772 0.548615 0.817320
0.500981 0.548827 0.804707
0.762517 0.549038 0.792022
0.945632 0.549186 0.783165
0.066578 0.827021 0.810553
0.248057 0.827277 0.801746
0.511180 0.827645 0.789012
0.776629 0.828012 0.776207
0.962464 0.828268 0.767265
0.069061 1.000000 0.799789
0.252430 1.000000 0.790924
0.518273 1.000000 0.778106
0.786442 1.000000 0.765216
0.974167 1.000000 0.756217
0.057055 0.082590 1.000000
0.231395 0.082539 1.000000
0.484246 0.082466 1.000000
0.739423 0.082393 1.000000
0.918118 0.082342 1.000000
0.059520 0.274792 1.000000
0.235750 0.274816 1.000000
0.491320 0.274852 1.000000
0.749217 0.274887 1.000000
0.929803 0.274911 0.994613
0.063075 0.552264 1.000000
0.242025 0.552397 1.000000
0.501509 0.552588 0.998445
0.763319 0.552779 0.984658
0.946625 0.552912 0.975035
0.066641 0.830785 1.000000
0.248310 0.831026 0.992908
0.511708 0.831372 0.979072
0.777432 0.831719 0.965164
0.963457 0.831960 0.955457
0.069125 1.000000 0.989160
0.252684 1.000000 0.979530
0.518802 1.000000 0.965610
0.787245 1.000000 0.951618
0.975160 1.000000 0.941852
