shared/luts/sony_vv2_approx.cube
TITLE "Sony VV2 approx"
LUT_3D_SIZE 33
0.003562 0.011346 0.012425
0.003562 0.011346 0.012425
0.003562 0.011346 0.012425
0.023045 0.011349 0.011795
0.057911 0.011353 0.010667
0.092818 0.011357 0.009537
0.127765 0.011361 0.008407
0.162752 0.011365 0.007275
0.197781 0.011369 0.006142
0.232850 0.011373 0.005007
0.267960 0.011377 0.003872
0.303111 0.011381 0.002735
0.338302 0.011385 0.001597
0.373534 0.011389 0.000457
0.408807 0.011393 0.000000
0.444120 0.011397 0.000000
0.479475 0.011400 0.000000
0.514870 0.011405 0.000000
0.550305 0.011408 0.000000
0.585781 0.011412 0.000000
0.621298 0.011416 0.000000
0.656856 0.011420 0.000000
0.692454 0.011424 0.000000
0.728093 0.011428 0.000000
0.763773 0.011432 0.000000
0.799493 0.011436 0.000000
0.835255 0.011440 0.000000
0.871057 0.011444 0.000000
0.906899 0.011448 0.000000
0.942783 0.011452 0.000000
0.962871 0.011454 0.000000
0.962871 0.011454 0.000000
0.962871 0.011454 0.000000
0.003562 0.011346 0.012425
0.003562 0.011346 0.012425
0.003562 0.011346 0.012425
0.023045 0.011349 0.011795
0.057911 0.011353 0.010667
0.092818 0.011357 0.009537
0.127765 0.011361 0.008407
0.162752 0.011365 0.007275
0.197781 0.011369 0.006142
0.232850 0.011373 0.005007
0.267960 0.011377 0.003872
0.303111 0.011381 0.002735
0.338302 0.011385 0.001597
0.373534 0.011389 0.000457
0.408807 0.011393 0.000000
0.444120 0.011397 0.000000
0.479475 0.011400 0.000000
0.514870 0.011405 0.000000
0.550305 0.011408 0.000000
0.585781 0.011412 0.000000
0.621298 0.011416 0.000000
0.656856 0.011420 0.000000
0.692454 0.011424 0.000000
0.728093 0.011428 0.000000
0.763773 0.011432 0.000000
0.799493 0.011436 0.000000
0.835255 0.011440 0.000000
0.871057 0.011444 0.000000
0.906899 0.011448 0.000000
0.942783 0.011452 0.000000
0.962871 0.011454 0.000000
0.962871 0.011454 0.000000
0.962871 0.011454 0.000000
0.003562 0.011346 0.012425
0.003562 0.011346 0.012425
0.003562 0.011346 0.012425
0.023045 0.011349 0.011795
0.057911 0.011353 0.010667
0.092818 0.011357 0.009537
0.127765 0.011361 0.008407
0.162752 0.011365 0.007275
0.197781 0.011369 0.006142
0.232850 0.011373 0.005007
0.267960 0.011377 0.003872
0.303111 0.011381 0.002735
0.338302 0.011385 0.001597
0.373534 0.011389 0.000457
0.408807 0.011393 0.000000
0.444120 0.011397 0.000000
0.479475 0.011400 0.000000
0.514870 0.011405 0.000000
0.550305 0.011408 0.000000
0.585781 0.011412 0.000000
0.621298 0.011416 0.000000
0.656856 0.011420 0.000000
0.692454 0.011424 0.000000
0.728093 0.011428 0.000000
0.763773 0.011432 0.000000
0.799493 0.011436 0.000000
0.835255 0.011440 0.000000
0.871057 0.011444 0.000000
0.906899 0.011448 0.000000
0.942783 0.011452 0.000000
0.962871 0.011454 0.000000
0.962871 0.011454 0.000000
0.962871 0.011454 0.000000
0.003839 0.032991 0.012329
0.003839 0.032991 0.012329
0.003839 0.032991 0.012329
0.023344 0.032995 0.011698
0.058248 0.033000 0.010569
0.093193 0.033006 0.009438
0.128178 0.033011 0.008307
0.163205 0.033017 0.007174
0.198271 0.033022 0.006039
0.233379 0.033028 0.004904
0.268527 0.033033 0.003767
0.303716 0.033039 0.002629
0.338946 0.033044 0.001489
0.374216 0.033050 0.000349
0.409527 0.033055 0.000000
0.444879 0.033061 0.000000
0.480271 0.033066 0.000000
0.515705 0.033072 0.000000
0.551178 0.033077 0.000000
0.586693 0.033083 0.000000
0.622248 0.033088 0.000000
0.657844 0.033094 0.000000
0.693481 0.033099 0.000000
0.729158 0.033105 0.000000
0.764876 0.033110 0.000000
0.800635 0.033116 0.000000
0.836435 0.033121 0.000000
0.872275 0.033127 0.000000
0.908156 0.033132 0.000000
0.944077 0.033138 0.000000
0.964187 0.033141 0.000000
0.964187 0.033141 0.000000
0.964187 0.033141 0.000000
0.004335 0.071704 0.012158
0.004335 0.071704 0.012158
0.004335 0.071704 0.012158
0.023879 0.071709 0.011526
0.058851 0.071717 0.010394
0.093864 0.071725 0.009262
0.128918 0.071734 0.008128
0.164013 0.071742 0.006993
0.199148 0.071750 0.005856
0.234324 0.071758 0.004718
0.269541 0.071767 0.003580
0.304798 0.071775 0.002439
0.340097 0.071783 0.001298
0.375435 0.071791 0.000155
0.410815 0.071799 0.000000
0.446235 0.071808 0.000000
0.481696 0.071816 0.000000
0.517198 0.071824 0.000000
0.552740 0.071832 0.000000
0.588323 0.071841 0.000000
0.623947 0.071849 0.000000
0.659611 0.071857 0.000000
0.695317 0.071865 0.000000
0.731062 0.071874 0.000000
0.766849 0.071882 0.000000
0.802676 0.071890 0.000000
0.838544 0.071898 0.000000
0.874453 0.071907 0.000000
0.910402 0.071915 0.000000
0.946392 0.071923 0.000000
0.966540 0.071928 0.000000
0.966540 0.071928 0.000000
0.966540 0.071928 0.000000
0.004832 0.110435 0.011987
0.004832 0.110435 0.011987
0.004832 0.110435 0.011987
0.024413 0.110442 0.011353
0.059454 0.110453 0.010220
0.094536 0.110464 0.009085
0.129658 0.110475 0.007949
0.164821 0.110485 0.006812
0.200025 0.110496 0.005673
0.235270 0.110507 0.004533
0.270555 0.110518 0.003392
0.305881 0.110529 0.002250
0.341247 0.110540 0.001106
0.376655 0.110551 0.000000
0.412103 0.110562 0.000000
0.447591 0.110573 0.000000
0.483121 0.110584 0.000000
0.518691 0.110595 0.000000
0.554302 0.110606 0.000000
0.589954 0.110617 0.000000
0.625646 0.110628 0.000000
0.661379 0.110639 0.000000
0.697152 0.110650 0.000000
0.732967 0.110661 0.000000
0.768822 0.110672 0.000000
0.804718 0.110683 0.000000
0.840654 0.110694 0.000000
0.876631 0.110705 0.000000
0.912649 0.110716 0.000000
0.948708 0.110727 0.000000
0.968894 0.110733 0.000000
0.968894 0.110733 0.000000
0.968894 0.110733 0.000000
0.005328 0.149185 0.011815
0.005328 0.149185 0.011815
0.005328 0.149185 0.011815
0.024948 0.149193 0.011181
0.060057 0.149206 0.010045
0.095207 0.149220 0.008908
0.130398 0.149234 0.007770
0.165630 0.149247 0.006631
0.200902 0.149261 0.005490
0.236215 0.149275 0.004348
0.271569 0.149289 0.003205
0.306963 0.149302 0.002060
0.342399 0.149316 0.000915
0.377874 0.149330 0.000000
0.413391 0.149343 0.000000
0.448948 0.149357 0.000000
0.484546 0.149371 0.000000
0.520185 0.149384 0.000000
0.555864 0.149398 0.000000
0.591584 0.149412 0.000000
0.627345 0.149425 0.000000
0.663146 0.149439 0.000000
0.698988 0.149453 0.000000
0.734871 0.149466 0.000000
0.770795 0.149480 0.000000
0.806759 0.149494 0.000000
0.842764 0.149508 0.000000
0.878810 0.149521 0.000000
0.914896 0.149535 0.000000
0.951023 0.149549 0.000000
0.971247 0.149556 0.000000
0.971247 0.149556 0.000000
0.971247 0.149556 0.000000
0.005825 0.187953 0.011644
0.005825 0.187953 0.011644
0.005825 0.187953 0.011644
0.025483 0.187962 0.011008
0.060661 0.187978 0.009871
0.095879 0.187995 0.008732
0.131139 0.188011 0.007591
0.166439 0.188028 0.006450
0.201780 0.188044 0.005307
0.237161 0.188061 0.004163
0.272583 0.188077 0.003018
0.308046 0.188093 0.001871
0.343550 0.188110 0.000723
0.379094 0.188126 0.000000
0.414679 0.188143 0.000000
0.450305 0.188159 0.000000
0.485971 0.188175 0.000000
0.521678 0.188192 0.000000
0.557426 0.188208 0.000000
0.593215 0.188225 0.000000
0.629044 0.188241 0.000000
0.664914 0.188258 0.000000
0.700825 0.188274 0.000000
0.736776 0.188290 0.000000
0.772768 0.188307 0.000000
0.808801 0.188323 0.000000
0.844874 0.188340 0.000000
0.880988 0.188356 0.000000
0.917143 0.188372 0.000000
0.953339 0.188389 0.000000
0.973601 0.188398 0.000000
0.973601 0.188398 0.000000
0.973601 0.188398 0.000000
0.006321 0.226739 0.011473
0.006321 0.226739 0.011473
0.006321 0.226739 0.011473
0.026018 0.226750 0.010836
0.061264 0.226769 0.009696
0.096551 0.226788 0.008555
0.131879 0.226807 0.007412
0.167248 0.226826 0.006269
0.202657 0.226846 0.005124
0.238107 0.226865 0.003978
0.273598 0.226884 0.002830
0.309129 0.226903 0.001682
0.344701 0.226922 0.000532
0.380314 0.226941 0.000000
0.415968 0.226960 0.000000
0.451662 0.226980 0.000000
0.487397 0.226999 0.000000
0.523172 0.227018 0.000000
0.558989 0.227037 0.000000
0.594846 0.227056 0.000000
0.630743 0.227075 0.000000
0.666682 0.227094 0.000000
0.702661 0.227114 0.000000
0.738681 0.227133 0.000000
0.774741 0.227152 0.000000
0.810842 0.227171 0.000000
0.846984 0.227190 0.000000
0.883167 0.227209 0.000000
0.919390 0.227228 0.000000
0.955654 0.227248 0.000000
0.975955 0.227258 0.000000
0.975955 0.227258 0.000000
0.975955 0.227258 0.000000
0.006818 0.265544 0.011302
0.006818 0.265544 0.011302
0.006818 0.265544 0.011302
0.026553 0.265556 0.010663
0.061868 0.265578 0.009521
0.097224 0.265600 0.008378
0.132620 0.265622 0.007234
0.168057 0.265643 0.006088
0.203535 0.265665 0.004941
0.239053 0.265687 0.003793
0.274612 0.265709 0.002643
0.310212 0.265731 0.001492
0.345853 0.265753 0.000340
0.381534 0.265775 0.000000
0.417256 0.265797 0.000000
0.453019 0.265818 0.000000
0.488822 0.265840 0.000000
0.524667 0.265862 0.000000
0.560551 0.265884 0.000000
0.596477 0.265906 0.000000
0.632443 0.265928 0.000000
0.668450 0.265950 0.000000
0.704497 0.265972 0.000000
0.740586 0.265993 0.000000
0.776715 0.266015 0.000000
0.812884 0.266037 0.000000
0.849095 0.266059 0.000000
0.885346 0.266081 0.000000
0.921638 0.266103 0.000000
0.957970 0.266125 0.000000
0.978310 0.266137 0.000000
0.978310 0.266137 0.000000
0.978310 0.266137 0.000000
0.007315 0.304367 0.011130
0.007315 0.304367 0.011130
0.007315 0.304367 0.011130
0.027088 0.304380 0.010491
0.062472 0.304405 0.009347
0.097896 0.304430 0.008201
0.133361 0.304454 0.007055
0.168866 0.304479 0.005907
0.204413 0.304503 0.004758
0.240000 0.304528 0.003607
0.275627 0.304553 0.002456
0.311296 0.304577 0.001303
0.347005 0.304602 0.000149
0.382755 0.304626 0.000000
0.418545 0.304651 0.000000
0.454376 0.304676 0.000000
0.490248 0.304700 0.000000
0.526161 0.304725 0.000000
0.562114 0.304749 0.000000
0.598108 0.304774 0.000000
0.634143 0.304799 0.000000
0.670218 0.304823 0.000000
0.706334 0.304848 0.000000
0.742491 0.304872 0.000000
0.778688 0.304897 0.000000
0.814927 0.304922 0.000000
0.851206 0.304946 0.000000
0.887525 0.304971 0.000000
0.923886 0.304995 0.000000
0.960287 0.305020 0.000000
0.980664 0.305034 0.000000
0.980664 0.305034 0.000000
0.980664 0.305034 0.000000
0.007813 0.343208 0.010959
0.007813 0.343208 0.010959
0.007813 0.343208 0.010959
0.027624 0.343223 0.010318
0.063076 0.343250 0.009172
0.098569 0.343278 0.008025
0.134102 0.343305 0.006876
0.169676 0.343333 0.005726
0.205291 0.343360 0.004575
0.240946 0.343387 0.003422
0.276642 0.343414 0.002268
0.312379 0.343442 0.001113
0.348157 0.343469 0.000000
0.383975 0.343497 0.000000
0.419834 0.343524 0.000000
0.455734 0.343551 0.000000
0.491674 0.343578 0.000000
0.527655 0.343606 0.000000
0.563677 0.343633 0.000000
0.599739 0.343660 0.000000
0.635843 0.343688 0.000000
0.671986 0.343715 0.000000
0.708171 0.343742 0.000000
0.744396 0.343770 0.000000
0.780662 0.343797 0.000000
0.816969 0.343824 0.000000
0.853316 0.343852 0.000000
0.889705 0.343879 0.000000
0.926133 0.343906 0.000000
0.962603 0.343934 0.000000
0.983019 0.343949 0.000000
0.983019 0.343949 0.000000
0.983019 0.343949 0.000000
0.008310 0.382068 0.010788
0.008310 0.382068 0.010788
0.008310 0.382068 0.010788
0.028160 0.382084 0.010146
0.063680 0.382114 0.008997
0.099241 0.382144 0.007848
0.134843 0.382175 0.006697
0.170486 0.382205 0.005545
0.206169 0.382235 0.004392
0.241893 0.382265 0.003237
0.277657 0.382295 0.002081
0.313463 0.382325 0.000924
0.349309 0.382355 0.000000
0.385196 0.382385 0.000000
0.421123 0.382415 0.000000
0.457091 0.382445 0.000000
0.493100 0.382475 0.000000
0.529150 0.382505 0.000000
0.565240 0.382535 0.000000
0.601371 0.382565 0.000000
0.637543 0.382595 0.000000
0.673755 0.382625 0.000000
0.710008 0.382655 0.000000
0.746302 0.382685 0.000000
0.782636 0.382716 0.000000
0.819012 0.382746 0.000000
0.855427 0.382776 0.000000
0.891884 0.382806 0.000000
0.928381 0.382836 0.000000
0.964919 0.382866 0.000000
0.985374 0.382883 0.000000
0.985374 0.382883 0.000000
0.985374 0.382883 0.000000
0.008808 0.420946 0.010616
0.008808 0.420946 0.010616
0.008808 0.420946 0.010616
0.028696 0.420964 0.009973
0.064285 0.420997 0.008823
0.099914 0.421029 0.007671
0.135585 0.421062 0.006518
0.171296 0.421095 0.005364
0.207047 0.421128 0.004208
0.242840 0.421161 0.003052
0.278673 0.421193 0.001894
0.314547 0.421226 0.000734
0.350461 0.421259 0.000000
0.386416 0.421292 0.000000
0.422412 0.421324 0.000000
0.458449 0.421357 0.000000
0.494526 0.421390 0.000000
0.530645 0.421423 0.000000
0.566803 0.421456 0.000000
0.603003 0.421488 0.000000
0.639243 0.421521 0.000000
0.675524 0.421554 0.000000
0.711845 0.421587 0.000000
0.748208 0.421620 0.000000
0.784611 0.421652 0.000000
0.821054 0.421685 0.000000
0.857539 0.421718 0.000000
0.894064 0.421751 0.000000
0.930629 0.421783 0.000000
0.967236 0.421816 0.000000
0.987729 0.421835 0.000000
0.987729 0.421835 0.000000
0.987729 0.421835 0.000000
0.009305 0.459842 0.010445
0.009305 0.459842 0.010445
0.009305 0.459842 0.010445
0.029232 0.459862 0.009801
0.064889 0.459897 0.008648
0.100587 0.459933 0.007494
0.136326 0.459968 0.006339
0.172106 0.460004 0.005183
0.207926 0.460039 0.004025
0.243787 0.460075 0.002867
0.279688 0.460110 0.001706
0.315631 0.460146 0.000545
0.351614 0.460181 0.000000
0.387637 0.460217 0.000000
0.423702 0.460252 0.000000
0.459807 0.460288 0.000000
0.495953 0.460323 0.000000
0.532139 0.460359 0.000000
0.568367 0.460394 0.000000
0.604635 0.460430 0.000000
0.640943 0.460465 0.000000
0.677293 0.460501 0.000000
0.713683 0.460536 0.000000
0.750113 0.460572 0.000000
0.786585 0.460607 0.000000
0.823097 0.460643 0.000000
0.859650 0.460679 0.000000
0.896244 0.460714 0.000000
0.932878 0.460750 0.000000
0.969553 0.460785 0.000000
0.990084 0.460805 0.000000
0.990084 0.460805 0.000000
0.990084 0.460805 0.000000
0.009803 0.498757 0.010274
0.009803 0.498757 0.010274
0.009803 0.498757 0.010274
0.029768 0.498778 0.009628
0.065494 0.498816 0.008474
0.101261 0.498854 0.007318
0.137068 0.498893 0.006161
0.172916 0.498931 0.005002
0.208805 0.498969 0.003842
0.244734 0.499007 0.002681
0.280704 0.499046 0.001519
0.316715 0.499084 0.000356
0.352766 0.499122 0.000000
0.388859 0.499160 0.000000
0.424992 0.499199 0.000000
0.461165 0.499237 0.000000
0.497380 0.499275 0.000000
0.533635 0.499313 0.000000
0.569930 0.499352 0.000000
0.606267 0.499390 0.000000
0.642644 0.499428 0.000000
0.679062 0.499466 0.000000
0.715520 0.499504 0.000000
0.752020 0.499543 0.000000
0.788559 0.499581 0.000000
0.825140 0.499619 0.000000
0.861761 0.499657 0.000000
0.898424 0.499696 0.000000
0.935126 0.499734 0.000000
0.971870 0.499772 0.000000
0.992439 0.499794 0.000000
0.992439 0.499794 0.000000
0.992439 0.499794 0.000000
0.010302 0.537690 0.010102
0.010302 0.537690 0.010102
0.010302 0.537690 0.010102
0.030304 0.537712 0.009456
0.066099 0.537753 0.008299
0.101934 0.537795 0.007141
0.137810 0.537835 0.005982
0.173726 0.537876 0.004821
0.209683 0.537917 0.003659
0.245681 0.537958 0.002496
0.281720 0.537999 0.001332
0.317799 0.538040 0.000166
0.353919 0.538081 0.000000
0.390080 0.538122 0.000000
0.426281 0.538163 0.000000
0.462524 0.538204 0.000000
0.498806 0.538245 0.000000
0.535130 0.538286 0.000000
0.571494 0.538327 0.000000
0.607899 0.538368 0.000000
0.644345 0.538409 0.000000
0.680831 0.538450 0.000000
0.717358 0.538491 0.000000
0.753926 0.538532 0.000000
0.790534 0.538573 0.000000
0.827183 0.538614 0.000000
0.863873 0.538655 0.000000
0.900604 0.538696 0.000000
0.937375 0.538737 0.000000
0.974187 0.538778 0.000000
0.994794 0.538801 0.000000
0.994794 0.538801 0.000000
0.994794 0.538801 0.000000
0.010800 0.576641 0.009931
0.010800 0.576641 0.009931
0.010800 0.576641 0.009931
0.030841 0.576665 0.009283
0.066704 0.576709 0.008125
0.102608 0.576753 0.006964
0.138552 0.576797 0.005803
0.174537 0.576840 0.004640
0.210563 0.576884 0.003476
0.246629 0.576928 0.002311
0.282736 0.576971 0.001144
0.318884 0.577015 0.000000
0.355072 0.577059 0.000000
0.391302 0.577102 0.000000
0.427572 0.577146 0.000000
0.463882 0.577190 0.000000
0.500233 0.577233 0.000000
0.536625 0.577277 0.000000
0.573058 0.577321 0.000000
0.609532 0.577365 0.000000
0.646046 0.577408 0.000000
0.682600 0.577452 0.000000
0.719196 0.577496 0.000000
0.755832 0.577539 0.000000
0.792509 0.577583 0.000000
0.829227 0.577627 0.000000
0.865985 0.577670 0.000000
0.902784 0.577714 0.000000
0.939624 0.577758 0.000000
0.976504 0.577801 0.000000
0.997150 0.577826 0.000000
0.997150 0.577826 0.000000
0.997150 0.577826 0.000000
0.011298 0.615611 0.009760
0.011298 0.615611 0.009760
0.011298 0.615611 0.009760
0.031378 0.615637 0.009111
0.067309 0.615683 0.007950
0.103281 0.615730 0.006788
0.139294 0.615776 0.005624
0.175348 0.615822 0.004459
0.211442 0.615869 0.003293
0.247577 0.615915 0.002126
0.283752 0.615962 0.000957
0.319969 0.616008 0.000000
0.356226 0.616055 0.000000
0.392523 0.616101 0.000000
0.428862 0.616147 0.000000
0.465241 0.616194 0.000000
0.501661 0.616240 0.000000
0.538121 0.616287 0.000000
0.574622 0.616333 0.000000
0.611164 0.616379 0.000000
0.647747 0.616426 0.000000
0.684370 0.616472 0.000000
0.721034 0.616519 0.000000
0.757739 0.616565 0.000000
0.794484 0.616612 0.000000
0.831270 0.616658 0.000000
0.868097 0.616704 0.000000
0.904965 0.616751 0.000000
0.941873 0.616797 0.000000
0.978822 0.616844 0.000000
0.999506 0.616870 0.000000
0.999506 0.616870 0.000000
0.999506 0.616870 0.000000
0.011797 0.654599 0.009588
0.011797 0.654599 0.009588
0.011797 0.654599 0.009588
0.031915 0.654626 0.008938
0.067915 0.654675 0.007775
0.103955 0.654725 0.006611
0.140037 0.654774 0.005445
0.176159 0.654823 0.004278
0.212321 0.654872 0.003110
0.248525 0.654921 0.001941
0.284769 0.654970 0.000770
0.321053 0.655020 0.000000
0.357379 0.655069 0.000000
0.393745 0.655118 0.000000
0.430152 0.655167 0.000000
0.466600 0.655216 0.000000
0.503088 0.655265 0.000000
0.539617 0.655315 0.000000
0.576187 0.655364 0.000000
0.612797 0.655413 0.000000
0.649448 0.655462 0.000000
0.686140 0.655511 0.000000
0.722872 0.655560 0.000000
0.759646 0.655609 0.000000
0.796460 0.655658 0.000000
0.833314 0.655708 0.000000
0.870209 0.655757 0.000000
0.907146 0.655806 0.000000
0.944122 0.655855 0.000000
0.981140 0.655904 0.000000
1.000000 0.655932 0.000000
1.000000 0.655932 0.000000
1.000000 0.655932 0.000000
0.012296 0.693605 0.009417
0.012296 0.693605 0.009417
0.012296 0.693605 0.009417
0.032452 0.693634 0.008766
0.068520 0.693686 0.007601
0.104630 0.693738 0.006434
0.140779 0.693790 0.005266
0.176970 0.693842 0.004097
0.213201 0.693894 0.002927
0.249473 0.693946 0.001755
0.285785 0.693997 0.000582
0.322139 0.694049 0.000000
0.358533 0.694101 0.000000
0.394967 0.694153 0.000000
0.431443 0.694205 0.000000
0.467959 0.694257 0.000000
0.504515 0.694309 0.000000
0.541113 0.694360 0.000000
0.577751 0.694412 0.000000
0.614430 0.694464 0.000000
0.651150 0.694516 0.000000
0.687910 0.694568 0.000000
0.724711 0.694620 0.000000
0.761553 0.694672 0.000000
0.798435 0.694724 0.000000
0.835358 0.694775 0.000000
0.872322 0.694827 0.000000
0.909327 0.694879 0.000000
0.946372 0.694931 0.000000
0.983458 0.694983 0.000000
1.000000 0.695012 0.000000
1.000000 0.695012 0.000000
1.000000 0.695012 0.000000
0.012795 0.732630 0.009246
0.012795 0.732630 0.009246
0.012795 0.732630 0.009246
0.032990 0.732661 0.008593
0.069126 0.732715 0.007426
0.105304 0.732770 0.006257
0.141522 0.732824 0.005087
0.177781 0.732879 0.003916
0.214081 0.732934 0.002744
0.250421 0.732988 0.001570
0.286802 0.733043 0.000395
0.323224 0.733097 0.000000
0.359686 0.733152 0.000000
0.396189 0.733207 0.000000
0.432733 0.733261 0.000000
0.469318 0.733316 0.000000
0.505943 0.733370 0.000000
0.542609 0.733425 0.000000
0.579316 0.733480 0.000000
0.616063 0.733534 0.000000
0.652851 0.733589 0.000000
0.689680 0.733643 0.000000
0.726550 0.733698 0.000000
0.763460 0.733753 0.000000
0.800411 0.733807 0.000000
0.837402 0.733862 0.000000
0.874435 0.733916 0.000000
0.911507 0.733971 0.000000
0.948621 0.734026 0.000000
0.985776 0.734080 0.000000
1.000000 0.734111 0.000000
1.000000 0.734111 0.000000
1.000000 0.734111 0.000000
0.013294 0.771673 0.009075
0.013294 0.771673 0.009075
0.013294 0.771673 0.009075
0.033527 0.771705 0.008421
0.069732 0.771763 0.007251
0.105978 0.771820 0.006081
0.142265 0.771877 0.004909
0.178593 0.771935 0.003735
0.214961 0.771992 0.002561
0.251370 0.772049 0.001385
0.287819 0.772107 0.000208
0.324309 0.772164 0.000000
0.360840 0.772221 0.000000
0.397412 0.772279 0.000000
0.434024 0.772336 0.000000
0.470677 0.772393 0.000000
0.507371 0.772451 0.000000
0.544106 0.772508 0.000000
0.580881 0.772565 0.000000
0.617697 0.772623 0.000000
0.654553 0.772680 0.000000
0.691450 0.772737 0.000000
0.728388 0.772794 0.000000
0.765367 0.772852 0.000000
0.802386 0.772909 0.000000
0.839447 0.772967 0.000000
0.876547 0.773024 0.000000
0.913689 0.773081 0.000000
0.950871 0.773139 0.000000
0.988094 0.773196 0.000000
1.000000 0.773228 0.000000
1.000000 0.773228 0.000000
1.000000 0.773228 0.000000
0.013794 0.810735 0.008903
0.013794 0.810735 0.008903
0.013794 0.810735 0.008903
0.034065 0.810768 0.008248
0.070339 0.810828 0.007077
0.106653 0.810888 0.005904
0.143008 0.810948 0.004730
0.179404 0.811008 0.003554
0.215841 0.811069 0.002378
0.252318 0.811129 0.001200
0.288836 0.811189 0.000021
0.325395 0.811249 0.000000
0.361994 0.811309 0.000000
0.398634 0.811369 0.000000
0.435315 0.811429 0.000000
0.472037 0.811489 0.000000
0.508799 0.811549 0.000000
0.545602 0.811609 0.000000
0.582446 0.811669 0.000000
0.619330 0.811729 0.000000
0.656255 0.811789 0.000000
0.693221 0.811849 0.000000
0.730227 0.811909 0.000000
0.767274 0.811969 0.000000
0.804362 0.812029 0.000000
0.841491 0.812090 0.000000
0.878660 0.812150 0.000000
0.915870 0.812210 0.000000
0.953121 0.812270 0.000000
0.990412 0.812330 0.000000
1.000000 0.812363 0.000000
1.000000 0.812363 0.000000
1.000000 0.812363 0.000000
0.014293 0.849815 0.008732
0.014293 0.849815 0.008732
0.014293 0.849815 0.008732
0.034603 0.849850 0.008076
0.070945 0.849912 0.006902
0.107328 0.849975 0.005727
0.143752 0.850038 0.004551
0.180216 0.850101 0.003373
0.216721 0.850164 0.002195
0.253267 0.850226 0.001015
0.289854 0.850289 0.000000
0.326481 0.850352 0.000000
0.363149 0.850415 0.000000
0.399857 0.850478 0.000000
0.436607 0.850540 0.000000
0.473397 0.850603 0.000000
0.510227 0.850666 0.000000
0.547099 0.850729 0.000000
0.584011 0.850791 0.000000
0.620964 0.850854 0.000000
0.657957 0.850917 0.000000
0.694992 0.850980 0.000000
0.732067 0.851043 0.000000
0.769182 0.851105 0.000000
0.806339 0.851168 0.000000
0.843536 0.851231 0.000000
0.880773 0.851294 0.000000
0.918052 0.851356 0.000000
0.955371 0.851419 0.000000
0.992731 0.851482 0.000000
1.000000 0.851517 0.000000
1.000000 0.851517 0.000000
1.000000 0.851517 0.000000
0.014793 0.888913 0.008561
0.014793 0.888913 0.008561
0.014793 0.888913 0.008561
0.035141 0.888949 0.007903
0.071551 0.889015 0.006728
0.108003 0.889080 0.005550
0.144495 0.889146 0.004372
0.181028 0.889211 0.003192
0.217602 0.889277 0.002012
0.254216 0.889342 0.000829
0.290871 0.889408 0.000000
0.327567 0.889473 0.000000
0.364303 0.889539 0.000000
0.401080 0.889604 0.000000
0.437898 0.889670 0.000000
0.474757 0.889735 0.000000
0.511656 0.889801 0.000000
0.548596 0.889866 0.000000
0.585576 0.889932 0.000000
0.622598 0.889998 0.000000
0.659660 0.890063 0.000000
0.696763 0.890129 0.000000
0.733906 0.890194 0.000000
0.771090 0.890260 0.000000
0.808315 0.890325 0.000000
0.845580 0.890391 0.000000
0.882887 0.890456 0.000000
0.920234 0.890522 0.000000
0.957621 0.890587 0.000000
0.995050 0.890653 0.000000
1.000000 0.890689 0.000000
1.000000 0.890689 0.000000
1.000000 0.890689 0.000000
0.015293 0.928029 0.008389
0.015293 0.928029 0.008389
0.015293 0.928029 0.008389
0.035679 0.928067 0.007731
0.072158 0.928136 0.006553
0.108678 0.928204 0.005374
0.145239 0.928272 0.004193
0.181840 0.928340 0.003011
0.218482 0.928409 0.001828
0.255165 0.928477 0.000644
0.291889 0.928545 0.000000
0.328653 0.928613 0.000000
0.365458 0.928682 0.000000
0.402303 0.928750 0.000000
0.439190 0.928818 0.000000
0.476117 0.928886 0.000000
0.513084 0.928955 0.000000
0.550093 0.929023 0.000000
0.587142 0.929091 0.000000
0.624232 0.929159 0.000000
0.661362 0.929228 0.000000
0.698534 0.929296 0.000000
0.735745 0.929364 0.000000
0.772998 0.929432 0.000000
0.810291 0.929501 0.000000
0.847625 0.929569 0.000000
0.885000 0.929637 0.000000
0.922416 0.929705 0.000000
0.959872 0.929773 0.000000
