shared/luts/sony_vv2_approx.cube
TITLE "Sony VV2 approx"
LUT_3D_SIZE 9
0.003562 0.011346 0.012425
0.057911 0.011353 0.010667
0.197781 0.011369 0.006142
0.338302 0.011385 0.001597
0.479475 0.011400 0.000000
0.621298 0.011416 0.000000
0.763773 0.011432 0.000000
0.906899 0.011448 0.000000
0.962871 0.011454 0.000000
0.004335 0.071704 0.012158
0.058851 0.071717 0.010394
0.199148 0.071750 0.005856
0.340097 0.071783 0.001298
0.481696 0.071816 0.000000
0.623947 0.071849 0.000000
0.766849 0.071882 0.000000
0.910402 0.071915 0.000000
0.966540 0.071928 0.000000
0.006321 0.226739 0.011473
0.061264 0.226769 0.009696
0.202657 0.226846 0.005124
0.344701 0.226922 0.000532
0.487397 0.226999 0.000000
0.630743 0.227075 0.000000
0.774741 0.227152 0.000000
0.919390 0.227228 0.000000
0.975955 0.227258 0.000000
0.008310 0.382068 0.010788
0.063680 0.382114 0.008997
0.206169 0.382235 0.004392
0.349309 0.382355 0.000000
0.493100 0.382475 0.000000
0.637543 0.382595 0.000000
0.782636 0.382716 0.000000
0.928381 0.382836 0.000000
0.985374 0.382883 0.000000
0.010302 0.537690 0.010102
0.066099 0.537753 0.008299
0.209683 0.537917 0.003659
0.353919 0.538081 0.000000
0.498806 0.538245 0.000000
0.644345 0.538409 0.000000
0.790534 0.538573 0.000000
0.937375 0.538737 0.000000
0.994794 0.538801 0.000000
0.012296 0.693605 0.009417
0.068520 0.693686 0.007601
0.213201 0.693894 0.002927
0.358533 0.694101 0.000000
0.504515 0.694309 0.000000
0.651150 0.694516 0.000000
0.798435 0.694724 0.000000
0.946372 0.694931 0.000000
1.000000 0.695012 0.000000
0.014293 0.849815 0.008732
0.070945 0.849912 0.006902
0.216721 0.850164 0.002195
0.363149 0.850415 0.000000
0.510227 0.850666 0.000000
0.657957 0.850917 0.000000
0.806339 0.851168 0.000000
0.955371 0.851419 0.000000
1.000000 0.851517 0.000000
0.016293 1.000000 0.008047
0.073372 1.000000 0.006204
0.220244 1.000000 0.001462
0.367768 1.000000 0.000000
0.515942 1.000000 0.000000
0.664768 1.000000 0.000000
0.814245 1.000000 0.000000
0.964373 1.000000 0.000000
1.000000 1.000000 0.000000
0.017074 1.000000 0.007780
0.074319 1.000000 0.005932
0.221618 1.000000 0.001177
0.369569 1.000000 0.000000
0.518171 1.000000 0.000000
0.667424 1.000000 0.000000
0.817328 1.000000 0.000000
0.967883 1.000000 0.000000
1.000000 1.000000 0.000000
0.003581 0.012570 0.076520
0.057947 0.012575 0.074694
0.197860 0.012588 0.069996
0.338425 0.012600 0.065277
0.479640 0.012613 0.060539
0.621507 0.012626 0.055781
0.764025 0.012638 0.051002
0.907194 0.012651 0.046203
0.963182 0.012656 0.044327
0.004355 0.072926 0.076027
0.058887 0.072937 0.074196
0.199228 0.072967 0.069485
0.340219 0.072997 0.064754
0.481862 0.073026 0.060002
0.624156 0.073056 0.055230
0.767101 0.073086 0.050438
0.910697 0.073115 0.045626
0.966852 0.073127 0.043745
0.006341 0.227955 0.074764
0.061301 0.227984 0.072920
0.202737 0.228057 0.068175
0.344824 0.228131 0.063410
0.487562 0.228204 0.058624
0.630952 0.228277 0.053818
0.774993 0.228350 0.048993
0.919686 0.228424 0.044147
0.976267 0.228452 0.042252
0.008330 0.383278 0.073501
0.063717 0.383324 0.071644
0.206248 0.383441 0.066865
0.349432 0.383558 0.062066
0.493266 0.383675 0.057246
0.637751 0.383792 0.052407
0.782888 0.383909 0.047547
0.928676 0.384026 0.042667
0.985685 0.384071 0.040760
0.010321 0.538895 0.072238
0.066135 0.538958 0.070368
0.209763 0.539119 0.065555
0.354042 0.539279 0.060722
0.498972 0.539440 0.055868
0.644554 0.539600 0.050995
0.790786 0.539761 0.046101
0.937670 0.539922 0.041188
0.995106 0.539984 0.039267
0.012316 0.694806 0.070975
0.068557 0.694885 0.069091
0.213281 0.695090 0.064245
0.358655 0.695294 0.059378
0.504681 0.695498 0.054490
0.651359 0.695702 0.049583
0.798687 0.695907 0.044656
0.946667 0.696111 0.039708
1.000000 0.696190 0.037774
0.014313 0.851010 0.069712
0.070982 0.851106 0.067815
0.216801 0.851354 0.062934
0.363272 0.851602 0.058034
0.510393 0.851850 0.053113
0.658166 0.852098 0.048171
0.806591 0.852346 0.043210
0.955666 0.852594 0.038229
1.000000 0.852690 0.036281
0.016313 1.000000 0.068449
0.073409 1.000000 0.066539
0.220324 1.000000 0.061624
0.367890 1.000000 0.056690
0.516108 1.000000 0.051735
0.664977 1.000000 0.046760
0.814497 1.000000 0.041765
0.964669 1.000000 0.036749
1.000000 1.000000 0.034789
0.017094 1.000000 0.067957
0.074356 1.000000 0.066041
0.221698 1.000000 0.061114
0.369692 1.000000 0.056166
0.518337 1.000000 0.051198
0.667633 1.000000 0.046209
0.817580 1.000000 0.041201
0.968179 1.000000 0.036173
1.000000 1.000000 0.034207
0.003632 0.015705 0.240728
0.058041 0.015706 0.238729
0.198064 0.015710 0.233587
0.338739 0.015715 0.228425
0.480065 0.015719 0.223243
0.622042 0.015723 0.218040
0.764671 0.015727 0.212817
0.907951 0.015732 0.207575
0.963982 0.015733 0.205525
0.004405 0.076055 0.239658
0.058981 0.076063 0.237654
0.199431 0.076085 0.232499
0.340533 0.076106 0.227323
0.482287 0.076127 0.222128
0.624691 0.076148 0.216912
0.767747 0.076170 0.211676
0.911454 0.076191 0.206420
0.967652 0.076199 0.204366
0.006391 0.231071 0.236913
0.061394 0.231097 0.234896
0.202941 0.231161 0.229706
0.345138 0.231226 0.224497
0.487988 0.231291 0.219268
0.631488 0.231356 0.214018
0.775639 0.231421 0.208748
0.920442 0.231486 0.203458
0.977067 0.231511 0.201391
0.008380 0.386381 0.234168
0.063810 0.386423 0.232137
0.206453 0.386532 0.226914
0.349746 0.386640 0.221671
0.493691 0.386749 0.216408
0.638287 0.386858 0.211124
0.783535 0.386966 0.205820
0.929433 0.387075 0.200497
0.986486 0.387117 0.198416
0.010372 0.541984 0.231423
0.066229 0.542044 0.229379
0.209967 0.542196 0.224122
0.354357 0.542348 0.218845
0.499398 0.542500 0.213548
0.645090 0.542652 0.208230
0.791433 0.542805 0.202893
0.938427 0.542957 0.197535
0.995907 0.543016 0.195441
0.012366 0.697881 0.228677
0.068651 0.697958 0.226620
0.213485 0.698154 0.221330
0.358970 0.698349 0.216019
0.505107 0.698545 0.210687
0.651895 0.698741 0.205336
0.799334 0.698937 0.199965
0.947424 0.699133 0.194573
1.000000 0.699209 0.192466
0.014364 0.854072 0.225932
0.071075 0.854165 0.223862
0.217005 0.854405 0.218537
0.363587 0.854644 0.213192
0.510819 0.854884 0.207827
0.658703 0.855123 0.202442
0.807238 0.855363 0.197037
0.956424 0.855602 0.191612
1.000000 0.855696 0.189491
0.016364 1.000000 0.223187
0.073503 1.000000 0.221104
0.220529 1.000000 0.215745
0.368206 1.000000 0.210366
0.516534 1.000000 0.204967
0.665513 1.000000 0.199548
0.815144 1.000000 0.194109
0.965426 1.000000 0.188650
1.000000 1.000000 0.186516
0.017145 1.000000 0.222117
0.074450 1.000000 0.220028
0.221903 1.000000 0.214656
0.370007 1.000000 0.209264
0.518763 1.000000 0.203852
0.668169 1.000000 0.198420
0.818227 1.000000 0.192968
0.968936 1.000000 0.187495
1.000000 1.000000 0.185356
0.003682 0.018833 0.404638
0.058134 0.018832 0.402466
0.198268 0.018828 0.396880
0.339053 0.018823 0.391273
0.480490 0.018819 0.385647
0.622578 0.018815 0.380000
0.765317 0.018811 0.374334
0.908707 0.018807 0.368647
0.964782 0.018805 0.366424
0.004455 0.079179 0.402990
0.059074 0.079184 0.400813
0.199635 0.079196 0.395213
0.340848 0.079209 0.389594
0.482712 0.079222 0.383954
0.625227 0.079235 0.378294
0.768393 0.079248 0.372615
0.912211 0.079261 0.366914
0.968452 0.079266 0.364687
0.006441 0.234181 0.398763
0.061487 0.234203 0.396572
0.203144 0.234260 0.390939
0.345453 0.234316 0.385285
0.488413 0.234373 0.379612
0.632024 0.234430 0.373918
0.776286 0.234486 0.368205
0.921199 0.234543 0.362471
0.977867 0.234565 0.360230
0.008430 0.389478 0.394535
0.063904 0.389517 0.392331
0.206657 0.389617 0.386664
0.350061 0.389717 0.380977
0.494116 0.389817 0.375270
0.638823 0.389917 0.369542
0.784181 0.390018 0.363795
0.930190 0.390118 0.358027
0.987286 0.390157 0.355773
0.010422 0.545068 0.390308
0.066323 0.545124 0.388091
0.210172 0.545268 0.382390
0.354672 0.545411 0.376669
0.499823 0.545555 0.370927
0.645626 0.545699 0.365166
0.792079 0.545843 0.359384
0.939184 0.545987 0.353583
0.996707 0.546043 0.351316
0.012417 0.700951 0.386080
0.068745 0.701024 0.383850
0.213689 0.701212 0.378115
0.359285 0.701399 0.372360
0.505532 0.701587 0.366585
0.652431 0.701774 0.360790
0.799980 0.701962 0.354974
0.948182 0.702149 0.349139
1.000000 0.702222 0.346859
0.014415 0.857129 0.381853
0.071169 0.857219 0.379610
0.217210 0.857450 0.373841
0.363902 0.857681 0.368052
0.511245 0.857912 0.362243
0.659239 0.858143 0.356414
0.807884 0.858374 0.350565
0.957181 0.858605 0.344695
1.000000 0.858695 0.342402
0.016415 1.000000 0.377625
0.073597 1.000000 0.375369
0.220733 1.000000 0.369566
0.368521 1.000000 0.363744
0.516960 1.000000 0.357901
0.666050 1.000000 0.352038
0.815791 1.000000 0.346155
0.966184 1.000000 0.340251
1.000000 1.000000 0.337944
0.017196 1.000000 0.375978
0.074544 1.000000 0.373716
0.222108 1.000000 0.367900
0.370322 1.000000 0.362064
0.519188 1.000000 0.356208
0.668706 1.000000 0.350332
0.818874 1.000000 0.344435
0.969694 1.000000 0.338519
1.000000 1.000000 0.336207
0.003732 0.021956 0.568248
0.058227 0.021952 0.565903
0.198472 0.021939 0.559873
0.339368 0.021926 0.553822
0.480915 0.021914 0.547752
0.623113 0.021901 0.541661
0.765963 0.021889 0.535551
0.909464 0.021876 0.529420
0.965582 0.021872 0.527024
0.004505 0.082296 0.566022
0.059167 0.082298 0.563672
0.199839 0.082303 0.557628
0.341162 0.082307 0.551565
0.483137 0.082312 0.545481
0.625762 0.082316 0.539378
0.769039 0.082321 0.533254
0.912967 0.082325 0.527110
0.969252 0.082327 0.524709
0.006492 0.237286 0.560313
0.061581 0.237305 0.557949
0.203348 0.237353 0.551872
0.345767 0.237401 0.545774
0.488838 0.237449 0.539657
0.632559 0.237497 0.533519
0.776932 0.237545 0.527362
0.921956 0.237593 0.521184
0.978667 0.237612 0.518770
0.008481 0.392569 0.554603
0.063997 0.392605 0.552226
0.206861 0.392696 0.546115
0.350376 0.392788 0.539984
0.494542 0.392880 0.533833
0.639359 0.392972 0.527661
0.784827 0.393063 0.521469
0.930947 0.393155 0.515257
0.988086 0.393191 0.512830
0.010473 0.548145 0.548894
0.066416 0.548198 0.546503
0.210376 0.548334 0.540358
0.354986 0.548469 0.534193
0.500248 0.548604 0.528008
0.646162 0.548740 0.521803
0.792726 0.548875 0.515577
0.939942 0.549011 0.509331
0.997507 0.549064 0.506891
0.012468 0.704015 0.543184
0.068838 0.704085 0.540781
0.213894 0.704264 0.534602
0.359600 0.704443 0.528403
0.505958 0.704623 0.522184
0.652967 0.704802 0.515944
0.800627 0.704981 0.509685
0.948939 0.705160 0.503405
1.000000 0.705230 0.500952
0.014466 0.860179 0.537474
0.071263 0.860266 0.535058
0.217414 0.860489 0.528845
0.364217 0.860712 0.522612
0.511670 0.860934 0.516359
0.659775 0.861157 0.510086
0.808531 0.861380 0.503793
0.957939 0.861602 0.497479
1.000000 0.861689 0.495013
0.016466 1.000000 0.531765
0.073691 1.000000 0.529335
0.220938 1.000000 0.523088
0.368836 1.000000 0.516822
0.517385 1.000000 0.510535
0.666586 1.000000 0.504228
0.816438 1.000000 0.497901
0.966941 1.000000 0.491553
1.000000 1.000000 0.489073
0.017247 1.000000 0.529539
0.074638 1.000000 0.527104
0.222312 1.000000 0.520844
0.370638 1.000000 0.514564
0.519614 1.000000 0.508264
0.669242 1.000000 0.501944
0.819521 1.000000 0.495604
0.970451 1.000000 0.489243
1.000000 1.000000 0.486758
0.003782 0.025074 0.731559
0.058320 0.025066 0.729041
0.198675 0.025045 0.722566
0.339682 0.025024 0.716072
0.481340 0.025003 0.709558
0.623649 0.024982 0.703023
0.766609 0.024961 0.696468
0.910221 0.024940 0.689894
0.966381 0.024932 0.687325
0.004555 0.085409 0.728755
0.059260 0.085407 0.726232
0.200043 0.085403 0.719745
0.341477 0.085399 0.713237
0.483562 0.085395 0.706709
0.626298 0.085392 0.700162
0.769685 0.085388 0.693594
0.913724 0.085384 0.687006
0.970051 0.085382 0.684432
0.006542 0.240385 0.721564
0.061674 0.240400 0.719027
0.203552 0.240440 0.712506
0.346082 0.240480 0.705964
0.489263 0.240519 0.699403
0.633095 0.240559 0.692821
0.777578 0.240599 0.686219
0.922713 0.240639 0.679597
0.979467 0.240654 0.677010
0.008531 0.395654 0.714372
0.064091 0.395687 0.711822
0.207065 0.395770 0.705267
0.350690 0.395853 0.698692
0.494967 0.395937 0.692096
0.639895 0.396020 0.685480
0.785474 0.396104 0.678845
0.931704 0.396187 0.672189
0.988886 0.396220 0.669589
0.010523 0.551217 0.707180
0.066510 0.551267 0.704617
0.210580 0.551394 0.698028
0.355301 0.551521 0.691419
0.500674 0.551648 0.684789
0.646698 0.551775 0.678140
0.793373 0.551902 0.671471
0.940699 0.552029 0.664781
0.998307 0.552079 0.662167
0.012518 0.707074 0.699988
0.068932 0.707141 0.697412
0.214098 0.707311 0.690789
0.359915 0.707482 0.684146
0.506383 0.707653 0.677483
0.653503 0.707823 0.670799
0.801274 0.707994 0.664096
0.949696 0.708165 0.657373
1.000000 0.708231 0.654746
0.014516 0.863225 0.692796
0.071357 0.863308 0.690207
0.217619 0.863522 0.683550
0.364532 0.863737 0.676873
0.512096 0.863951 0.670176
0.660311 0.864165 0.663459
0.809178 0.864380 0.656722
0.958696 0.864594 0.649964
1.000000 0.864677 0.647325
0.016517 1.000000 0.685605
0.073785 1.000000 0.683002
0.221143 1.000000 0.676311
0.369151 1.000000 0.669600
0.517811 1.000000 0.662870
0.667123 1.000000 0.656119
0.817085 1.000000 0.649347
0.967699 1.000000 0.642556
1.000000 1.000000 0.639903
0.017298 1.000000 0.682801
0.074732 1.000000 0.680193
0.222517 1.000000 0.673489
0.370953 1.000000 0.666765
0.520040 1.000000 0.660021
0.669779 1.000000 0.653257
0.820168 1.000000 0.646473
0.971209 1.000000 0.639668
1.000000 1.000000 0.637010
0.003832 0.028186 0.894571
0.058413 0.028174 0.891879
0.198879 0.028145 0.884961
0.339996 0.028116 0.878023
0.481765 0.028086 0.871064
0.624184 0.028057 0.864086
0.767255 0.028028 0.857087
0.910977 0.027998 0.850068
0.967181 0.027987 0.847326
0.004605 0.088515 0.891189
0.059353 0.088510 0.888493
0.200247 0.088498 0.881561
0.341791 0.088486 0.874610
0.483987 0.088473 0.867638
0.626833 0.088461 0.860646
0.770332 0.088449 0.853634
0.914481 0.088437 0.846602
0.970851 0.088432 0.843855
0.006592 0.243478 0.882515
0.061767 0.243490 0.879805
0.203756 0.243521 0.872840
0.346397 0.243553 0.865855
0.489688 0.243584 0.858849
0.633631 0.243615 0.851823
0.778224 0.243647 0.844778
0.923470 0.243678 0.837712
0.980267 0.243690 0.834952
0.008582 0.398734 0.873841
0.064184 0.398763 0.871118
0.207269 0.398838 0.864119
0.351005 0.398913 0.857100
0.495392 0.398988 0.850060
0.640431 0.399063 0.843001
0.786120 0.399138 0.835921
0.932461 0.399213 0.828821
0.989686 0.399242 0.826048
0.010574 0.554284 0.865167
0.066604 0.554330 0.862431
0.210784 0.554448 0.855398
0.355616 0.554567 0.848345
0.501099 0.554686 0.841272
0.647233 0.554804 0.834178
0.794019 0.554923 0.827065
0.941456 0.555042 0.819931
0.999108 0.555088 0.817144
0.012569 0.710127 0.856493
0.069026 0.710190 0.853744
0.214302 0.710352 0.846677
0.360230 0.710515 0.839590
0.506809 0.710677 0.832483
0.654039 0.710839 0.825355
0.801921 0.711002 0.818208
0.950453 0.711164 0.811040
1.000000 0.711227 0.808241
0.014567 0.866264 0.847819
0.071451 0.866344 0.845057
0.217823 0.866550 0.837956
0.364847 0.866756 0.830835
0.512522 0.866962 0.823694
0.660848 0.867168 0.816533
0.809825 0.867374 0.809351
0.959453 0.867580 0.802150
1.000000 0.867660 0.799337
0.016568 1.000000 0.839145
0.073879 1.000000 0.836369
0.221347 1.000000 0.829235
0.369467 1.000000 0.822080
0.518237 1.000000 0.814905
0.667659 1.000000 0.807710
0.817732 1.000000 0.800495
0.968456 1.000000 0.793260
1.000000 1.000000 0.790434
0.017349 1.000000 0.835764
0.074826 1.000000 0.832983
0.222722 1.000000 0.825835
0.371268 1.000000 0.818667
0.520466 1.000000 0.811479
0.670315 1.000000 0.804271
0.820815 1.000000 0.797042
0.971967 1.000000 0.789794
1.000000 1.000000 0.786963
0.003882 0.031292 1.000000
0.058506 0.031277 1.000000
0.199083 0.031239 1.000000
0.340311 0.031201 1.000000
0.482190 0.031164 1.000000
0.624720 0.031126 1.000000
0.767901 0.031088 1.000000
0.911734 0.031051 1.000000
0.967981 0.031036 1.000000
0.004655 0.091616 1.000000
0.059447 0.091608 1.000000
0.200450 0.091587 1.000000
0.342105 0.091566 1.000000
0.484411 0.091546 1.000000
0.627369 0.091525 1.000000
0.770978 0.091504 1.000000
0.915237 0.091484 1.000000
0.971651 0.091476 1.000000
0.006642 0.246565 1.000000
0.061861 0.246574 1.000000
0.203960 0.246597 1.000000
0.346711 0.246620 1.000000
0.490113 0.246643 1.000000
0.634166 0.246666 1.000000
0.778871 0.246689 1.000000
0.924227 0.246712 0.995527
0.981067 0.246721 0.992594
0.008632 0.401808 1.000000
0.064277 0.401834 1.000000
0.207473 0.401900 1.000000
0.351320 0.401967 1.000000
0.495817 0.402034 1.000000
0.640966 0.402100 1.000000
0.786767 0.402167 0.992698
0.933218 0.402233 0.985154
0.990486 0.402259 0.982208
0.010624 0.557344 1.000000
0.066697 0.557387 1.000000
0.210988 0.557497 1.000000
0.355931 0.557608 1.000000
0.501525 0.557718 0.997455
0.647769 0.557828 0.989917
0.794666 0.557938 0.982359
0.942213 0.558049 0.974782
0.999908 0.558092 0.971822
0.012620 0.713174 1.000000
0.069120 0.713234 1.000000
0.214507 0.713388 1.000000
0.360545 0.713542 0.994735
0.507234 0.713696 0.987183
0.654575 0.713850 0.979612
0.802567 0.714003 0.972021
0.951210 0.714157 0.964409
1.000000 0.714217 0.961436
0.014618 0.869298 1.000000
0.071545 0.869375 0.999607
0.218028 0.869572 0.992062
0.365162 0.869770 0.984498
0.512947 0.869967 0.976912
0.661384 0.870165 0.969307
0.810472 0.870362 0.961682
0.960211 0.870560 0.954036
1.000000 0.870637 0.951051
0.016619 1.000000 0.992387
0.073973 1.000000 0.989438
0.221552 1.000000 0.981859
0.369782 1.000000 0.974260
0.518663 1.000000 0.966641
0.668195 1.000000 0.959002
0.818379 1.000000 0.951343
0.969214 1.000000 0.943664
1.000000 1.000000 0.940665
0.017400 1.000000 0.988428
0.074921 1.000000 0.985474
0.222926 1.000000 0.977882
0.371584 1.000000 0.970270
0.520892 1.000000 0.962637
0.670851 1.000000 0.954985
0.821462 1.000000 0.947313
0.972724 1.000000 0.939620
1.000000 1.000000 0.936616
0.003901 0.032501 1.000000
0.058543 0.032485 1.000000
0.199162 0.032444 1.000000
0.340433 0.032403 1.000000
0.482355 0.032362 1.000000
0.624929 0.032321 1.000000
0.768153 0.032280 1.000000
0.912029 0.032239 1.000000
0.968293 0.032223 1.000000
0.004675 0.092823 1.000000
0.059483 0.092814 1.000000
0.200530 0.092790 1.000000
0.342228 0.092766 1.000000
0.484577 0.092742 1.000000
0.627578 0.092718 1.000000
0.771229 0.092694 1.000000
0.915532 0.092670 1.000000
0.971963 0.092661 1.000000
0.006662 0.247767 1.000000
0.061897 0.247775 1.000000
0.204040 0.247794 1.000000
0.346834 0.247814 1.000000
0.490279 0.247834 1.000000
0.634375 0.247853 1.000000
0.779123 0.247873 1.000000
0.924522 0.247893 1.000000
0.981379 0.247901 1.000000
0.008652 0.403005 1.000000
0.064314 0.403029 1.000000
0.207552 0.403093 1.000000
0.351442 0.403156 1.000000
0.495983 0.403219 1.000000
0.641175 0.403283 1.000000
0.787019 0.403346 1.000000
0.933513 0.403409 1.000000
0.990798 0.403434 1.000000
0.010644 0.558536 1.000000
0.066734 0.558577 1.000000
0.211068 0.558684 1.000000
0.356054 0.558791 1.000000
0.501690 0.558898 1.000000
0.647978 0.559005 1.000000
0.794918 0.559112 1.000000
0.942508 0.559219 1.000000
1.000000 0.559261 1.000000
0.012640 0.714360 1.000000
0.069156 0.714419 1.000000
0.214586 0.714570 1.000000
0.360668 0.714720 1.000000
0.507400 0.714871 1.000000
0.654784 0.715022 1.000000
0.802819 0.715172 1.000000
0.951506 0.715323 1.000000
1.000000 0.715381 1.000000
0.014638 0.870479 1.000000
0.071582 0.870555 1.000000
0.218108 0.870749 1.000000
0.365285 0.870943 1.000000
0.513113 0.871137 1.000000
0.661593 0.871331 1.000000
0.810724 0.871526 1.000000
0.960506 0.871720 1.000000
1.000000 0.871796 1.000000
0.016639 1.000000 1.000000
0.074010 1.000000 1.000000
0.221632 1.000000 1.000000
0.369905 1.000000 1.000000
0.518829 1.000000 1.000000
0.668404 1.000000 1.000000
0.818631 1.000000 1.000000
0.969509 1.000000 1.000000
1.000000 1.000000 0.999148
0.017420 1.000000 1.000000
0.074957 1.000000 1.000000
0.223006 1.000000 1.000000
0.371706 1.000000 1.000000
0.521058 1.000000 1.000000
0.671061 1.000000 1.000000
0.821714 1.000000 1.000000
0.973020 1.000000 0.997946
1.000000 1.000000 0.994874
