shared/luts/sony_fl_approx.cube
TITLE "Sony FL approx"
LUT_3D_SIZE 33
0.056752 0.063702 0.064665
0.056752 0.063702 0.064665
0.056752 0.063702 0.064665
0.074148 0.063704 0.064102
0.105278 0.063708 0.063095
0.136444 0.063711 0.062087
0.167647 0.063715 0.061077
0.198886 0.063718 0.060067
0.230162 0.063722 0.059055
0.261473 0.063726 0.058042
0.292822 0.063729 0.057028
0.324206 0.063733 0.056013
0.355627 0.063736 0.054997
0.387084 0.063740 0.053980
0.418578 0.063743 0.052961
0.450108 0.063747 0.051941
0.481674 0.063750 0.050921
0.513276 0.063754 0.049899
0.544915 0.063758 0.048876
0.576590 0.063761 0.047852
0.608302 0.063765 0.046827
0.640050 0.063768 0.045800
0.671834 0.063772 0.044773
0.703655 0.063775 0.043744
0.735512 0.063779 0.042714
0.767405 0.063782 0.041684
0.799335 0.063786 0.040652
0.831301 0.063790 0.039619
0.863303 0.063793 0.038584
0.895342 0.063797 0.037549
0.913277 0.063799 0.036969
0.913277 0.063799 0.036969
0.913277 0.063799 0.036969
0.056752 0.063702 0.064665
0.056752 0.063702 0.064665
0.056752 0.063702 0.064665
0.074148 0.063704 0.064102
0.105278 0.063708 0.063095
0.136444 0.063711 0.062087
0.167647 0.063715 0.061077
0.198886 0.063718 0.060067
0.230162 0.063722 0.059055
0.261473 0.063726 0.058042
0.292822 0.063729 0.057028
0.324206 0.063733 0.056013
0.355627 0.063736 0.054997
0.387084 0.063740 0.053980
0.418578 0.063743 0.052961
0.450108 0.063747 0.051941
0.481674 0.063750 0.050921
0.513276 0.063754 0.049899
0.544915 0.063758 0.048876
0.576590 0.063761 0.047852
0.608302 0.063765 0.046827
0.640050 0.063768 0.045800
0.671834 0.063772 0.044773
0.703655 0.063775 0.043744
0.735512 0.063779 0.042714
0.767405 0.063782 0.041684
0.799335 0.063786 0.040652
0.831301 0.063790 0.039619
0.863303 0.063793 0.038584
0.895342 0.063797 0.037549
0.913277 0.063799 0.036969
0.913277 0.063799 0.036969
0.913277 0.063799 0.036969
0.056752 0.063702 0.064665
0.056752 0.063702 0.064665
0.056752 0.063702 0.064665
0.074148 0.063704 0.064102
0.105278 0.063708 0.063095
0.136444 0.063711 0.062087
0.167647 0.063715 0.061077
0.198886 0.063718 0.060067
0.230162 0.063722 0.059055
0.261473 0.063726 0.058042
0.292822 0.063729 0.057028
0.324206 0.063733 0.056013
0.355627 0.063736 0.054997
0.387084 0.063740 0.053980
0.418578 0.063743 0.052961
0.450108 0.063747 0.051941
0.481674 0.063750 0.050921
0.513276 0.063754 0.049899
0.544915 0.063758 0.048876
0.576590 0.063761 0.047852
0.608302 0.063765 0.046827
0.640050 0.063768 0.045800
0.671834 0.063772 0.044773
0.703655 0.063775 0.043744
0.735512 0.063779 0.042714
0.767405 0.063782 0.041684
0.799335 0.063786 0.040652
0.831301 0.063790 0.039619
0.863303 0.063793 0.038584
0.895342 0.063797 0.037549
0.913277 0.063799 0.036969
0.913277 0.063799 0.036969
0.913277 0.063799 0.036969
0.056999 0.083028 0.064580
0.056999 0.083028 0.064580
0.056999 0.083028 0.064580
0.074414 0.083031 0.064016
0.105579 0.083036 0.063008
0.136779 0.083041 0.061999
0.168016 0.083046 0.060988
0.199290 0.083051 0.059976
0.230599 0.083055 0.058964
0.261945 0.083060 0.057950
0.293328 0.083065 0.056935
0.324746 0.083070 0.055919
0.356202 0.083075 0.054901
0.387693 0.083080 0.053883
0.419221 0.083085 0.052863
0.450785 0.083090 0.051843
0.482385 0.083095 0.050821
0.514022 0.083100 0.049798
0.545695 0.083105 0.048774
0.577404 0.083110 0.047749
0.609150 0.083114 0.046722
0.640932 0.083119 0.045695
0.672751 0.083124 0.044667
0.704606 0.083129 0.043637
0.736497 0.083134 0.042606
0.768424 0.083139 0.041574
0.800388 0.083144 0.040541
0.832388 0.083149 0.039507
0.864425 0.083154 0.038472
0.896498 0.083159 0.037435
0.914452 0.083161 0.036855
0.914452 0.083161 0.036855
0.914452 0.083161 0.036855
0.057442 0.117593 0.064427
0.057442 0.117593 0.064427
0.057442 0.117593 0.064427
0.074892 0.117597 0.063862
0.106117 0.117605 0.062852
0.137379 0.117612 0.061841
0.168677 0.117619 0.060828
0.200011 0.117627 0.059815
0.231382 0.117634 0.058800
0.262789 0.117641 0.057784
0.294233 0.117649 0.056767
0.325713 0.117656 0.055749
0.357229 0.117663 0.054730
0.388782 0.117671 0.053710
0.420370 0.117678 0.052688
0.451996 0.117685 0.051666
0.483657 0.117693 0.050642
0.515355 0.117700 0.049617
0.547089 0.117708 0.048592
0.578860 0.117715 0.047564
0.610667 0.117722 0.046536
0.642510 0.117730 0.045507
0.674390 0.117737 0.044477
0.706306 0.117744 0.043445
0.738258 0.117752 0.042412
0.770247 0.117759 0.041379
0.802272 0.117766 0.040344
0.834333 0.117774 0.039308
0.866431 0.117781 0.038271
0.898565 0.117788 0.037232
0.916554 0.117793 0.036651
0.916554 0.117793 0.036651
0.916554 0.117793 0.036651
0.057885 0.152175 0.064274
0.057885 0.152175 0.064274
0.057885 0.152175 0.064274
0.075369 0.152180 0.063708
0.106655 0.152190 0.062696
0.137978 0.152200 0.061683
0.169338 0.152209 0.060669
0.200733 0.152219 0.059653
0.232165 0.152229 0.058637
0.263634 0.152239 0.057619
0.295138 0.152249 0.056600
0.326679 0.152258 0.055580
0.358257 0.152268 0.054559
0.389870 0.152278 0.053537
0.421520 0.152288 0.052514
0.453207 0.152297 0.051489
0.484929 0.152307 0.050464
0.516689 0.152317 0.049437
0.548484 0.152327 0.048409
0.580316 0.152337 0.047380
0.612184 0.152346 0.046350
0.644088 0.152356 0.045319
0.676029 0.152366 0.044287
0.708006 0.152376 0.043253
0.740020 0.152386 0.042219
0.772069 0.152395 0.041183
0.804155 0.152405 0.040146
0.836278 0.152415 0.039108
0.868437 0.152425 0.038069
0.900632 0.152435 0.037029
0.918655 0.152440 0.036447
0.918655 0.152440 0.036447
0.918655 0.152440 0.036447
0.058329 0.186772 0.064121
0.058329 0.186772 0.064121
0.058329 0.186772 0.064121
0.075846 0.186779 0.063554
0.107194 0.186791 0.062540
0.138578 0.186804 0.061525
0.169999 0.186816 0.060509
0.201455 0.186828 0.059492
0.232948 0.186840 0.058473
0.264478 0.186853 0.057454
0.296044 0.186865 0.056433
0.327646 0.186877 0.055411
0.359284 0.186889 0.054388
0.390959 0.186901 0.053364
0.422670 0.186914 0.052339
0.454418 0.186926 0.051313
0.486202 0.186938 0.050285
0.518022 0.186950 0.049257
0.549879 0.186963 0.048227
0.581772 0.186975 0.047196
0.613701 0.186987 0.046164
0.645666 0.186999 0.045131
0.677668 0.187011 0.044097
0.709706 0.187024 0.043061
0.741781 0.187036 0.042025
0.773892 0.187048 0.040987
0.806039 0.187060 0.039949
0.838223 0.187073 0.038909
0.870443 0.187085 0.037868
0.902699 0.187097 0.036826
0.920757 0.187104 0.036243
0.920757 0.187104 0.036243
0.920757 0.187104 0.036243
0.058772 0.221386 0.063968
0.058772 0.221386 0.063968
0.058772 0.221386 0.063968
0.076324 0.221395 0.063400
0.107733 0.221409 0.062384
0.139178 0.221424 0.061367
0.170660 0.221439 0.060349
0.202177 0.221453 0.059330
0.233732 0.221468 0.058310
0.265322 0.221483 0.057288
0.296949 0.221497 0.056266
0.328613 0.221512 0.055242
0.360312 0.221527 0.054217
0.392048 0.221541 0.053191
0.423821 0.221556 0.052164
0.455629 0.221571 0.051136
0.487474 0.221585 0.050106
0.519356 0.221600 0.049076
0.551273 0.221615 0.048044
0.583227 0.221629 0.047012
0.615218 0.221644 0.045978
0.647245 0.221659 0.044943
0.679308 0.221673 0.043907
0.711407 0.221688 0.042870
0.743543 0.221703 0.041831
0.775715 0.221717 0.040792
0.807923 0.221732 0.039751
0.840168 0.221747 0.038710
0.872449 0.221761 0.037667
0.904767 0.221776 0.036623
0.922858 0.221784 0.036038
0.922858 0.221784 0.036038
0.922858 0.221784 0.036038
0.059215 0.256017 0.063815
0.059215 0.256017 0.063815
0.059215 0.256017 0.063815
0.076802 0.256027 0.063246
0.108272 0.256044 0.062229
0.139778 0.256061 0.061210
0.171321 0.256078 0.060190
0.202900 0.256095 0.059169
0.234515 0.256112 0.058146
0.266167 0.256129 0.057123
0.297855 0.256146 0.056098
0.329580 0.256163 0.055073
0.361340 0.256180 0.054046
0.393138 0.256198 0.053018
0.424971 0.256215 0.051989
0.456841 0.256232 0.050959
0.488747 0.256249 0.049928
0.520690 0.256266 0.048896
0.552668 0.256283 0.047862
0.584684 0.256300 0.046827
0.616735 0.256317 0.045792
0.648823 0.256334 0.044755
0.680947 0.256351 0.043717
0.713108 0.256369 0.042678
0.745305 0.256386 0.041638
0.777538 0.256403 0.040596
0.809807 0.256420 0.039554
0.842113 0.256437 0.038510
0.874456 0.256454 0.037465
0.906834 0.256471 0.036420
0.924960 0.256481 0.035834
0.924960 0.256481 0.035834
0.924960 0.256481 0.035834
0.059659 0.290664 0.063662
0.059659 0.290664 0.063662
0.059659 0.290664 0.063662
0.077279 0.290675 0.063092
0.108811 0.290694 0.062073
0.140378 0.290714 0.061052
0.171982 0.290734 0.060030
0.203622 0.290753 0.059007
0.235299 0.290773 0.057983
0.267012 0.290792 0.056958
0.298761 0.290812 0.055931
0.330547 0.290831 0.054904
0.362369 0.290851 0.053875
0.394227 0.290870 0.052845
0.426122 0.290890 0.051814
0.458053 0.290909 0.050782
0.490020 0.290929 0.049749
0.522024 0.290948 0.048715
0.554064 0.290968 0.047680
0.586140 0.290987 0.046643
0.618253 0.291007 0.045606
0.650402 0.291026 0.044567
0.682587 0.291046 0.043527
0.714809 0.291066 0.042486
0.747067 0.291085 0.041444
0.779361 0.291105 0.040401
0.811692 0.291124 0.039356
0.844059 0.291144 0.038311
0.876462 0.291163 0.037264
0.908902 0.291183 0.036216
0.927062 0.291194 0.035630
0.927062 0.291194 0.035630
0.927062 0.291194 0.035630
0.060103 0.325327 0.063509
0.060103 0.325327 0.063509
0.060103 0.325327 0.063509
0.077757 0.325340 0.062938
0.109350 0.325362 0.061917
0.140979 0.325384 0.060894
0.172644 0.325406 0.059870
0.204345 0.325427 0.058845
0.236083 0.325449 0.057819
0.267857 0.325471 0.056792
0.299667 0.325493 0.055764
0.331514 0.325515 0.054735
0.363397 0.325537 0.053704
0.395317 0.325559 0.052672
0.427272 0.325581 0.051640
0.459264 0.325603 0.050606
0.491293 0.325625 0.049571
0.523358 0.325647 0.048535
0.555459 0.325669 0.047497
0.587596 0.325691 0.046459
0.619770 0.325713 0.045419
0.651980 0.325735 0.044379
0.684227 0.325757 0.043337
0.716510 0.325779 0.042294
0.748829 0.325801 0.041250
0.781184 0.325823 0.040205
0.813576 0.325845 0.039159
0.846005 0.325867 0.038111
0.878469 0.325889 0.037063
0.910970 0.325911 0.036013
0.929164 0.325923 0.035426
0.929164 0.325923 0.035426
0.929164 0.325923 0.035426
0.060547 0.360007 0.063356
0.060547 0.360007 0.063356
0.060547 0.360007 0.063356
0.078236 0.360021 0.062784
0.109889 0.360045 0.061761
0.141579 0.360070 0.060736
0.173305 0.360094 0.059711
0.205068 0.360118 0.058684
0.236867 0.360143 0.057656
0.268702 0.360167 0.056627
0.300573 0.360192 0.055597
0.332481 0.360216 0.054565
0.364426 0.360240 0.053533
0.396406 0.360265 0.052499
0.428423 0.360289 0.051465
0.460476 0.360314 0.050429
0.492566 0.360338 0.049392
0.524692 0.360362 0.048354
0.556854 0.360387 0.047315
0.589053 0.360411 0.046275
0.621288 0.360436 0.045233
0.653559 0.360460 0.044191
0.685867 0.360484 0.043147
0.718211 0.360509 0.042102
0.750591 0.360533 0.041056
0.783008 0.360558 0.040009
0.815461 0.360582 0.038961
0.847950 0.360606 0.037912
0.880476 0.360631 0.036862
0.913038 0.360655 0.035810
0.931267 0.360669 0.035221
0.931267 0.360669 0.035221
0.931267 0.360669 0.035221
0.060991 0.394703 0.063203
0.060991 0.394703 0.063203
0.060991 0.394703 0.063203
0.078714 0.394718 0.062630
0.110429 0.394745 0.061605
0.142180 0.394772 0.060578
0.173967 0.394799 0.059551
0.205791 0.394826 0.058522
0.237651 0.394852 0.057492
0.269547 0.394879 0.056462
0.301480 0.394906 0.055429
0.333449 0.394933 0.054396
0.365454 0.394960 0.053362
0.397496 0.394987 0.052327
0.429574 0.395013 0.051290
0.461689 0.395040 0.050252
0.493839 0.395067 0.049214
0.526027 0.395094 0.048174
0.558250 0.395121 0.047133
0.590510 0.395148 0.046090
0.622806 0.395174 0.045047
0.655138 0.395201 0.044003
0.687507 0.395228 0.042957
0.719912 0.395255 0.041911
0.752354 0.395282 0.040863
0.784832 0.395309 0.039814
0.817346 0.395335 0.038764
0.849896 0.395362 0.037713
0.882483 0.395389 0.036660
0.915107 0.395416 0.035607
0.933369 0.395431 0.035017
0.933369 0.395431 0.035017
0.933369 0.395431 0.035017
0.061435 0.429416 0.063050
0.061435 0.429416 0.063050
0.061435 0.429416 0.063050
0.079193 0.429432 0.062476
0.110968 0.429461 0.061449
0.142781 0.429491 0.060421
0.174629 0.429520 0.059391
0.206514 0.429549 0.058361
0.238435 0.429578 0.057329
0.270393 0.429608 0.056296
0.302386 0.429637 0.055262
0.334417 0.429666 0.054227
0.366483 0.429695 0.053191
0.398586 0.429725 0.052154
0.430725 0.429754 0.051115
0.462901 0.429783 0.050076
0.495113 0.429813 0.049035
0.527361 0.429842 0.047993
0.559646 0.429871 0.046950
0.591967 0.429900 0.045906
0.624324 0.429930 0.044861
0.656718 0.429959 0.043815
0.689148 0.429988 0.042767
0.721614 0.430017 0.041719
0.754117 0.430047 0.040669
0.786656 0.430076 0.039618
0.819231 0.430105 0.038566
0.851843 0.430135 0.037513
0.884491 0.430164 0.036459
0.917175 0.430193 0.035404
0.935472 0.430209 0.034813
0.935472 0.430209 0.034813
0.935472 0.430209 0.034813
0.061880 0.464145 0.062897
0.061880 0.464145 0.062897
0.061880 0.464145 0.062897
0.079671 0.464162 0.062322
0.111508 0.464194 0.061293
0.143381 0.464226 0.060263
0.175291 0.464257 0.059232
0.207237 0.464289 0.058199
0.239219 0.464321 0.057166
0.271238 0.464352 0.056131
0.303293 0.464384 0.055095
0.335385 0.464416 0.054058
0.367512 0.464448 0.053020
0.399676 0.464479 0.051981
0.431877 0.464511 0.050940
0.464113 0.464543 0.049899
0.496386 0.464574 0.048856
0.528696 0.464606 0.047813
0.561042 0.464638 0.046768
0.593424 0.464670 0.045722
0.625842 0.464701 0.044675
0.658297 0.464733 0.043627
0.690788 0.464765 0.042577
0.723316 0.464796 0.041527
0.755879 0.464828 0.040475
0.788480 0.464860 0.039423
0.821116 0.464892 0.038369
0.853789 0.464923 0.037314
0.886498 0.464955 0.036258
0.919244 0.464987 0.035201
0.937575 0.465004 0.034609
0.937575 0.465004 0.034609
0.937575 0.465004 0.034609
0.062325 0.498890 0.062744
0.062325 0.498890 0.062744
0.062325 0.498890 0.062744
0.080150 0.498909 0.062168
0.112048 0.498943 0.061137
0.143983 0.498977 0.060105
0.175953 0.499011 0.059072
0.207961 0.499045 0.058038
0.240004 0.499080 0.057002
0.272084 0.499114 0.055965
0.304200 0.499148 0.054928
0.336353 0.499182 0.053889
0.368542 0.499216 0.052849
0.400767 0.499250 0.051808
0.433028 0.499284 0.050766
0.465326 0.499319 0.049722
0.497660 0.499353 0.048678
0.530031 0.499387 0.047632
0.562438 0.499421 0.046585
0.594881 0.499455 0.045538
0.627361 0.499489 0.044489
0.659877 0.499523 0.043439
0.692429 0.499558 0.042387
0.725017 0.499592 0.041335
0.757642 0.499626 0.040282
0.790304 0.499660 0.039227
0.823001 0.499694 0.038171
0.855735 0.499728 0.037114
0.888506 0.499762 0.036057
0.921312 0.499797 0.034997
0.939678 0.499816 0.034405
0.939678 0.499816 0.034405
0.939678 0.499816 0.034405
0.062769 0.533651 0.062591
0.062769 0.533651 0.062591
0.062769 0.533651 0.062591
0.080629 0.533672 0.062014
0.112588 0.533708 0.060981
0.144584 0.533745 0.059947
0.176616 0.533782 0.058912
0.208684 0.533818 0.057876
0.240789 0.533855 0.056839
0.272930 0.533891 0.055800
0.305107 0.533928 0.054760
0.337321 0.533965 0.053720
0.369571 0.534001 0.052678
0.401857 0.534038 0.051635
0.434180 0.534074 0.050591
0.466539 0.534111 0.049546
0.498934 0.534147 0.048499
0.531366 0.534184 0.047452
0.563834 0.534221 0.046403
0.596338 0.534257 0.045353
0.628879 0.534294 0.044303
0.661456 0.534330 0.043251
0.694070 0.534367 0.042197
0.726719 0.534403 0.041143
0.759406 0.534440 0.040088
0.792128 0.534477 0.039031
0.824887 0.534513 0.037974
0.857682 0.534550 0.036915
0.890513 0.534586 0.035855
0.923381 0.534623 0.034794
0.941781 0.534643 0.034200
0.941781 0.534643 0.034200
0.941781 0.534643 0.034200
0.063214 0.568429 0.062438
0.063214 0.568429 0.062438
0.063214 0.568429 0.062438
0.081108 0.568451 0.061860
0.113129 0.568490 0.060825
0.145185 0.568529 0.059790
0.177279 0.568568 0.058753
0.209408 0.568607 0.057714
0.241574 0.568646 0.056675
0.273776 0.568685 0.055635
0.306014 0.568724 0.054593
0.338289 0.568763 0.053551
0.370600 0.568802 0.052507
0.402948 0.568841 0.051462
0.435332 0.568880 0.050416
0.467752 0.568919 0.049369
0.500208 0.568958 0.048321
0.532701 0.568997 0.047271
0.565230 0.569036 0.046221
0.597796 0.569075 0.045169
0.630398 0.569115 0.044116
0.663036 0.569153 0.043063
0.695711 0.569193 0.042008
0.728422 0.569232 0.040951
0.761169 0.569271 0.039894
0.793952 0.569310 0.038836
0.826772 0.569349 0.037776
0.859629 0.569388 0.036716
0.892521 0.569427 0.035654
0.925450 0.569466 0.034591
0.943884 0.569487 0.033996
0.943884 0.569487 0.033996
0.943884 0.569487 0.033996
0.063659 0.603224 0.062286
0.063659 0.603224 0.062286
0.063659 0.603224 0.062286
0.081587 0.603247 0.061706
0.113669 0.603288 0.060670
0.145787 0.603330 0.059632
0.177941 0.603371 0.058593
0.210132 0.603413 0.057553
0.242359 0.603454 0.056512
0.274622 0.603496 0.055469
0.306922 0.603537 0.054426
0.339258 0.603579 0.053381
0.371630 0.603620 0.052336
0.404039 0.603662 0.051289
0.436484 0.603703 0.050241
0.468965 0.603744 0.049192
0.501483 0.603786 0.048142
0.534037 0.603827 0.047091
0.566627 0.603869 0.046038
0.599254 0.603910 0.044985
0.631917 0.603952 0.043930
0.664616 0.603993 0.042874
0.697352 0.604035 0.041818
0.730124 0.604076 0.040760
0.762932 0.604117 0.039700
0.795777 0.604159 0.038640
0.828658 0.604200 0.037579
0.861576 0.604242 0.036516
0.894529 0.604283 0.035453
0.927520 0.604325 0.034388
0.945988 0.604348 0.033792
0.945988 0.604348 0.033792
0.945988 0.604348 0.033792
0.064105 0.638035 0.062133
0.064105 0.638035 0.062133
0.064105 0.638035 0.062133
0.082067 0.638059 0.061552
0.114210 0.638103 0.060514
0.146389 0.638147 0.059474
0.178604 0.638191 0.058433
0.210856 0.638235 0.057391
0.243144 0.638279 0.056348
0.275468 0.638323 0.055304
0.307829 0.638366 0.054259
0.340226 0.638410 0.053212
0.372660 0.638454 0.052165
0.405130 0.638498 0.051116
0.437636 0.638542 0.050066
0.470178 0.638586 0.049015
0.502757 0.638630 0.047963
0.535372 0.638674 0.046910
0.568024 0.638717 0.045856
0.600712 0.638761 0.044801
0.633436 0.638805 0.043744
0.666196 0.638849 0.042686
0.698993 0.638893 0.041628
0.731826 0.638937 0.040568
0.764696 0.638981 0.039507
0.797602 0.639025 0.038445
0.830544 0.639069 0.037381
0.863523 0.639112 0.036317
0.896538 0.639156 0.035251
0.929589 0.639200 0.034185
0.948091 0.639225 0.033588
0.948091 0.639225 0.033588
0.948091 0.639225 0.033588
0.064550 0.672862 0.061980
0.064550 0.672862 0.061980
0.064550 0.672862 0.061980
0.082547 0.672888 0.061398
0.114750 0.672934 0.060358
0.146991 0.672980 0.059316
0.179267 0.673027 0.058273
0.211580 0.673073 0.057230
0.243929 0.673119 0.056185
0.276315 0.673166 0.055139
0.308737 0.673212 0.054092
0.341195 0.673258 0.053043
0.373690 0.673305 0.051994
0.406221 0.673351 0.050943
0.438788 0.673397 0.049892
0.471392 0.673443 0.048839
0.504032 0.673490 0.047785
0.536708 0.673536 0.046730
0.569421 0.673582 0.045674
0.602170 0.673629 0.044616
0.634955 0.673675 0.043558
0.667777 0.673721 0.042498
0.700635 0.673768 0.041438
0.733529 0.673814 0.040376
0.766460 0.673860 0.039313
0.799427 0.673907 0.038249
0.832430 0.673953 0.037184
0.865470 0.673999 0.036118
0.898546 0.674046 0.035050
0.931659 0.674092 0.033982
0.950195 0.674118 0.033383
0.950195 0.674118 0.033383
0.950195 0.674118 0.033383
0.064996 0.707705 0.061827
0.064996 0.707705 0.061827
0.064996 0.707705 0.061827
0.083026 0.707733 0.061244
0.115291 0.707781 0.060202
0.147593 0.707830 0.059158
0.179930 0.707879 0.058114
0.212305 0.707928 0.057068
0.244715 0.707976 0.056021
0.277162 0.708025 0.054973
0.309645 0.708074 0.053924
0.342164 0.708123 0.052874
0.374720 0.708171 0.051823
0.407312 0.708220 0.050770
0.439941 0.708269 0.049717
0.472605 0.708318 0.048662
0.505306 0.708366 0.047606
0.538044 0.708415 0.046549
0.570818 0.708464 0.045491
0.603628 0.708513 0.044432
0.636474 0.708561 0.043372
0.669357 0.708610 0.042310
0.702276 0.708659 0.041248
0.735232 0.708708 0.040184
0.768224 0.708757 0.039119
0.801252 0.708805 0.038053
0.834317 0.708854 0.036986
0.867417 0.708903 0.035918
0.900555 0.708951 0.034849
0.933728 0.709000 0.033778
0.952299 0.709028 0.033179
0.952299 0.709028 0.033179
0.952299 0.709028 0.033179
0.065441 0.742565 0.061674
0.065441 0.742565 0.061674
0.065441 0.742565 0.061674
0.083506 0.742594 0.061090
0.115832 0.742645 0.060046
0.148195 0.742696 0.059001
0.180594 0.742748 0.057954
0.213029 0.742799 0.056907
0.245501 0.742850 0.055858
0.278009 0.742901 0.054808
0.310553 0.742952 0.053757
0.343133 0.743004 0.052705
0.375750 0.743055 0.051652
0.408403 0.743106 0.050597
0.441093 0.743157 0.049542
0.473819 0.743208 0.048485
0.506581 0.743259 0.047428
0.539380 0.743311 0.046369
0.572215 0.743362 0.045309
0.605086 0.743413 0.044248
0.637994 0.743464 0.043186
0.670938 0.743515 0.042122
0.703918 0.743567 0.041058
0.736935 0.743618 0.039992
0.769988 0.743669 0.038926
0.803077 0.743720 0.037858
0.836203 0.743771 0.036789
0.869365 0.743823 0.035719
0.902563 0.743874 0.034648
0.935798 0.743925 0.033575
0.954403 0.743954 0.032975
0.954403 0.743954 0.032975
0.954403 0.743954 0.032975
0.065887 0.777442 0.061521
0.065887 0.777442 0.061521
0.065887 0.777442 0.061521
0.083986 0.777472 0.060936
0.116374 0.777525 0.059890
0.148797 0.777579 0.058843
0.181257 0.777633 0.057794
0.213754 0.777686 0.056745
0.246286 0.777740 0.055694
0.278856 0.777793 0.054643
0.311461 0.777847 0.053590
0.344103 0.777901 0.052536
0.376781 0.777954 0.051481
0.409495 0.778008 0.050425
0.442246 0.778061 0.049367
0.475033 0.778115 0.048309
0.507856 0.778169 0.047249
0.540716 0.778222 0.046188
0.573612 0.778276 0.045127
0.606545 0.778330 0.044064
0.639513 0.778383 0.042999
0.672519 0.778437 0.041934
0.705560 0.778490 0.040868
0.738638 0.778544 0.039800
0.771752 0.778598 0.038732
0.804903 0.778651 0.037662
0.838089 0.778705 0.036591
0.871313 0.778759 0.035519
0.904572 0.778812 0.034446
0.937868 0.778866 0.033372
0.956507 0.778896 0.032771
0.956507 0.778896 0.032771
0.956507 0.778896 0.032771
0.066333 0.812334 0.061368
0.066333 0.812334 0.061368
0.066333 0.812334 0.061368
0.084467 0.812366 0.060782
0.116915 0.812422 0.059734
0.149400 0.812478 0.058685
0.181921 0.812534 0.057635
0.214479 0.812590 0.056583
0.247072 0.812646 0.055531
0.279703 0.812702 0.054477
0.312369 0.812758 0.053423
0.345072 0.812814 0.052367
0.377811 0.812870 0.051310
0.410587 0.812926 0.050252
0.443399 0.812982 0.049192
0.476247 0.813038 0.048132
0.509132 0.813094 0.047071
0.542053 0.813151 0.046008
0.575010 0.813207 0.044944
0.608003 0.813263 0.043879
0.641033 0.813319 0.042813
0.674100 0.813375 0.041746
0.707202 0.813431 0.040678
0.740341 0.813487 0.039609
0.773517 0.813543 0.038538
0.806728 0.813599 0.037467
0.839976 0.813655 0.036394
0.873261 0.813711 0.035320
0.906581 0.813767 0.034245
0.939938 0.813823 0.033169
0.958611 0.813855 0.032567
0.958611 0.813855 0.032567
0.958611 0.813855 0.032567
0.066779 0.847243 0.061215
0.066779 0.847243 0.061215
0.066779 0.847243 0.061215
0.084947 0.847276 0.060628
0.117457 0.847335 0.059578
0.150003 0.847393 0.058527
0.182585 0.847452 0.057475
0.215204 0.847510 0.056422
0.247859 0.847569 0.055367
0.280550 0.847627 0.054312
0.313278 0.847686 0.053255
0.346042 0.847744 0.052198
0.378842 0.847803 0.051139
0.411679 0.847861 0.050079
0.444552 0.847920 0.049018
0.477461 0.847978 0.047955
0.510407 0.848037 0.046892
0.543389 0.848095 0.045827
0.576407 0.848154 0.044762
0.609462 0.848212 0.043695
0.642553 0.848271 0.042627
0.675681 0.848329 0.041558
0.708845 0.848388 0.040488
0.742045 0.848446 0.039417
0.775281 0.848505 0.038344
0.808554 0.848563 0.037271
0.841863 0.848622 0.036196
0.875209 0.848680 0.035121
0.908590 0.848739 0.034044
0.942009 0.848797 0.032966
0.960716 0.848830 0.032362
0.960716 0.848830 0.032362
0.960716 0.848830 0.032362
0.067226 0.882169 0.061062
0.067226 0.882169 0.061062
0.067226 0.882169 0.061062
0.085428 0.882203 0.060474
0.117998 0.882264 0.059422
0.150605 0.882325 0.058369
0.183249 0.882386 0.057315
0.215929 0.882447 0.056260
0.248645 0.882508 0.055204
0.281397 0.882569 0.054147
0.314186 0.882630 0.053088
0.347011 0.882691 0.052028
0.379873 0.882751 0.050968
0.412771 0.882812 0.049906
0.445705 0.882873 0.048843
0.478676 0.882934 0.047779
0.511683 0.882995 0.046713
0.544726 0.883056 0.045647
0.577805 0.883117 0.044579
0.610921 0.883178 0.043511
0.644073 0.883239 0.042441
0.677262 0.883300 0.041370
0.710487 0.883361 0.040298
0.743748 0.883422 0.039225
0.777046 0.883483 0.038151
0.810380 0.883544 0.037075
0.843750 0.883604 0.035999
0.877157 0.883665 0.034921
0.910600 0.883726 0.033843
