shared/luts/sony_vv2_approx.cube
TITLE "Sony VV2 approx"
LUT_3D_SIZE 5
0.003562 0.011346 0.012425
0.197781 0.011369 0.006142
0.479475 0.011400 0.000000
0.763773 0.011432 0.000000
0.962871 0.011454 0.000000
0.006321 0.226739 0.011473
0.202657 0.226846 0.005124
0.487397 0.226999 0.000000
0.774741 0.227152 0.000000
0.975955 0.227258 0.000000
0.010302 0.537690 0.010102
0.209683 0.537917 0.003659
0.498806 0.538245 0.000000
0.790534 0.538573 0.000000
0.994794 0.538801 0.000000
0.014293 0.849815 0.008732
0.216721 0.850164 0.002195
0.510227 0.850666 0.000000
0.806339 0.851168 0.000000
1.000000 0.851517 0.000000
0.017074 1.000000 0.007780
0.221618 1.000000 0.001177
0.518171 1.000000 0.000000
0.817328 1.000000 0.000000
1.000000 1.000000 0.000000
0.003632 0.015705 0.240728
0.198064 0.015710 0.233587
0.480065 0.015719 0.223243
0.764671 0.015727 0.212817
0.963982 0.015733 0.205525
0.006391 0.231071 0.236913
0.202941 0.231161 0.229706
0.487988 0.231291 0.219268
0.775639 0.231421 0.208748
0.977067 0.231511 0.201391
0.010372 0.541984 0.231423
0.209967 0.542196 0.224122
0.499398 0.542500 0.213548
0.791433 0.542805 0.202893
0.995907 0.543016 0.195441
0.014364 0.854072 0.225932
0.217005 0.854405 0.218537
0.510819 0.854884 0.207827
0.807238 0.855363 0.197037
1.000000 0.855696 0.189491
0.017145 1.000000 0.222117
0.221903 1.000000 0.214656
0.518763 1.000000 0.203852
0.818227 1.000000 0.192968
1.000000 1.000000 0.185356
0.003732 0.021956 0.568248
0.198472 0.021939 0.559873
0.480915 0.021914 0.547752
0.765963 0.021889 0.535551
0.965582 0.021872 0.527024
0.006492 0.237286 0.560313
0.203348 0.237353 0.551872
0.488838 0.237449 0.539657
0.776932 0.237545 0.527362
0.978667 0.237612 0.518770
0.010473 0.548145 0.548894
0.210376 0.548334 0.540358
0.500248 0.548604 0.528008
0.792726 0.548875 0.515577
0.997507 0.549064 0.506891
0.014466 0.860179 0.537474
0.217414 0.860489 0.528845
0.511670 0.860934 0.516359
0.808531 0.861380 0.503793
1.000000 0.861689 0.495013
0.017247 1.000000 0.529539
0.222312 1.000000 0.520844
0.519614 1.000000 0.508264
0.819521 1.000000 0.495604
1.000000 1.000000 0.486758
0.003832 0.028186 0.894571
0.198879 0.028145 0.884961
0.481765 0.028086 0.871064
0.767255 0.028028 0.857087
0.967181 0.027987 0.847326
0.006592 0.243478 0.882515
0.203756 0.243521 0.872840
0.489688 0.243584 0.858849
0.778224 0.243647 0.844778
0.980267 0.243690 0.834952
0.010574 0.554284 0.865167
0.210784 0.554448 0.855398
0.501099 0.554686 0.841272
0.794019 0.554923 0.827065
0.999108 0.555088 0.817144
0.014567 0.866264 0.847819
0.217823 0.866550 0.837956
0.512522 0.866962 0.823694
0.809825 0.867374 0.809351
1.000000 0.867660 0.799337
0.017349 1.000000 0.835764
0.222722 1.000000 0.825835
0.520466 1.000000 0.811479
0.820815 1.000000 0.797042
1.000000 1.000000 0.786963
0.003901 0.032501 1.000000
0.199162 0.032444 1.000000
0.482355 0.032362 1.000000
0.768153 0.032280 1.000000
0.968293 0.032223 1.000000
0.006662 0.247767 1.000000
0.204040 0.247794 1.000000
0.490279 0.247834 1.000000
0.779123 0.247873 1.000000
0.981379 0.247901 1.000000
0.010644 0.558536 1.000000
0.211068 0.558684 1.000000
0.501690 0.558898 1.000000
0.794918 0.559112 1.000000
1.000000 0.559261 1.000000
0.014638 0.870479 1.000000
0.218108 0.870749 1.000000
0.513113 0.871137 1.000000
0.810724 0.871526 1.000000
1.000000 0.871796 1.000000
0.017420 1.000000 1.000000
0.223006 1.000000 1.000000
0.521058 1.000000 1.000000
0.821714 1.000000 1.000000
1.000000 1.000000 0.994874
